(1001)
(T2 D=6.35 CR=0 - ZMIN=-17.1 - flat end mill)
G90 G94
G17
G21
G28 G91 Z0
G90

(Adaptive3)
T2
S5000 M3
G17 G90 G94
G54
M8
G0 X62.971 Y35.256
Z5
G0 Z1.5
G3 X62.203 Y30.174 Z1.29 I1.402 J-2.811 F333.3
X67.239 Y31.174 Z1.08 I2.167 J2.269
X64.595 Y35.567 Z0.869 I-2.866 J1.268
X61.361 Y31.595 Z0.659 I-0.221 J-3.122
X66.189 Y29.901 Z0.449 I3.009 J0.85
X66.146 Y35.011 Z0.239 I-1.817 J2.54
X61.359 Y33.24 Z0.028 I-1.771 J-2.567
X64.644 Y29.342 Z-0.182 I3.012 J-0.795
X67.195 Y33.748 Z-0.392 I-0.272 J3.1
X62.19 Y34.654 Z-0.602 I-2.821 J-1.306
X63.034 Y29.644 Z-0.813 I2.182 J-2.209
X67.456 Y32.133 Z-1.023 I1.337 J2.798
X63.62 Y35.446 Z-1.233 I-3.082 J0.309
X61.806 Y30.72 Z-1.443 I0.753 J-3
X66.861 Y30.615 Z-1.654 I2.564 J1.724
X65.248 Y35.401 Z-1.864 I-2.488 J1.826
X61.297 Y32.265 Z-2.074 I-0.874 J-2.956
X65.581 Y29.614 Z-2.284 I3.073 J0.18
X66.622 Y34.537 Z-2.494 I-1.21 J2.827
X61.643 Y33.848 Z-2.705 I-2.247 J-2.094
X63.976 Y29.403 Z-2.915 I2.728 J-1.403
X67.363 Y33.101 Z-3.125 I0.394 J3.039
X62.742 Y35.031 Z-3.335 I-2.989 J-0.658
X62.492 Y30.035 Z-3.546 I1.63 J-2.586
X67.272 Y31.492 Z-3.756 I1.878 J2.407
X64.285 Y35.49 Z-3.966 I-2.898 J0.949
X61.54 Y31.329 Z-4.176 I0.089 J-3.044
X66.378 Y30.159 Z-4.387 I2.831 J1.114
X65.84 Y35.102 Z-4.597 I-2.005 J2.283
X61.378 Y32.923 Z-4.807 I-1.466 J-2.657
X64.936 Y29.467 Z-5.017 I2.993 J-0.478
X66.978 Y33.98 Z-5.228 I-0.564 J2.974
X62.046 Y34.372 Z-5.438 I-2.604 J-1.537
X63.348 Y29.604 Z-5.648 I2.326 J-1.926
X67.387 Y32.442 Z-5.858 I1.022 J2.838
X61.354 Y32.442 I-3.016 J0
X67.387 Y32.442 I3.016 J0
G1 X67.391 Y32.67 F1000
X67.546 Y33.568
X67.6 Y33.708
X67.637 Y33.854
X67.66 Y34.002
X67.669 Y34.152
X67.666 Y34.31
X67.649 Y34.479
X67.616 Y34.658
X67.566 Y34.845
X67.497 Y35.038
X67.409 Y35.235
X67.299 Y35.435
X67.167 Y35.635
X67.014 Y35.832
X66.837 Y36.023
X66.639 Y36.207
X66.419 Y36.38
X66.177 Y36.541
X65.916 Y36.685
X65.637 Y36.812
X65.341 Y36.918
X65.03 Y37.003
X64.707 Y37.063
X64.375 Y37.098
X64.034 Y37.106
X63.689 Y37.086
X63.342 Y37.039
X62.996 Y36.962
X62.654 Y36.857
X62.317 Y36.724
X61.99 Y36.562
X61.674 Y36.374
X61.373 Y36.159
X61.088 Y35.92
X60.822 Y35.657
X60.577 Y35.372
X60.355 Y35.067
X60.157 Y34.744
X59.985 Y34.406
X59.84 Y34.053
X59.724 Y33.69
X59.637 Y33.317
X59.58 Y32.938
X59.554 Y32.556
X59.559 Y32.171
X59.594 Y31.788
X59.661 Y31.409
X59.757 Y31.035
X59.884 Y30.671
X60.039 Y30.317
X60.222 Y29.977
X60.432 Y29.653
X60.668 Y29.346
X60.927 Y29.059
X61.209 Y28.794
X61.511 Y28.552
X61.832 Y28.335
X62.169 Y28.145
X62.521 Y27.982
X62.884 Y27.848
X63.258 Y27.743
X63.638 Y27.669
X64.023 Y27.625
X64.411 Y27.613
X64.798 Y27.632
X65.183 Y27.681
X65.562 Y27.762
X65.934 Y27.872
X66.295 Y28.012
X66.645 Y28.181
X66.979 Y28.377
X67.297 Y28.6
X67.596 Y28.847
X67.874 Y29.117
X68.129 Y29.409
X68.361 Y29.721
X68.601 Y30.105
X69.006 Y30.886
X69.268 Y31.511
X69.445 Y32.048
X69.562 Y32.535
X69.636 Y32.999
X69.67 Y33.449
X69.668 Y33.885
X69.633 Y34.31
X69.564 Y34.725
X69.462 Y35.13
X69.329 Y35.526
X69.163 Y35.911
X68.967 Y36.284
X68.739 Y36.642
X68.481 Y36.984
X68.193 Y37.307
X67.877 Y37.61
X67.533 Y37.89
X67.162 Y38.145
X66.767 Y38.372
X66.349 Y38.57
X65.911 Y38.736
X65.454 Y38.868
X64.983 Y38.964
X64.5 Y39.023
X64.009 Y39.042
X63.512 Y39.022
X63.014 Y38.962
X62.518 Y38.861
X62.028 Y38.72
X61.548 Y38.538
X61.08 Y38.317
X60.629 Y38.058
X60.198 Y37.761
X59.79 Y37.429
X59.408 Y37.064
X59.055 Y36.667
X58.733 Y36.242
X58.446 Y35.79
X58.195 Y35.316
X57.982 Y34.821
X57.809 Y34.309
X57.678 Y33.784
X57.589 Y33.249
X57.543 Y32.708
X57.541 Y32.164
X57.582 Y31.62
X57.667 Y31.081
X57.795 Y30.55
X57.966 Y30.031
X58.178 Y29.526
X58.429 Y29.04
X58.72 Y28.575
X59.047 Y28.134
X59.408 Y27.721
X59.801 Y27.339
X60.224 Y26.989
X60.674 Y26.673
X61.148 Y26.395
X61.643 Y26.156
X62.156 Y25.957
X62.683 Y25.8
X63.221 Y25.686
X63.766 Y25.615
X64.315 Y25.589
X64.865 Y25.606
X65.412 Y25.668
X65.952 Y25.773
X66.482 Y25.921
X66.999 Y26.112
X67.498 Y26.343
X67.977 Y26.613
X68.434 Y26.921
X68.874 Y27.273
X69.352 Y27.724
X69.806 Y28.225
X70.233 Y28.781
X70.619 Y29.376
X70.95 Y29.99
X71.224 Y30.614
X71.442 Y31.241
X71.604 Y31.868
X71.714 Y32.494
X71.772 Y33.117
X71.779 Y33.735
X71.738 Y34.345
X71.648 Y34.945
X71.512 Y35.533
X71.329 Y36.107
X71.1 Y36.663
X70.828 Y37.2
X70.513 Y37.715
X70.156 Y38.204
X69.758 Y38.666
X69.322 Y39.097
X68.85 Y39.495
X68.343 Y39.856
X67.804 Y40.178
X67.236 Y40.458
X66.643 Y40.694
X66.028 Y40.883
X65.394 Y41.023
X64.746 Y41.112
X64.089 Y41.15
X63.425 Y41.134
X62.761 Y41.065
X62.1 Y40.942
X61.448 Y40.765
X60.807 Y40.535
X60.184 Y40.252
X59.582 Y39.919
X59.006 Y39.537
X58.461 Y39.108
X57.949 Y38.634
X57.475 Y38.119
X57.042 Y37.566
X56.654 Y36.977
X56.313 Y36.358
X56.023 Y35.711
X55.784 Y35.041
X55.6 Y34.353
X55.471 Y33.652
X55.399 Y32.94
X55.384 Y32.225
X55.427 Y31.509
X55.527 Y30.798
X55.684 Y30.097
X55.897 Y29.41
X56.165 Y28.742
X56.485 Y28.097
X56.857 Y27.479
X57.277 Y26.893
X57.743 Y26.342
X58.252 Y25.831
X58.801 Y25.361
X59.386 Y24.937
X60.003 Y24.561
X60.648 Y24.236
X61.318 Y23.963
X62.008 Y23.746
X62.712 Y23.584
X63.428 Y23.479
X64.15 Y23.432
X64.873 Y23.443
X65.594 Y23.512
X66.306 Y23.639
X67.006 Y23.822
X67.689 Y24.062
X68.354 Y24.356
X69.015 Y24.715
X69.665 Y25.139
X70.298 Y25.628
X70.905 Y26.181
X71.475 Y26.79
X71.998 Y27.448
X72.467 Y28.146
X72.876 Y28.876
X73.224 Y29.632
X73.507 Y30.407
X73.725 Y31.195
X73.878 Y31.991
X73.965 Y32.791
X73.989 Y33.589
X73.948 Y34.382
X73.844 Y35.165
X73.678 Y35.935
X73.452 Y36.686
X73.166 Y37.417
X72.823 Y38.123
X72.423 Y38.799
X71.969 Y39.443
X71.464 Y40.051
X70.909 Y40.618
X70.307 Y41.142
X69.662 Y41.618
X68.977 Y42.043
X68.255 Y42.414
X67.502 Y42.727
X66.722 Y42.981
X65.918 Y43.172
X65.098 Y43.299
X64.265 Y43.36
X63.425 Y43.355
X62.583 Y43.281
X61.746 Y43.139
X60.919 Y42.929
X60.108 Y42.653
X59.317 Y42.31
X58.554 Y41.904
X57.822 Y41.436
X57.128 Y40.908
X56.476 Y40.324
X55.871 Y39.688
X55.318 Y39.004
X54.819 Y38.275
X54.38 Y37.506
X54.003 Y36.703
X53.691 Y35.87
X53.446 Y35.013
X53.271 Y34.138
X53.166 Y33.25
X53.133 Y32.356
X53.171 Y31.46
X53.282 Y30.569
X53.464 Y29.689
X53.716 Y28.826
X54.037 Y27.986
X54.424 Y27.173
X54.876 Y26.393
X55.389 Y25.652
X55.961 Y24.953
X56.587 Y24.303
X57.263 Y23.705
X57.985 Y23.163
X58.749 Y22.68
X59.549 Y22.261
X60.381 Y21.906
X61.238 Y21.62
X62.116 Y21.403
X63.008 Y21.257
X63.91 Y21.184
X64.814 Y21.183
X65.716 Y21.254
X66.61 Y21.398
X67.493 Y21.614
X68.359 Y21.901
X69.199 Y22.256
X70.008 Y22.676
X70.782 Y23.158
X71.518 Y23.697
X72.211 Y24.289
X72.859 Y24.931
X73.459 Y25.618
X74.008 Y26.346
X74.503 Y27.111
X74.943 Y27.91
X75.323 Y28.739
X75.641 Y29.593
X75.895 Y30.469
X76.083 Y31.361
X76.205 Y32.265
X76.259 Y33.175
X76.246 Y34.087
X76.165 Y34.995
X76.015 Y35.894
X75.799 Y36.78
X75.517 Y37.647
X75.17 Y38.491
X74.761 Y39.305
X74.292 Y40.087
X73.766 Y40.832
X73.185 Y41.535
X72.553 Y42.192
X71.872 Y42.799
X71.149 Y43.354
X70.385 Y43.853
X69.587 Y44.294
X68.759 Y44.675
X67.905 Y44.995
X67.031 Y45.253
X66.14 Y45.447
X65.237 Y45.576
X64.328 Y45.641
X63.416 Y45.639
X62.507 Y45.571
X61.605 Y45.437
X60.714 Y45.241
X59.84 Y44.982
X58.986 Y44.663
X58.155 Y44.286
X57.353 Y43.853
X56.584 Y43.363
X55.852 Y42.82
X55.159 Y42.227
X54.508 Y41.588
X53.903 Y40.906
X53.345 Y40.185
X52.837 Y39.428
X52.384 Y38.637
X51.987 Y37.816
X51.647 Y36.97
X51.365 Y36.102
X51.142 Y35.218
X50.978 Y34.321
X50.877 Y33.415
X50.838 Y32.504
X50.863 Y31.593
X50.948 Y30.685
X51.094 Y29.785
X51.299 Y28.896
X51.563 Y28.024
X51.888 Y27.172
X52.27 Y26.344
X52.707 Y25.543
X53.196 Y24.774
X53.735 Y24.039
X54.322 Y23.341
X54.956 Y22.685
X55.633 Y22.074
X56.35 Y21.511
X57.103 Y20.996
X57.888 Y20.532
X58.701 Y20.121
X59.542 Y19.767
X60.404 Y19.472
X61.285 Y19.236
X62.18 Y19.059
X63.084 Y18.941
X63.994 Y18.883
X64.905 Y18.887
X65.815 Y18.954
X66.718 Y19.083
X67.61 Y19.271
X68.488 Y19.517
X69.348 Y19.819
X70.186 Y20.178
X70.998 Y20.593
X71.782 Y21.059
X72.534 Y21.574
X73.253 Y22.135
X73.936 Y22.739
X74.581 Y23.384
X75.183 Y24.069
X75.742 Y24.789
X76.255 Y25.542
X76.722 Y26.326
X77.141 Y27.135
X77.51 Y27.969
X77.826 Y28.825
X78.086 Y29.699
X78.291 Y30.587
X78.305 Y30.669
X78.316 Y30.749
X78.323 Y30.831
X78.325 Y30.912
Y34.268
X78.279 Y35.179
X78.2 Y36.058
X78.045 Y36.956
X77.823 Y37.84
X77.537 Y38.706
X77.192 Y39.55
X76.79 Y40.369
X76.332 Y41.158
X75.825 Y41.915
X75.269 Y42.638
X74.669 Y43.325
X74.027 Y43.972
X73.345 Y44.577
X72.625 Y45.137
X71.871 Y45.649
X71.087 Y46.114
X70.275 Y46.53
X69.44 Y46.896
X68.584 Y47.21
X67.71 Y47.47
X66.822 Y47.675
X65.922 Y47.826
X65.016 Y47.921
X64.105 Y47.963
X63.193 Y47.949
X62.284 Y47.879
X61.381 Y47.753
X60.487 Y47.573
X59.605 Y47.34
X58.739 Y47.056
X57.891 Y46.722
X57.063 Y46.339
X56.261 Y45.905
X55.487 Y45.423
X54.743 Y44.897
X54.03 Y44.327
X53.886 Y44.197
X53.706 Y44.004
X53.563 Y43.782
X53.462 Y43.538
X53.347 Y43.175
X52.875 Y41.695
X52.817 Y41.518
X52.744 Y41.311
X52.584 Y40.896
X52.423 Y40.482
X52.349 Y40.275
X52.084 Y39.446
X51.921 Y39.032
X51.633 Y38.331
X51.593 Y38.204
X51.426 Y37.652
X51.4 Y37.582
X51.205 Y37.168
X51.105 Y36.961
X50.774 Y36.339
X50.43 Y35.718
X50.391 Y35.649
X50.181 Y35.304
X50.152 Y35.252
X50.129 Y35.2
X50.096 Y35.097
X49.64 Y33.44
X49.593 Y33.232
X49.59 Y33.129
X49.624 Y32.611
X49.644 Y32.404
X49.693 Y31.99
X49.719 Y31.782
X49.807 Y31.161
X49.852 Y30.954
X50.014 Y30.333
X50.184 Y29.696
X50.255 Y29.504
X50.604 Y28.675
X50.692 Y28.468
X50.784 Y28.261
X50.805 Y28.216
X50.896 Y28.054
X51.219 Y27.53
X51.278 Y27.433
X51.426 Y27.172
X51.505 Y27.018
X51.608 Y26.811
X51.84 Y26.212
X51.938 Y25.776
X51.976 Y25.568
X52 Y25.154
X51.996 Y24.947
X51.993 Y24.797
X52.017 Y24.488
X52.069 Y24.158
X52.16 Y23.781
X52.299 Y23.36
X52.491 Y22.904
X52.75 Y22.403
X53.098 Y21.848
X53.514 Y21.287
X54.044 Y20.682
X54.689 Y20.056
X55.392 Y19.475
X56.135 Y18.947
X56.913 Y18.472
X57.721 Y18.049
X58.555 Y17.681
X59.41 Y17.364
X60.283 Y17.1
X61.17 Y16.886
X62.067 Y16.724
X62.972 Y16.614
X63.882 Y16.557
X64.794 Y16.555
X65.704 Y16.606
X66.61 Y16.709
X67.509 Y16.862
X68.398 Y17.065
X69.274 Y17.318
X70.134 Y17.621
X70.975 Y17.973
X71.795 Y18.373
X72.591 Y18.816
X73.362 Y19.303
X74.107 Y19.83
X74.822 Y20.395
X75.505 Y20.999
X76.154 Y21.639
X76.767 Y22.314
X77.343 Y23.021
X77.882 Y23.757
X78.083 Y24.065
X78.216 Y24.318
X78.297 Y24.592
X78.325 Y24.876
Y30.912
G3 X77.989 Y31.45 Z-5.725 I-0.635 J-0.022
X77.677 Y31.563 Z-5.658 I-0.543 J-1.02
X76.461 Y31.035 I-0.232 J-1.132
X77.702 Y25.583 I3.41 J-2.091
X77.989 Y25.414 Z-5.725 I2.168 J3.361
G2 X78.325 Y24.876 Z-5.858 I-0.299 J-0.56
G1 Y23.083 F900
X78.306 Y22.701
X78.268 Y22.41
X78.196 Y22.075
X78.082 Y21.693
X77.919 Y21.276
X77.69 Y20.802
X77.381 Y20.278
X76.987 Y19.717
X76.472 Y19.096
X75.835 Y18.444
X75.149 Y17.843
X74.423 Y17.292
X73.664 Y16.786
X72.877 Y16.326
X72.064 Y15.911
X71.231 Y15.543
X70.378 Y15.218
X69.511 Y14.938
X68.63 Y14.702
X67.738 Y14.51
X66.839 Y14.363
X65.933 Y14.26
X65.022 Y14.205
X64.111 Y14.198
X63.2 Y14.236
X62.292 Y14.321
X61.389 Y14.45
X60.494 Y14.624
X59.609 Y14.843
X58.737 Y15.109
X57.88 Y15.421
X57.042 Y15.779
X56.224 Y16.184
X55.431 Y16.633
X54.664 Y17.126
X53.929 Y17.666
X53.231 Y18.252
X52.574 Y18.885
X51.965 Y19.564
X51.454 Y20.233
X51.028 Y20.896
X50.887 Y21.16
X50.771 Y21.444
X50.716 Y21.747
X50.725 Y22.054
X50.797 Y22.353
X50.929 Y22.631
X51.115 Y22.875
G2 X51.466 Y23.051 I0.446 J-0.452 F1000
G1 X51.506
X51.544 Y23.039
X51.576 Y23.015
X51.599 Y22.983
X51.611 Y22.945
X51.624 Y22.911
X51.649 Y22.884
X51.683 Y22.87
X51.719 Y22.871
X51.753 Y22.886
X51.777 Y22.914
X51.789 Y22.948
X51.787 Y22.977
X51.775 Y23.003
X51.755 Y23.024
X51.729 Y23.036
G3 X51.115 Y22.875 I-0.167 J-0.613
G1 X50.962 Y22.713
X50.912 Y22.669
X50.484 Y22.37
X50.366 Y22.278
X50.261 Y22.17
X50.173 Y22.049
X50.1 Y21.918
X50.039 Y21.78
X49.988 Y21.627
X49.941 Y21.436
X49.908 Y21.233
X49.889 Y20.995
Y20.709
X49.912 Y20.415
X49.968 Y20.069
X50.063 Y19.683
X50.201 Y19.267
X50.401 Y18.797
X50.665 Y18.291
X51.006 Y17.75
X51.452 Y17.154
X52.008 Y16.524
X52.664 Y15.89
X53.367 Y15.31
X54.109 Y14.78
X54.883 Y14.298
X55.683 Y13.861
X56.506 Y13.468
X57.348 Y13.119
X58.207 Y12.812
X59.079 Y12.546
X59.963 Y12.322
X60.856 Y12.139
X61.757 Y11.999
X62.663 Y11.899
X63.573 Y11.841
X64.485 Y11.824
X65.397 Y11.848
X66.306 Y11.913
X67.212 Y12.018
X68.112 Y12.163
X69.005 Y12.349
X69.888 Y12.575
X70.76 Y12.841
X71.619 Y13.147
X72.463 Y13.492
X73.29 Y13.877
X74.097 Y14.3
X74.882 Y14.765
X75.64 Y15.271
X76.369 Y15.82
X77.063 Y16.41
X77.719 Y17.044
X77.944 Y17.295
X78.107 Y17.512
X78.227 Y17.755
X78.3 Y18.016
X78.325 Y18.286
Y23.083
G3 X77.989 Y23.621 Z-5.725 I-0.635 J-0.022
X77.67 Y23.7 Z-5.658 I-0.318 J-0.596
X77.168 Y23.476 I0.002 J-0.676
X77.705 Y18.997 I2.232 J-2.005
X77.989 Y18.824 Z-5.725 I1.695 J2.475
G2 X78.325 Y18.286 Z-5.858 I-0.299 J-0.56
G1 Y16.869 F900
X78.315 Y16.665
X78.285 Y16.441
X78.233 Y16.197
X78.147 Y15.908
X78.025 Y15.596
X77.856 Y15.247
X77.628 Y14.86
X77.331 Y14.438
X76.953 Y13.982
X76.46 Y13.477
X75.84 Y12.936
X75.107 Y12.393
X74.334 Y11.909
X73.531 Y11.477
X72.705 Y11.092
X71.859 Y10.751
X70.997 Y10.452
X70.123 Y10.194
X69.238 Y9.974
X68.345 Y9.792
X67.444 Y9.647
X66.539 Y9.54
X65.63 Y9.47
X64.719 Y9.437
X63.807 Y9.443
X62.896 Y9.486
X61.988 Y9.566
X61.083 Y9.683
X60.185 Y9.837
X59.293 Y10.028
X58.41 Y10.256
X57.538 Y10.521
X56.678 Y10.825
X55.833 Y11.167
X55.005 Y11.548
X54.196 Y11.969
X53.408 Y12.429
X52.646 Y12.929
X51.914 Y13.472
X51.216 Y14.06
X50.559 Y14.691
X49.946 Y15.367
X49.415 Y16.049
X48.977 Y16.715
X48.621 Y17.367
X48.35 Y17.974
X48.148 Y18.545
X48.003 Y19.089
X47.912 Y19.59
X47.866 Y20.053
X47.859 Y20.48
X47.864 Y20.575
X47.911 Y20.857
X48.015 Y21.124
X48.172 Y21.364
X48.374 Y21.566
X48.613 Y21.723
X48.88 Y21.827
X49.162 Y21.875
X49.356 Y21.918
G2 X49.954 Y21.707 I0.116 J-0.624 F1000
X49.933 Y21.511 I-0.102 J-0.088
X49.739 Y21.544 I-0.081 J0.107
G1 X49.72 Y21.574
G3 X49.162 Y21.875 I-0.54 J-0.334
G1 X48.735 Y21.857
X48.528 Y21.858
X48.362 Y21.88
X48.213 Y21.893
X48.063 Y21.881
X47.917 Y21.849
X47.776 Y21.797
X47.642 Y21.73
X47.516 Y21.648
X47.399 Y21.555
X47.285 Y21.447
X47.16 Y21.31
X47.04 Y21.154
X46.917 Y20.965
X46.801 Y20.752
X46.691 Y20.502
X46.594 Y20.223
X46.51 Y19.902
X46.449 Y19.553
X46.411 Y19.151
X46.405 Y18.729
X46.438 Y18.236
X46.512 Y17.735
X46.643 Y17.166
X46.837 Y16.556
X47.095 Y15.924
X47.449 Y15.224
X47.904 Y14.48
X48.44 Y13.742
X49.031 Y13.048
X49.668 Y12.396
X50.347 Y11.787
X51.06 Y11.218
X51.802 Y10.689
X52.57 Y10.198
X53.361 Y9.744
X54.172 Y9.326
X55 Y8.945
X55.387 Y8.786
X55.569 Y8.725
X55.757 Y8.687
X55.949 Y8.675
X70.681
X71.47 Y8.715
X72.143 Y8.803
X72.91 Y8.967
X73.741 Y9.216
X74.578 Y9.542
X75.398 Y9.94
X76.186 Y10.4
X76.936 Y10.917
X77.619 Y11.471
X77.866 Y11.706
X78.061 Y11.934
X78.205 Y12.196
X78.295 Y12.481
X78.325 Y12.779
G3 X77.669 Y13.391 Z-5.658 I-0.635 J-0.022
X77.409 Y13.326 I0.022 J-0.635
G1 X70.422 Y9.879
G3 X70.068 Y9.331 I0.281 J-0.569
X70.681 Y8.675 Z-5.858 I0.635 J-0.022
G1 X75.443
X75.789 Y8.692
X76.154 Y8.74
X76.588 Y8.833
X77.019 Y8.962
X77.43 Y9.122
X77.49 Y9.151
X77.77 Y9.328
X78.003 Y9.563
X78.179 Y9.843
X78.288 Y10.156
X78.325 Y10.484
G3 X77.669 Y11.097 Z-5.658 I-0.635 J-0.022
X77.398 Y11.026 I0.022 J-0.635
G1 X75.173 Y9.873
G3 X74.83 Y9.331 I0.292 J-0.564
X75.443 Y8.675 Z-5.858 I0.635 J-0.022
G1 X77.513
X77.72 Y8.676
X77.823 Y8.692
X77.927 Y8.725
X77.986 Y8.754
X78.045 Y8.791
X78.089 Y8.825
X78.134 Y8.867
X78.19 Y8.932
X78.233 Y8.998
X78.261 Y9.05
X78.283 Y9.101
X78.313 Y9.205
X78.325 Y9.309
Y16.869
G3 X77.989 Y17.407 Z-5.725 I-0.635 J-0.022
X77.693 Y17.558 Z-5.658 I-3.985 J-7.477
X75.455 Y18.278 I-3.689 J-7.627
X56.647 Y9.303 I-3.083 J-17.734
X56.487 Y9.011 Z-5.725 I15.725 J-8.759
G2 X55.949 Y8.675 Z-5.858 I-0.56 J0.299
G1 X53.082 F900
X52.607 Y8.699
X52.197 Y8.753
X51.743 Y8.85
X51.223 Y9.005
X50.639 Y9.233
X50.023 Y9.532
X49.345 Y9.931
X48.631 Y10.433
X47.929 Y11.015
X47.275 Y11.65
X46.673 Y12.334
X46.123 Y13.062
X45.63 Y13.829
X45.211 Y14.607
X44.88 Y15.363
X44.624 Y16.107
X44.438 Y16.825
X44.319 Y17.514
X44.261 Y18.151
X44.254 Y18.748
X44.293 Y19.314
X44.372 Y19.835
X44.483 Y20.309
X44.623 Y20.746
X44.787 Y21.144
X44.967 Y21.497
X45.16 Y21.812
X45.184 Y21.844
X45.385 Y22.067
X45.626 Y22.245
X45.899 Y22.371
X46.191 Y22.439
X46.491 Y22.447
X46.787 Y22.394
X47.065 Y22.282
G2 X47.33 Y21.993 I-0.313 J-0.552 F1000
G1 X47.341 Y21.954
X47.339 Y21.915
X47.325 Y21.878
X47.3 Y21.846
X47.267 Y21.825
X47.237 Y21.803
X47.219 Y21.771
X47.215 Y21.735
X47.225 Y21.7
X47.249 Y21.672
X47.282 Y21.656
X47.318 Y21.654
X47.346 Y21.664
X47.368 Y21.682
X47.382 Y21.707
X47.387 Y21.736
G3 X47.065 Y22.282 I-0.635 J-0.005
G1 X46.871 Y22.384
X46.737 Y22.461
X46.664 Y22.508
X46.457 Y22.648
X46.33 Y22.74
X46.205 Y22.822
X46.07 Y22.888
X45.928 Y22.936
X45.781 Y22.965
X45.632 Y22.978
X45.482 Y22.975
X45.333 Y22.958
X45.178 Y22.928
X45.003 Y22.878
X44.822 Y22.811
X44.623 Y22.718
X44.421 Y22.603
X44.206 Y22.457
X43.986 Y22.28
X43.766 Y22.071
X43.538 Y21.819
X43.325 Y21.539
X43.107 Y21.2
X42.91 Y20.832
X42.727 Y20.412
X42.561 Y19.929
X42.431 Y19.422
X42.333 Y18.85
X42.275 Y18.209
X42.269 Y17.542
X42.32 Y16.83
X42.437 Y16.056
X42.632 Y15.23
X42.908 Y14.374
X43.257 Y13.531
X43.67 Y12.719
X44.142 Y11.939
X44.668 Y11.193
X45.242 Y10.485
X45.863 Y9.817
X46.526 Y9.192
X46.747 Y9.01
X46.957 Y8.867
X47.188 Y8.761
X47.433 Y8.697
X47.686 Y8.675
X53.082
G3 X53.621 Y9.011 Z-5.725 I-0.022 J0.635
X53.741 Y9.32 Z-5.658 I-1.223 J0.652
X52.739 Y11.006 I-1.343 J0.343
X48.393 Y9.298 I-0.985 J-3.877
X48.224 Y9.011 Z-5.725 I3.361 J-2.168
G2 X47.686 Y8.675 Z-5.858 I-0.56 J0.299
G1 X46.25 F900
X45.961 Y8.689
X45.738 Y8.719
X45.472 Y8.775
X45.175 Y8.864
X44.86 Y8.987
X44.49 Y9.167
X44.119 Y9.385
X43.69 Y9.687
X43.269 Y10.036
X42.807 Y10.487
X42.343 Y11.019
X41.901 Y11.616
X41.464 Y12.318
X41.062 Y13.097
X40.716 Y13.925
X40.438 Y14.778
X40.231 Y15.638
X40.097 Y16.497
X40.034 Y17.337
X40.039 Y18.144
X40.106 Y18.918
X40.227 Y19.64
X40.395 Y20.304
X40.602 Y20.916
X40.847 Y21.484
X41.122 Y22.002
X41.417 Y22.464
X41.726 Y22.872
X42.051 Y23.236
X42.384 Y23.554
X42.718 Y23.824
X43.05 Y24.052
X43.203 Y24.14
X43.495 Y24.268
X43.808 Y24.33
X44.128 Y24.324
X44.438 Y24.25
X44.725 Y24.11
X44.976 Y23.913
X45.215 Y23.69
X45.427 Y23.497
X45.658 Y23.29
X45.836 Y23.134
X45.897 Y23.083
X46.151 Y22.876
X46.25 Y22.798
X46.33 Y22.74
G2 X46.441 Y21.849 Z-5.658 I-0.39 J-0.501 F1000
X45.989 Y21.783 I-0.26 J0.203
X45.201 Y22.965 I1.162 J1.628
X45.151 Y23.459 Z-5.758 I1.95 J0.446
G3 X44.976 Y23.913 Z-5.858 I-0.635 J0.015
G1 X44.801 Y24.085
X44.286 Y24.649
X44.179 Y24.755
X44.058 Y24.843
X43.926 Y24.915
X43.788 Y24.973
X43.645 Y25.018
X43.489 Y25.052
X43.305 Y25.078
X43.111 Y25.089
X42.884 Y25.084
X42.65 Y25.06
X42.383 Y25.01
X42.109 Y24.936
X41.809 Y24.829
X41.495 Y24.688
X41.173 Y24.51
X40.826 Y24.28
X40.489 Y24.016
X40.137 Y23.691
X39.782 Y23.306
X39.45 Y22.883
X39.121 Y22.386
X38.805 Y21.812
X38.526 Y21.194
X38.283 Y20.515
X38.079 Y19.757
X37.927 Y18.93
X37.836 Y18.044
X37.816 Y17.133
X37.868 Y16.223
X37.992 Y15.319
X38.182 Y14.427
X38.435 Y13.551
X38.749 Y12.695
X39.123 Y11.864
X39.556 Y11.062
X40.05 Y10.295
X40.575 Y9.605
X40.969 Y9.167
X41.199 Y8.959
X41.468 Y8.804
X41.763 Y8.707
X42.071 Y8.675
X46.25
G3 X46.788 Y9.011 Z-5.725 I-0.022 J0.635
X46.894 Y9.325 Z-5.658 I-0.89 J0.474
X46.223 Y10.44 I-0.995 J0.16
X42.782 Y9.295 I-0.966 J-2.84
X42.61 Y9.011 Z-5.725 I2.475 J-1.695
G2 X42.071 Y8.675 Z-5.858 I-0.56 J0.299
G1 X40.867 F900
X40.624 Y8.687
X40.45 Y8.71
X40.245 Y8.754
X40.003 Y8.826
X39.754 Y8.923
X39.476 Y9.058
X39.16 Y9.244
X38.846 Y9.465
X38.485 Y9.764
X38.133 Y10.107
X37.744 Y10.554
X37.365 Y11.066
X36.986 Y11.676
X36.614 Y12.396
X36.272 Y13.213
X35.989 Y14.079
X35.776 Y14.966
X35.632 Y15.866
X35.554 Y16.775
X35.54 Y17.687
X35.591 Y18.597
X35.707 Y19.501
X35.891 Y20.394
X36.142 Y21.266
X36.45 Y22.082
X36.805 Y22.833
X37.197 Y23.515
X37.613 Y24.119
X38.052 Y24.659
X38.51 Y25.138
X38.981 Y25.558
X39.449 Y25.912
X39.912 Y26.206
X40.371 Y26.449
X40.824 Y26.644
X41.259 Y26.791
X41.321 Y26.807
X41.599 Y26.849
X41.879 Y26.838
X42.153 Y26.774
X42.41 Y26.659
X42.64 Y26.499
X42.836 Y26.297
X42.938 Y26.171
X43.096 Y25.983
X43.451 Y25.568
X43.559 Y25.446
X44.286 Y24.649
G2 X44.4 Y24.025 Z-5.725 I-0.484 J-0.411 F1000
X44.226 Y23.745 Z-5.658 I-0.726 J0.258
X43.001 Y23.909 I-0.551 J0.538
X42.806 Y25.352 I1.749 J0.971
X42.911 Y25.667 Z-5.725 I1.944 J-0.472
G3 X42.836 Y26.297 Z-5.858 I-0.584 J0.25
G1 X42.423 Y26.811
X42.109 Y27.166
X42.003 Y27.272
X41.885 Y27.365
X41.759 Y27.446
X41.615 Y27.52
X41.46 Y27.586
X41.269 Y27.648
X41.062 Y27.698
X40.821 Y27.736
X40.559 Y27.756
X40.263 Y27.755
X39.945 Y27.727
X39.591 Y27.669
X39.221 Y27.576
X38.806 Y27.436
X38.393 Y27.258
X37.937 Y27.016
X37.471 Y26.72
X37.003 Y26.366
X36.508 Y25.926
X36.015 Y25.409
X35.55 Y24.838
X35.089 Y24.166
X34.648 Y23.4
X34.259 Y22.575
X33.934 Y21.724
X33.672 Y20.85
X33.474 Y19.96
X33.336 Y19.059
X33.257 Y18.15
X33.235 Y17.239
X33.269 Y16.328
X33.36 Y15.42
X33.511 Y14.521
X33.721 Y13.634
X33.99 Y12.763
X34.319 Y11.912
X34.708 Y11.087
X35.144 Y10.322
X35.592 Y9.665
X35.946 Y9.226
X36.181 Y8.994
X36.46 Y8.82
X36.772 Y8.712
X37.099 Y8.675
X40.867
G3 X41.405 Y9.011 Z-5.725 I-0.022 J0.635
X41.514 Y9.324 Z-5.658 I-0.949 J0.506
X40.552 Y10.588 I-1.058 J0.193
X37.81 Y9.295 I-0.267 J-2.988
X37.638 Y9.011 Z-5.725 I2.475 J-1.695
G2 X37.099 Y8.675 Z-5.858 I-0.56 J0.299
G1 X35.898 F900
X35.74 Y8.683
X35.569 Y8.705
X35.389 Y8.744
X35.176 Y8.808
X34.933 Y8.902
X34.689 Y9.021
X34.405 Y9.188
X34.107 Y9.397
X33.792 Y9.659
X33.452 Y9.99
X33.106 Y10.387
X32.75 Y10.868
X32.381 Y11.461
X32.039 Y12.124
X31.714 Y12.901
X31.431 Y13.767
X31.216 Y14.653
X31.063 Y15.552
X30.968 Y16.459
X30.928 Y17.37
X30.943 Y18.282
X31.013 Y19.191
X31.138 Y20.094
X31.317 Y20.988
X31.549 Y21.87
X31.834 Y22.736
X32.174 Y23.582
X32.569 Y24.404
X33.021 Y25.196
X33.529 Y25.953
X34.089 Y26.665
X34.667 Y27.289
X35.265 Y27.839
X35.87 Y28.312
X36.477 Y28.712
X37.063 Y29.034
X37.63 Y29.289
X38.187 Y29.487
X38.721 Y29.63
X38.914 Y29.665
X39.236 Y29.688
X39.557 Y29.641
X39.859 Y29.525
X40.129 Y29.346
X40.353 Y29.113
X40.531 Y28.883
X40.66 Y28.75
X40.735 Y28.675
X41.191 Y28.261
X41.281 Y28.168
X41.695 Y27.64
X41.866 Y27.433
X42.109 Y27.166
G2 X42.215 Y26.541 Z-5.725 I-0.49 J-0.404 F1000
X42.041 Y26.26 Z-5.658 I-0.788 J0.293
X40.836 Y26.235 I-0.615 J0.574
X40.305 Y28.169 I1.404 J1.425
X40.416 Y28.482 Z-5.725 I1.934 J-0.509
G3 X40.353 Y29.113 Z-5.858 I-0.579 J0.261
G1 X40.211 Y29.297
X40.055 Y29.504
X39.757 Y29.918
X39.664 Y30.036
X39.559 Y30.143
X39.443 Y30.238
X39.319 Y30.323
X39.165 Y30.41
X38.988 Y30.492
X38.786 Y30.567
X38.542 Y30.636
X38.285 Y30.686
X37.973 Y30.722
X37.65 Y30.732
X37.267 Y30.714
X36.871 Y30.663
X36.41 Y30.566
X35.946 Y30.429
X35.414 Y30.223
X34.875 Y29.963
X34.303 Y29.629
X33.686 Y29.198
X33.067 Y28.687
X32.449 Y28.088
X31.848 Y27.402
X31.301 Y26.673
X30.807 Y25.907
X30.364 Y25.109
X29.972 Y24.286
X29.628 Y23.442
X29.333 Y22.579
X29.088 Y21.701
X28.892 Y20.81
X28.744 Y19.911
X28.644 Y19.004
X28.591 Y18.094
X28.586 Y17.182
X28.629 Y16.271
X28.725 Y15.365
X28.874 Y14.465
X29.076 Y13.576
X29.335 Y12.702
X29.652 Y11.847
X30.03 Y11.017
X30.449 Y10.264
X30.876 Y9.622
X31.177 Y9.24
X31.411 Y9.002
X31.694 Y8.824
X32.009 Y8.713
X32.34 Y8.675
X35.898
G3 X36.436 Y9.011 Z-5.725 I-0.022 J0.635
X36.546 Y9.324 Z-5.658 I-0.953 J0.508
X35.459 Y10.599 I-1.062 J0.195
X33.051 Y9.295 I0.067 J-2.999
X32.879 Y9.011 Z-5.725 I2.475 J-1.695
G2 X32.34 Y8.675 Z-5.858 I-0.56 J0.299
G1 X31.136 F900
X30.987 Y8.683
X30.824 Y8.705
X30.646 Y8.745
X30.434 Y8.811
X30.202 Y8.904
X29.961 Y9.023
X29.682 Y9.191
X29.395 Y9.397
X29.085 Y9.658
X28.756 Y9.985
X28.417 Y10.381
X28.071 Y10.858
X27.71 Y11.45
X27.366 Y12.132
X27.04 Y12.931
X26.765 Y13.801
X26.555 Y14.688
X26.404 Y15.587
X26.307 Y16.494
X26.26 Y17.404
Y18.316
X26.306 Y19.227
X26.398 Y20.134
X26.536 Y21.035
X26.718 Y21.929
X26.944 Y22.812
X27.214 Y23.683
X27.527 Y24.54
X27.882 Y25.379
X28.281 Y26.199
X28.726 Y26.995
X29.217 Y27.763
X29.754 Y28.501
X30.335 Y29.203
X30.961 Y29.866
X31.632 Y30.483
X32.347 Y31.049
X33.07 Y31.532
X33.774 Y31.924
X34.443 Y32.23
X35.092 Y32.465
X35.717 Y32.636
X36.305 Y32.748
X36.436 Y32.762
X36.716 Y32.765
X36.992 Y32.716
X37.253 Y32.616
X37.491 Y32.468
X37.697 Y32.278
X39.442 Y30.333
X39.608 Y30.125
X39.757 Y29.918
G2 X39.798 Y29.285 Z-5.725 I-0.528 J-0.352 F1000
X39.566 Y29.055 Z-5.658 I-0.449 J0.222
X39.237 Y29.019 I-0.217 J0.451
X37.719 Y31.333 I0.449 J1.949
X37.806 Y31.653 Z-5.725 I1.966 J-0.365
G3 X37.697 Y32.278 Z-5.858 I-0.597 J0.218
G1 X37.348 Y32.668
X37.204 Y32.818
X37.141 Y32.865
X36.871 Y33.025
X36.726 Y33.095
X36.519 Y33.191
X35.898 Y33.437
X35.565 Y33.55
X35.304 Y33.616
X35.03 Y33.662
X34.7 Y33.691
X34.339 Y33.693
X33.936 Y33.662
X33.481 Y33.591
X32.992 Y33.474
X32.449 Y33.297
X31.847 Y33.045
X31.229 Y32.727
X30.549 Y32.303
X29.828 Y31.77
X29.14 Y31.17
X28.499 Y30.522
X27.901 Y29.834
X27.348 Y29.109
X26.838 Y28.353
X26.371 Y27.57
X25.945 Y26.763
X25.56 Y25.937
X25.214 Y25.094
X24.907 Y24.235
X24.639 Y23.363
X24.411 Y22.48
X24.223 Y21.588
X24.077 Y20.688
X23.971 Y19.783
X23.906 Y18.873
X23.882 Y17.962
X23.901 Y17.05
X23.963 Y16.14
X24.07 Y15.235
X24.229 Y14.337
X24.44 Y13.45
X24.706 Y12.578
X25.029 Y11.725
X25.413 Y10.898
X25.821 Y10.172
X26.244 Y9.543
X26.491 Y9.233
X26.726 Y8.998
X27.007 Y8.822
X27.32 Y8.712
X27.65 Y8.675
X31.136
G3 X31.749 Y9.331 Z-5.658 I-0.022 J0.635
X31.547 Y9.774 I-0.635 J-0.022
X30.484 Y10.113 I-0.89 J-0.954
X28.454 Y9.219 I0.534 J-3.964
X28.092 Y8.877 Z-5.758 I2.564 J-3.07
G2 X27.65 Y8.675 Z-5.858 I-0.464 J0.433
G1 X26.468 F900
X26.315 Y8.683
X26.163 Y8.703
X25.985 Y8.741
X25.775 Y8.804
X25.556 Y8.889
X25.315 Y9.006
X25.037 Y9.169
X24.76 Y9.364
X24.45 Y9.621
X24.129 Y9.935
X23.786 Y10.327
X23.443 Y10.791
X23.082 Y11.371
X22.73 Y12.054
X22.398 Y12.848
X22.115 Y13.715
X21.895 Y14.6
X21.733 Y15.497
X21.621 Y16.402
X21.555 Y17.312
X21.534 Y18.223
X21.554 Y19.135
X21.614 Y20.045
X21.713 Y20.951
X21.851 Y21.853
X22.027 Y22.747
X22.24 Y23.634
X22.49 Y24.511
X22.776 Y25.376
X23.097 Y26.23
X23.454 Y27.069
X23.847 Y27.892
X24.276 Y28.696
X24.744 Y29.479
X25.249 Y30.238
X25.793 Y30.969
X26.375 Y31.671
X26.995 Y32.34
X27.653 Y32.972
X28.35 Y33.56
X29.085 Y34.099
X29.855 Y34.582
X29.976 Y34.645
X30.236 Y34.75
X30.511 Y34.804
X30.792 Y34.805
X31.067 Y34.754
X31.328 Y34.652
X31.55 Y34.542
X31.758 Y34.468
X31.965 Y34.401
X32.172 Y34.341
X32.379 Y34.294
X32.498 Y34.268
X32.793 Y34.217
X33.414 Y34.123
X33.621 Y34.088
X34.035 Y34.016
X34.242 Y33.977
X34.863 Y33.788
X35.07 Y33.723
X35.484 Y33.588
X35.691 Y33.519
X35.898 Y33.437
G2 X36.275 Y32.927 Z-5.725 I-0.254 J-0.582 F1000
X36.277 Y32.595 Z-5.658 I-1.565 J-0.177
X34.769 Y31.176 I-1.567 J0.155
X31.682 Y33.778 I-0.113 J2.998
X31.657 Y34.109 Z-5.725 I2.974 J0.396
G3 X31.328 Y34.652 Z-5.858 I-0.635 J-0.014
G1 X31.136 Y34.749
X30.929 Y34.859
X30.604 Y35.097
X30.481 Y35.182
X30.347 Y35.25
X30.207 Y35.304
X30.052 Y35.35
X29.871 Y35.388
X29.648 Y35.416
X29.394 Y35.428
X29.115 Y35.418
X28.779 Y35.379
X28.421 Y35.308
X28.006 Y35.19
X27.553 Y35.022
X27.031 Y34.778
X26.481 Y34.466
X25.862 Y34.044
X25.185 Y33.499
X24.523 Y32.872
X23.908 Y32.199
X23.337 Y31.488
X22.807 Y30.745
X22.318 Y29.976
X21.866 Y29.184
X21.45 Y28.372
X21.07 Y27.544
X20.724 Y26.7
X20.412 Y25.844
X20.133 Y24.975
X19.887 Y24.097
X19.676 Y23.21
X19.498 Y22.316
X19.356 Y21.415
X19.25 Y20.51
X19.179 Y19.601
X19.145 Y18.689
X19.149 Y17.778
X19.192 Y16.867
X19.276 Y15.959
X19.402 Y15.056
X19.576 Y14.161
X19.803 Y13.278
X20.083 Y12.41
X20.419 Y11.562
X20.816 Y10.741
X21.228 Y10.037
X21.661 Y9.417
X21.829 Y9.213
X22.063 Y8.987
X22.34 Y8.816
X22.648 Y8.711
X22.972 Y8.675
X26.468
G3 X27.08 Y9.331 Z-5.658 I-0.022 J0.635
X26.879 Y9.774 I-0.635 J-0.022
X25.815 Y10.114 I-0.892 J-0.956
X23.776 Y9.219 I0.524 J-3.966
X23.414 Y8.877 Z-5.758 I2.564 J-3.07
G2 X22.972 Y8.675 Z-5.858 I-0.464 J0.433
G1 X21.82 F900
X21.64 Y8.684
X21.487 Y8.704
X21.302 Y8.744
X21.095 Y8.806
X20.881 Y8.889
X20.631 Y9.01
X20.36 Y9.17
X20.079 Y9.367
X19.76 Y9.632
X19.446 Y9.939
X19.094 Y10.341
X18.75 Y10.806
X18.392 Y11.383
X18.03 Y12.083
X17.683 Y12.915
X17.4 Y13.781
X17.177 Y14.666
X17.009 Y15.562
X16.889 Y16.466
X16.814 Y17.374
X16.779 Y18.286
X16.783 Y19.197
X16.823 Y20.108
X16.899 Y21.017
X17.009 Y21.922
X17.152 Y22.823
X17.327 Y23.718
X17.534 Y24.606
X17.773 Y25.486
X18.043 Y26.356
X18.346 Y27.217
X18.679 Y28.065
X19.044 Y28.901
X19.442 Y29.721
X19.871 Y30.526
X20.334 Y31.311
X20.831 Y32.076
X21.365 Y32.815
X21.937 Y33.525
X22.548 Y34.201
X23.198 Y34.841
X23.889 Y35.437
X24.62 Y35.981
X25.315 Y36.417
X25.966 Y36.756
X26.595 Y37.022
X27.17 Y37.212
X27.707 Y37.343
X28.003 Y37.391
X28.298 Y37.408
X28.591 Y37.367
X28.87 Y37.268
X29.123 Y37.115
X29.342 Y36.915
X29.516 Y36.676
X29.639 Y36.407
G2 X29.631 Y36.015 I-0.608 J-0.184 F1000
G1 X29.613 Y35.98
X29.584 Y35.952
X29.548 Y35.935
X29.509 Y35.929
X29.47 Y35.936
X29.433 Y35.941
X29.398 Y35.931
X29.37 Y35.908
X29.354 Y35.875
X29.352 Y35.838
X29.364 Y35.804
X29.39 Y35.778
X29.416 Y35.766
X29.445 Y35.764
X29.472 Y35.772
X29.495 Y35.789
G3 X29.639 Y36.407 I-0.464 J0.434
G1 X29.48 Y36.872
X29.427 Y37.231
X29.397 Y37.378
X29.347 Y37.519
X29.279 Y37.653
X29.194 Y37.776
X29.096 Y37.889
X28.987 Y37.993
X28.866 Y38.089
X28.711 Y38.192
X28.543 Y38.287
X28.335 Y38.383
X28.102 Y38.468
X27.835 Y38.542
X27.524 Y38.602
X27.191 Y38.638
X26.797 Y38.65
X26.387 Y38.629
X25.905 Y38.565
X25.406 Y38.458
X24.833 Y38.286
X24.207 Y38.041
X23.55 Y37.722
X22.822 Y37.292
X22.077 Y36.767
X21.373 Y36.187
X20.71 Y35.561
X20.086 Y34.896
X19.5 Y34.198
X18.949 Y33.472
X18.433 Y32.719
X17.951 Y31.946
X17.502 Y31.152
X17.083 Y30.342
X16.695 Y29.517
X16.337 Y28.679
X16.008 Y27.828
X15.709 Y26.967
X15.44 Y26.096
X15.199 Y25.216
X14.988 Y24.329
X14.807 Y23.435
X14.657 Y22.536
X14.537 Y21.632
X14.449 Y20.725
X14.394 Y19.814
X14.371 Y18.903
X14.383 Y17.991
X14.431 Y17.081
X14.516 Y16.173
X14.643 Y15.27
X14.816 Y14.375
X15.038 Y13.49
X15.311 Y12.62
X15.637 Y11.769
X16.022 Y10.942
X16.446 Y10.187
X16.874 Y9.553
X17.129 Y9.233
X17.364 Y8.998
X17.645 Y8.822
X17.958 Y8.712
X18.287 Y8.675
X21.82
G3 X22.358 Y9.011 Z-5.725 I-0.022 J0.635
X22.467 Y9.324 Z-5.658 I-0.953 J0.508
X21.367 Y10.598 I-1.062 J0.195
X18.998 Y9.295 I0.106 J-2.998
X18.826 Y9.011 Z-5.725 I2.475 J-1.695
G2 X18.287 Y8.675 Z-5.858 I-0.56 J0.299
G1 X17.058 F900
X16.908 Y8.683
X16.75 Y8.707
X16.563 Y8.752
X16.343 Y8.824
X16.118 Y8.917
X15.866 Y9.047
X15.579 Y9.225
X15.294 Y9.436
X14.968 Y9.72
X14.643 Y10.053
X14.282 Y10.487
X13.928 Y10.989
X13.561 Y11.612
X13.193 Y12.369
X12.861 Y13.218
X12.594 Y14.09
X12.383 Y14.977
X12.222 Y15.875
X12.106 Y16.779
X12.031 Y17.688
X11.995 Y18.599
X11.993 Y19.511
X12.025 Y20.422
X12.089 Y21.332
X12.184 Y22.238
X12.309 Y23.142
X12.463 Y24.04
X12.645 Y24.934
X12.856 Y25.821
X13.093 Y26.701
X13.359 Y27.574
X13.652 Y28.437
X13.973 Y29.291
X14.322 Y30.133
X14.698 Y30.963
X15.103 Y31.78
X15.537 Y32.582
X15.999 Y33.368
X16.491 Y34.136
X17.014 Y34.883
X17.568 Y35.607
X18.156 Y36.305
X18.777 Y36.972
X19.432 Y37.606
X20.122 Y38.202
X20.846 Y38.757
X21.605 Y39.262
X22.398 Y39.712
X23.184 Y40.08
X23.939 Y40.363
X24.635 Y40.561
X25.292 Y40.692
X25.918 Y40.765
X26.492 Y40.786
X27.02 Y40.762
X27.512 Y40.701
X27.958 Y40.608
X28.361 Y40.49
X28.724 Y40.351
X28.759 Y40.334
X29.012 Y40.18
X29.228 Y39.979
X29.4 Y39.738
X29.52 Y39.468
X29.584 Y39.179
X29.588 Y38.883
X29.533 Y38.592
X29.494 Y38.411
G2 X29.054 Y37.954 I-0.616 J0.153 F1000
G1 X29.017 Y37.95
X28.982 Y37.959
X28.951 Y37.98
X28.929 Y38.01
X28.92 Y38.045
X28.922 Y38.082
X28.938 Y38.116
X28.964 Y38.142
X28.997 Y38.158
X29.057 Y38.172
G3 X29.533 Y38.592 I-0.127 J0.622
G1 X29.537 Y38.605
X29.783 Y39.2
X29.809 Y39.239
X29.887 Y39.367
X29.946 Y39.505
X29.983 Y39.651
X30.001 Y39.799
Y39.949
X29.985 Y40.099
X29.954 Y40.245
X29.909 Y40.391
X29.849 Y40.538
X29.765 Y40.706
X29.664 Y40.873
X29.53 Y41.058
X29.377 Y41.238
X29.184 Y41.432
X28.967 Y41.616
X28.705 Y41.805
X28.411 Y41.982
X28.073 Y42.151
X27.684 Y42.308
X27.266 Y42.439
X26.776 Y42.55
X26.257 Y42.624
X25.685 Y42.66
X25.034 Y42.648
X24.364 Y42.582
X23.633 Y42.449
X22.829 Y42.236
X21.971 Y41.933
X21.139 Y41.561
X20.335 Y41.13
X19.563 Y40.645
X18.822 Y40.113
X18.113 Y39.54
X17.435 Y38.931
X16.788 Y38.288
X16.172 Y37.616
X15.585 Y36.918
X15.029 Y36.196
X14.5 Y35.452
X14 Y34.69
X13.528 Y33.91
X13.084 Y33.114
X12.666 Y32.303
X12.275 Y31.479
X11.911 Y30.644
X11.572 Y29.797
X11.26 Y28.94
X10.973 Y28.075
X10.712 Y27.201
X10.477 Y26.32
X10.268 Y25.433
X10.085 Y24.539
X9.928 Y23.641
X9.799 Y22.739
X9.698 Y21.832
X9.626 Y20.923
X9.584 Y20.013
X9.572 Y19.101
X9.593 Y18.189
X9.647 Y17.279
X9.738 Y16.372
X9.866 Y15.469
X10.036 Y14.573
X10.254 Y13.688
X10.521 Y12.816
X10.84 Y11.962
X11.215 Y11.131
X11.643 Y10.342
X12.075 Y9.681
X12.408 Y9.25
X12.592 Y9.053
X12.809 Y8.892
X13.051 Y8.773
X13.311 Y8.7
X13.58 Y8.675
X17.058
G3 X17.67 Y9.331 Z-5.658 I-0.022 J0.635
X17.469 Y9.774 I-0.635 J-0.022
X16.405 Y10.112 I-0.887 J-0.952
X14.384 Y9.219 I0.543 J-3.963
X14.022 Y8.877 Z-5.758 I2.564 J-3.07
G2 X13.58 Y8.675 Z-5.858 I-0.464 J0.433
G1 X12.389 F900
X12.239 Y8.683
X12.07 Y8.706
X11.895 Y8.744
X11.69 Y8.807
X11.45 Y8.902
X11.209 Y9.02
X10.935 Y9.184
X10.635 Y9.396
X10.326 Y9.656
X9.984 Y9.993
X9.637 Y10.395
X9.272 Y10.894
X8.891 Y11.513
X8.836 Y11.621
X8.747 Y11.836
X8.693 Y12.062
X8.675 Y12.293
Y26.397
X8.721 Y27.308
X8.823 Y28.214
X8.996 Y29.109
X9.224 Y29.992
X9.498 Y30.861
X9.811 Y31.718
X10.158 Y32.561
X10.537 Y33.39
X10.945 Y34.206
X11.382 Y35.006
X11.846 Y35.791
X12.338 Y36.558
X12.858 Y37.308
X13.404 Y38.038
X13.978 Y38.747
X14.579 Y39.433
X15.207 Y40.094
X15.862 Y40.728
X16.545 Y41.332
X17.256 Y41.902
X17.996 Y42.435
X18.763 Y42.928
X19.557 Y43.377
X20.375 Y43.779
X21.217 Y44.13
X22.08 Y44.423
X22.963 Y44.653
X23.839 Y44.81
X24.677 Y44.892
X25.478 Y44.905
X26.221 Y44.858
X26.9 Y44.759
X27.53 Y44.616
X28.117 Y44.431
X28.648 Y44.216
X29.123 Y43.978
X29.552 Y43.717
X29.937 Y43.439
X30.273 Y43.153
X30.564 Y42.861
X30.813 Y42.568
X31.025 Y42.273
X31.082 Y42.178
X31.209 Y41.907
X31.277 Y41.616
X31.283 Y41.317
X31.227 Y41.024
X31.111 Y40.748
X30.94 Y40.503
X30.722 Y40.298
X30.597 Y40.188
G2 X29.97 Y40.088 I-0.4 J0.493 F1000
G1 X29.939 Y40.107
X29.918 Y40.137
X29.91 Y40.173
X29.916 Y40.209
X29.936 Y40.24
X29.966 Y40.261
X30.002 Y40.269
X30.038 Y40.263
X30.091 Y40.24
G3 X30.722 Y40.298 I0.266 J0.577
G1 X30.929 Y40.455
X30.97 Y40.482
X31.461 Y40.749
X31.589 Y40.827
X31.703 Y40.925
X31.803 Y41.036
X31.888 Y41.16
X31.959 Y41.292
X32.017 Y41.43
X32.061 Y41.574
X32.095 Y41.727
X32.119 Y41.909
X32.13 Y42.099
X32.125 Y42.319
X32.101 Y42.546
X32.053 Y42.803
X31.982 Y43.065
X31.879 Y43.352
X31.744 Y43.65
X31.575 Y43.955
X31.358 Y44.281
X31.11 Y44.598
X30.806 Y44.926
X30.445 Y45.258
X30.048 Y45.568
X29.583 Y45.875
X29.047 Y46.169
X28.471 Y46.428
X27.834 Y46.655
X27.115 Y46.847
X26.322 Y46.992
X25.487 Y47.077
X24.605 Y47.095
X23.695 Y47.04
X22.792 Y46.917
X21.899 Y46.731
X21.021 Y46.487
X20.159 Y46.189
X19.315 Y45.843
X18.492 Y45.45
X17.692 Y45.014
X16.914 Y44.537
X16.161 Y44.023
X15.433 Y43.475
X14.729 Y42.896
X14.049 Y42.287
X13.395 Y41.652
X12.765 Y40.993
X12.161 Y40.31
X11.581 Y39.607
X11.027 Y38.883
X10.498 Y38.14
X9.994 Y37.38
X9.517 Y36.603
X9.065 Y35.811
X8.846 Y35.396
X8.752 Y35.176
X8.694 Y34.944
X8.675 Y34.705
Y26.397
G3 X9.011 Y25.859 Z-5.725 I0.635 J0.022
X9.328 Y25.767 Z-5.658 I0.378 J0.709
X9.912 Y25.958 I0.061 J0.802
X9.299 Y34.001 I-3.253 J3.797
X9.011 Y34.167 Z-5.725 I-2.64 J-4.246
G2 X8.675 Y34.705 Z-5.858 I0.299 J0.56
G1 Y37.168 F900
X8.697 Y37.6
X8.748 Y37.994
X8.85 Y38.468
X9.01 Y39.002
X9.254 Y39.629
X9.61 Y40.362
X10.072 Y41.148
X10.592 Y41.897
X11.157 Y42.613
X11.759 Y43.297
X12.394 Y43.951
X13.059 Y44.575
X13.752 Y45.168
X14.47 Y45.73
X15.212 Y46.26
X15.978 Y46.755
X16.765 Y47.216
X17.572 Y47.64
X18.398 Y48.026
X19.242 Y48.37
X20.104 Y48.669
X20.98 Y48.921
X21.869 Y49.123
X22.768 Y49.275
X23.675 Y49.372
X24.586 Y49.41
X25.497 Y49.387
X26.405 Y49.3
X27.304 Y49.147
X28.168 Y48.929
X28.971 Y48.658
X29.713 Y48.338
X30.397 Y47.976
X31.017 Y47.58
X31.564 Y47.166
X32.043 Y46.739
X32.465 Y46.298
X32.832 Y45.845
X33.142 Y45.393
X33.397 Y44.95
X33.603 Y44.513
X33.766 Y44.082
X33.885 Y43.666
X33.965 Y43.27
X34.011 Y42.894
X34.017 Y42.726
X33.993 Y42.392
X33.893 Y42.072
X33.725 Y41.783
X33.496 Y41.538
X33.218 Y41.352
X32.905 Y41.233
X32.793 Y41.204
X32.379 Y41.092
X32.172 Y41.035
X31.965 Y40.965
X31.758 Y40.885
X31.55 Y40.797
X31.461 Y40.749
G2 X30.828 Y40.787 Z-5.725 I-0.283 J0.568 F1000
X30.665 Y41.064 Z-5.658 I0.201 J0.305
G1 Y41.123
X30.675 Y41.181
X30.694 Y41.237
X30.722 Y41.289
G2 X32.04 Y41.628 I0.841 J-0.541
X32.301 Y41.424 Z-5.725 I-0.477 J-0.879
G3 X32.905 Y41.233 Z-5.858 I0.468 J0.429
G1 X33.621 Y41.413
X33.942 Y41.493
X34.085 Y41.537
X34.221 Y41.601
X34.348 Y41.681
X34.465 Y41.774
X34.573 Y41.879
X34.674 Y41.995
X34.782 Y42.141
X34.881 Y42.301
X34.982 Y42.496
X35.069 Y42.707
X35.15 Y42.955
X35.214 Y43.221
X35.261 Y43.523
X35.285 Y43.853
X35.283 Y44.203
X35.248 Y44.598
X35.18 Y44.999
X35.07 Y45.437
X34.91 Y45.908
X34.708 Y46.375
X34.445 Y46.869
X34.114 Y47.386
X33.727 Y47.896
X33.276 Y48.4
X32.741 Y48.909
X32.124 Y49.409
X31.428 Y49.885
X30.679 Y50.314
X29.854 Y50.702
X29.001 Y51.022
X28.126 Y51.28
X27.236 Y51.476
X26.334 Y51.614
X25.426 Y51.695
X24.515 Y51.722
X23.603 Y51.694
X22.695 Y51.615
X21.792 Y51.487
X20.897 Y51.312
X20.012 Y51.093
X19.139 Y50.831
X18.279 Y50.528
X17.433 Y50.187
X16.603 Y49.809
X15.791 Y49.395
X14.997 Y48.946
X14.223 Y48.465
X13.468 Y47.953
X12.735 Y47.41
X12.025 Y46.839
X11.339 Y46.238
X10.678 Y45.61
X10.044 Y44.954
X9.443 Y44.269
X8.993 Y43.698
X8.819 Y43.419
X8.712 Y43.108
X8.675 Y42.781
Y37.168
G3 X9.011 Y36.63 Z-5.725 I0.635 J0.022
X9.321 Y36.511 Z-5.658 I0.627 J1.176
X10.891 Y37.353 I0.317 J1.294
X9.298 Y42.074 I-3.762 J1.36
X9.011 Y42.242 Z-5.725 I-2.168 J-3.361
G2 X8.675 Y42.781 Z-5.858 I0.299 J0.56
G1 Y44.418 F900
X8.69 Y44.721
X8.725 Y44.989
X8.794 Y45.308
X8.9 Y45.665
X9.061 Y46.076
X9.283 Y46.534
X9.595 Y47.065
X10.007 Y47.65
X10.551 Y48.307
X11.188 Y48.959
X11.87 Y49.565
X12.587 Y50.128
X13.333 Y50.653
X14.104 Y51.14
X14.896 Y51.591
X15.707 Y52.007
X16.536 Y52.388
X17.379 Y52.734
X18.237 Y53.042
X19.108 Y53.312
X19.99 Y53.544
X20.882 Y53.736
X21.781 Y53.887
X22.686 Y53.996
X23.595 Y54.062
X24.507 Y54.083
X25.418 Y54.057
X26.327 Y53.981
X27.23 Y53.857
X28.126 Y53.683
X29.009 Y53.458
X29.878 Y53.182
X30.727 Y52.849
X31.552 Y52.462
X32.349 Y52.019
X33.114 Y51.521
X33.84 Y50.97
X34.522 Y50.364
X35.121 Y49.739
X35.633 Y49.111
X36.073 Y48.473
X36.444 Y47.831
X36.745 Y47.195
X36.982 Y46.572
X37.155 Y45.976
X37.272 Y45.403
X37.34 Y44.85
X37.362 Y44.322
X37.342 Y43.83
X37.287 Y43.372
X37.232 Y43.1
X37.129 Y42.78
X36.955 Y42.491
X36.722 Y42.249
X36.439 Y42.067
X36.123 Y41.952
X35.691 Y41.844
X35.484 Y41.799
X34.449 Y41.607
X34.242 Y41.566
X33.984 Y41.504
X33.942 Y41.493
G2 X33.338 Y41.689 Z-5.725 I-0.132 J0.621 F1000
X33.184 Y41.979 Z-5.658 I0.502 J0.453
X33.747 Y42.812 I0.656 J0.163
X35.282 Y42.384 I0.275 J-1.981
X35.522 Y42.154 Z-5.725 I-1.26 J-1.554
G3 X36.123 Y41.952 Z-5.858 I0.476 J0.42
G1 X36.312 Y41.997
X36.933 Y42.112
X37.046 Y42.139
X37.203 Y42.181
X37.346 Y42.227
X37.482 Y42.29
X37.611 Y42.367
X37.737 Y42.456
X37.879 Y42.576
X38.015 Y42.711
X38.164 Y42.884
X38.305 Y43.077
X38.449 Y43.312
X38.58 Y43.572
X38.707 Y43.88
X38.813 Y44.211
X38.904 Y44.603
X38.965 Y45.011
X38.997 Y45.483
X38.99 Y45.991
X38.94 Y46.53
X38.834 Y47.132
X38.672 Y47.76
X38.449 Y48.402
X38.146 Y49.09
X37.758 Y49.81
X37.286 Y50.538
X36.737 Y51.252
X36.125 Y51.928
X35.464 Y52.557
X34.761 Y53.138
X34.022 Y53.671
X33.25 Y54.157
X32.451 Y54.596
X31.627 Y54.987
X30.782 Y55.328
X29.919 Y55.623
X29.041 Y55.871
X28.153 Y56.074
X27.255 Y56.232
X26.35 Y56.347
X25.441 Y56.418
X24.53 Y56.448
X23.618 Y56.435
X22.708 Y56.382
X21.801 Y56.289
X20.898 Y56.158
X20.002 Y55.989
X19.114 Y55.785
X18.234 Y55.544
X17.365 Y55.269
X16.507 Y54.961
X15.661 Y54.619
X14.83 Y54.244
X14.015 Y53.835
X13.217 Y53.393
X12.439 Y52.919
X11.682 Y52.41
X10.95 Y51.866
X10.247 Y51.286
X9.577 Y50.667
X9.084 Y50.149
X8.91 Y49.928
X8.781 Y49.677
X8.702 Y49.407
X8.675 Y49.127
Y44.418
G3 X9.011 Y43.879 Z-5.725 I0.635 J0.022
X9.329 Y43.792 Z-5.658 I0.352 J0.659
X9.947 Y44.074 I0.033 J0.747
X9.295 Y48.416 I-2.347 J1.868
X9.011 Y48.589 Z-5.725 I-1.695 J-2.475
G2 X8.675 Y49.127 Z-5.858 I0.299 J0.56
G1 Y50.632 F900
X8.682 Y50.781
X8.715 Y51.013
X8.775 Y51.279
X8.864 Y51.568
X9.001 Y51.91
X9.182 Y52.273
X9.437 Y52.698
X9.76 Y53.148
X10.191 Y53.659
X10.754 Y54.224
X11.447 Y54.817
X12.183 Y55.355
X12.952 Y55.844
X13.748 Y56.29
X14.564 Y56.696
X15.398 Y57.064
X16.247 Y57.396
X17.109 Y57.694
X17.982 Y57.958
X18.865 Y58.188
X19.755 Y58.384
X20.652 Y58.546
X21.555 Y58.674
X22.462 Y58.767
X23.372 Y58.823
X24.284 Y58.842
X25.195 Y58.823
X26.106 Y58.767
X27.012 Y58.672
X27.915 Y58.54
X28.81 Y58.368
X29.697 Y58.157
X30.574 Y57.906
X31.437 Y57.613
X32.285 Y57.277
X33.115 Y56.9
X33.925 Y56.481
X34.713 Y56.022
X35.475 Y55.522
X36.209 Y54.981
X36.91 Y54.397
X37.573 Y53.772
X38.197 Y53.106
X38.776 Y52.403
X39.308 Y51.662
X39.787 Y50.886
X40.206 Y50.076
X40.553 Y49.255
X40.818 Y48.452
X41.007 Y47.675
X41.123 Y46.947
X41.177 Y46.257
X41.176 Y45.602
X41.124 Y44.983
X41.031 Y44.418
X40.903 Y43.9
X40.844 Y43.724
X40.713 Y43.439
X40.525 Y43.187
X40.288 Y42.981
X40.014 Y42.83
X39.713 Y42.739
X39.625 Y42.723
X39.004 Y42.63
X38.383 Y42.528
X38.176 Y42.466
X37.762 Y42.336
X37.555 Y42.275
X37.203 Y42.181
G2 X36.596 Y42.366 Z-5.725 I-0.143 J0.619 F1000
X36.428 Y42.65 Z-5.658 I0.557 J0.521
X36.902 Y43.607 I0.725 J0.237
X38.893 Y43.211 I0.66 J-1.888
X39.122 Y42.97 Z-5.725 I-1.332 J-1.492
G3 X39.713 Y42.739 Z-5.858 I0.495 J0.397
G1 X39.832 Y42.762
X40.246 Y42.849
X40.453 Y42.894
X40.867 Y42.991
X41.011 Y43.032
X41.149 Y43.092
X41.285 Y43.166
X41.437 Y43.265
X41.588 Y43.382
X41.758 Y43.537
X41.922 Y43.714
X42.095 Y43.932
X42.265 Y44.186
X42.429 Y44.481
X42.586 Y44.824
X42.727 Y45.212
X42.848 Y45.651
X42.944 Y46.155
X43.002 Y46.695
X43.019 Y47.327
X42.984 Y47.983
X42.887 Y48.707
X42.713 Y49.506
X42.455 Y50.358
X42.121 Y51.206
X41.723 Y52.027
X41.267 Y52.817
X40.76 Y53.574
X40.207 Y54.299
X39.613 Y54.991
X38.98 Y55.647
X38.312 Y56.268
X37.613 Y56.853
X36.885 Y57.402
X36.13 Y57.913
X35.351 Y58.388
X34.551 Y58.826
X33.732 Y59.226
X32.896 Y59.59
X32.045 Y59.916
X31.18 Y60.206
X30.304 Y60.46
X29.419 Y60.678
X28.525 Y60.859
X27.625 Y61.004
X26.72 Y61.115
X25.811 Y61.19
X24.901 Y61.231
X23.989 Y61.238
X23.077 Y61.212
X22.167 Y61.152
X21.26 Y61.06
X20.357 Y60.936
X19.458 Y60.781
X18.566 Y60.593
X17.681 Y60.373
X16.805 Y60.123
X15.938 Y59.84
X15.082 Y59.526
X14.238 Y59.179
X13.41 Y58.799
X12.598 Y58.384
X11.807 Y57.93
X11.041 Y57.435
X10.305 Y56.897
X9.603 Y56.315
X9.134 Y55.868
X8.94 Y55.64
X8.795 Y55.379
X8.705 Y55.093
X8.675 Y54.795
Y50.632
G3 X9.011 Y50.093 Z-5.725 I0.635 J0.022
X9.325 Y49.987 Z-5.658 I0.476 J0.893
X10.449 Y50.669 I0.162 J0.999
X9.295 Y54.085 I-2.849 J0.94
X9.011 Y54.257 Z-5.725 I-1.695 J-2.475
G2 X8.675 Y54.795 Z-5.858 I0.299 J0.56
G1 Y56.131 F900
X8.684 Y56.314
X8.71 Y56.511
X8.76 Y56.746
X8.84 Y57.011
X8.951 Y57.297
X9.114 Y57.633
X9.319 Y57.98
X9.602 Y58.384
X9.951 Y58.805
X10.412 Y59.277
X11.006 Y59.795
X11.739 Y60.337
X12.512 Y60.821
X13.314 Y61.254
X14.139 Y61.642
X14.982 Y61.99
X15.84 Y62.301
X16.709 Y62.577
X17.588 Y62.819
X18.475 Y63.03
X19.369 Y63.21
X20.268 Y63.359
X21.172 Y63.478
X22.08 Y63.566
X22.99 Y63.624
X23.901 Y63.652
X24.813 Y63.649
X25.724 Y63.614
X26.633 Y63.547
X27.54 Y63.448
X28.442 Y63.317
X29.339 Y63.154
X30.23 Y62.959
X31.113 Y62.731
X31.987 Y62.471
X32.85 Y62.178
X33.702 Y61.852
X34.54 Y61.493
X35.362 Y61.099
X36.168 Y60.672
X36.956 Y60.213
X37.723 Y59.72
X38.468 Y59.195
X39.19 Y58.637
X39.886 Y58.048
X40.553 Y57.427
X41.189 Y56.773
X41.792 Y56.089
X42.358 Y55.375
X42.887 Y54.632
X43.374 Y53.861
X43.816 Y53.064
X44.206 Y52.24
X44.543 Y51.392
X44.823 Y50.524
X45.04 Y49.639
X45.189 Y48.742
X45.26 Y47.914
X45.263 Y47.136
X45.207 Y46.405
X45.1 Y45.727
X44.954 Y45.119
X44.943 Y45.085
X44.833 Y44.833
X44.678 Y44.605
X44.484 Y44.41
X44.18 Y44.156
X43.973 Y43.992
X43.72 Y43.796
X43.559 Y43.694
X43.371 Y43.589
X43.352 Y43.581
X43.145 Y43.525
X40.867 Y42.991
G2 X40.121 Y43.49 Z-5.658 I-0.123 J0.623 F1000
G1 X40.118 Y43.541
X40.128 Y43.59
X40.151 Y43.635
X40.185 Y43.672
X40.228 Y43.699
G2 X43.519 Y44.325 I2.916 J-6.364
X44.015 Y44.281 Z-5.758 I-0.375 J-6.99
G3 X44.484 Y44.41 Z-5.858 I0.079 J0.63
G1 X44.801 Y44.674
X44.967 Y44.832
X45.422 Y45.28
X45.594 Y45.453
X45.961 Y45.867
X46.151 Y46.107
X46.303 Y46.334
X46.461 Y46.616
X46.6 Y46.919
X46.738 Y47.299
X46.853 Y47.717
X46.949 Y48.217
X47.008 Y48.763
X47.026 Y49.416
X46.989 Y50.119
X46.884 Y50.908
X46.694 Y51.787
X46.43 Y52.659
X46.104 Y53.511
X45.723 Y54.339
X45.294 Y55.144
X44.82 Y55.923
X44.306 Y56.676
X43.755 Y57.402
X43.168 Y58.101
X42.551 Y58.771
X41.903 Y59.413
X41.229 Y60.027
X40.53 Y60.613
X39.808 Y61.169
X39.064 Y61.697
X38.3 Y62.195
X37.517 Y62.662
X36.717 Y63.099
X35.901 Y63.506
X35.071 Y63.882
X34.227 Y64.228
X33.372 Y64.545
X32.506 Y64.831
X31.631 Y65.087
X30.748 Y65.314
X29.858 Y65.512
X28.962 Y65.68
X28.06 Y65.818
X27.155 Y65.926
X26.246 Y66.004
X25.336 Y66.054
X24.424 Y66.074
X23.513 Y66.066
X22.602 Y66.029
X21.692 Y65.965
X20.785 Y65.872
X19.881 Y65.751
X18.981 Y65.603
X18.087 Y65.425
X17.199 Y65.218
X16.319 Y64.981
X15.447 Y64.713
X14.586 Y64.412
X13.738 Y64.077
X12.905 Y63.707
X12.09 Y63.298
X11.297 Y62.848
X10.533 Y62.351
X9.802 Y61.806
X9.14 Y61.233
X9.1 Y61.193
X8.92 Y60.97
X8.785 Y60.716
X8.703 Y60.44
X8.675 Y60.154
Y56.131
G3 X9.011 Y55.593 Z-5.725 I0.635 J0.022
X9.324 Y55.485 Z-5.658 I0.491 J0.921
X10.518 Y56.271 I0.178 J1.029
X9.295 Y59.444 I-2.918 J0.697
X9.011 Y59.616 Z-5.725 I-1.695 J-2.475
G2 X8.675 Y60.154 Z-5.858 I0.299 J0.56
G1 Y61.402 F900
X8.685 Y61.599
X8.711 Y61.797
X8.755 Y62.005
X8.829 Y62.25
X8.938 Y62.53
X9.08 Y62.823
X9.281 Y63.164
X9.529 Y63.518
X9.866 Y63.924
X10.279 Y64.347
X10.814 Y64.814
X11.496 Y65.318
X12.27 Y65.8
X13.077 Y66.225
X13.907 Y66.602
X14.755 Y66.936
X15.618 Y67.231
X16.398 Y67.463
X16.537 Y67.498
X16.679 Y67.518
X16.821 Y67.525
X29.48
X30.391 Y67.479
X31.299 Y67.397
X32.199 Y67.25
X33.089 Y67.051
X33.967 Y66.806
X34.833 Y66.522
X35.687 Y66.201
X36.527 Y65.847
X37.354 Y65.462
X38.165 Y65.046
X38.961 Y64.601
X39.74 Y64.127
X40.502 Y63.626
X41.245 Y63.098
X41.968 Y62.542
X42.67 Y61.96
X43.348 Y61.351
X44.002 Y60.716
X44.63 Y60.055
X45.231 Y59.369
X45.802 Y58.658
X46.341 Y57.923
X46.848 Y57.164
X47.317 Y56.383
X47.746 Y55.578
X48.131 Y54.752
X48.47 Y53.905
X48.757 Y53.04
X48.99 Y52.158
X49.161 Y51.262
X49.175 Y51.135
X49.181 Y50.858
X49.135 Y50.584
X49.038 Y50.324
X48.895 Y50.086
X48.71 Y49.879
X48.321 Y49.519
X48.214 Y49.389
X47.906 Y48.935
X47.794 Y48.767
X47.699 Y48.618
X47.541 Y48.353
X47.425 Y48.146
X47.078 Y47.503
X46.971 Y47.317
X46.664 Y46.809
X46.595 Y46.696
X46.285 Y46.282
X46.043 Y45.961
X45.961 Y45.867
G2 X45.353 Y45.688 Z-5.725 I-0.46 J0.438 F1000
X45.04 Y45.798 Z-5.658 I0.371 J1.545
X44.172 Y47.576 I0.684 J1.434
X47.767 Y49.852 I2.929 J-0.649
X48.086 Y49.761 Z-5.725 I-0.666 J-2.925
G3 X48.71 Y49.879 Z-5.858 I0.209 J0.6
G1 X48.853 Y50.01
X48.942 Y50.068
X49.356 Y50.302
X49.482 Y50.382
X49.597 Y50.479
X49.7 Y50.588
X49.804 Y50.719
X49.905 Y50.869
X50.012 Y51.061
X50.12 Y51.296
X50.215 Y51.556
X50.304 Y51.878
X50.375 Y52.245
X50.422 Y52.674
X50.436 Y53.168
X50.406 Y53.749
X50.321 Y54.39
X50.159 Y55.139
X49.901 Y55.993
X49.569 Y56.842
X49.178 Y57.666
X48.739 Y58.465
X48.257 Y59.239
X47.738 Y59.989
X47.185 Y60.714
X46.602 Y61.414
X45.99 Y62.091
X45.352 Y62.743
X44.691 Y63.37
X44.007 Y63.973
X43.302 Y64.551
X42.578 Y65.105
X41.835 Y65.634
X41.075 Y66.138
X40.298 Y66.616
X39.506 Y67.067
X38.956 Y67.355
X38.736 Y67.449
X38.505 Y67.506
X38.267 Y67.525
X29.48
G3 X28.868 Y66.869 Z-5.658 I0.022 J-0.635
X29.069 Y66.426 I0.635 J0.022
X31.638 Y65.179 I3.309 J3.548
X37.473 Y66.971 I1.068 J6.918
X37.825 Y67.323 Z-5.758 I-4.767 J5.126
G2 X38.267 Y67.525 Z-5.858 I0.464 J-0.433
G1 X40.66 F900
X41.209 Y67.498
X41.609 Y67.445
X42.089 Y67.342
X42.629 Y67.181
X43.269 Y66.931
X44.016 Y66.569
X44.802 Y66.106
X45.552 Y65.588
X46.27 Y65.025
X46.957 Y64.426
X47.614 Y63.794
X48.242 Y63.133
X48.84 Y62.444
X49.407 Y61.73
X49.942 Y60.992
X50.443 Y60.23
X50.908 Y59.446
X51.332 Y58.638
X51.708 Y57.808
X52.033 Y56.956
X52.301 Y56.084
X52.495 Y55.232
X52.61 Y54.437
X52.656 Y53.705
X52.645 Y53.061
X52.587 Y52.469
X52.493 Y51.942
X52.441 Y51.745
X52.32 Y51.434
X52.132 Y51.158
X51.887 Y50.931
X51.598 Y50.764
X51.279 Y50.666
X50.946 Y50.643
G2 X50.583 Y50.792 I0.049 J0.633 F1000
G1 X50.557 Y50.822
X50.542 Y50.859
X50.539 Y50.899
X50.548 Y50.937
X50.569 Y50.971
X50.586 Y51.003
X50.589 Y51.04
X50.578 Y51.075
X50.553 Y51.102
X50.52 Y51.117
X50.483 Y51.118
X50.45 Y51.103
X50.429 Y51.083
X50.417 Y51.057
X50.415 Y51.029
X50.422 Y51.001
G3 X50.946 Y50.643 I0.572 J0.275
G1 X51.219 Y50.631
X51.426 Y50.595
X51.633 Y50.552
X51.84 Y50.484
X52.254 Y50.303
X52.429 Y50.217
X52.743 Y50.01
X52.875 Y49.908
X52.989 Y49.803
X53.289 Y49.482
X53.374 Y49.389
X53.521 Y49.182
X53.64 Y48.974
X53.704 Y48.862
X53.743 Y48.767
X53.911 Y48.332
X53.963 Y48.146
X54.046 Y47.732
X54.068 Y47.525
X54.091 Y47.11
X54.087 Y46.903
X54.064 Y46.489
X54.042 Y46.282
X54.014 Y46.075
X53.98 Y45.867
X53.94 Y45.66
X53.81 Y45.039
X53.675 Y44.418
X53.537 Y43.796
X53.486 Y43.617
X53.462 Y43.538
G3 X53.846 Y42.777 Z-5.671 I0.612 J-0.168
G1 X53.904 Y42.754 Z-5.658
X77.463 Y33.697
X77.53 Y33.676
X77.599 Y33.662
X77.669 Y33.656
G3 X78.325 Y34.268 Z-5.858 I0.022 J0.635
G1 Y39.861
X78.297 Y40.426
X78.242 Y40.844
X78.14 Y41.321
X77.984 Y41.843
X77.749 Y42.444
X77.445 Y43.072
X77.041 Y43.758
X76.526 Y44.492
X75.943 Y45.193
X75.311 Y45.85
X74.636 Y46.464
X73.924 Y47.033
X73.179 Y47.558
X72.404 Y48.039
X71.603 Y48.474
X70.779 Y48.865
X69.935 Y49.21
X69.073 Y49.509
X68.197 Y49.762
X67.309 Y49.968
X66.411 Y50.125
X65.506 Y50.234
X64.596 Y50.295
X63.684 Y50.308
X62.773 Y50.274
X61.865 Y50.192
X60.962 Y50.063
X60.068 Y49.887
X59.625 Y49.776
X58.714 Y49.76
X58.278 Y49.894
X57.86 Y50.076
X57.136 Y50.631
X56.602 Y51.369
X56.197 Y52.187
X55.875 Y53.039
X55.597 Y53.908
X55.337 Y54.782
X55.075 Y55.655
X54.795 Y56.523
X54.49 Y57.382
X54.154 Y58.23
X53.786 Y59.064
X53.385 Y59.883
X52.952 Y60.685
X52.486 Y61.469
X51.989 Y62.234
X51.461 Y62.977
X50.904 Y63.699
X50.318 Y64.397
X49.704 Y65.071
X49.062 Y65.72
X48.394 Y66.339
X47.697 Y66.928
X47.31 Y67.223
X47.036 Y67.388
X46.732 Y67.49
X46.413 Y67.525
X40.66
G3 X40.122 Y67.189 Z-5.725 I0.022 J-0.635
X40.005 Y66.879 Z-5.658 I1.135 J-0.605
X40.741 Y65.407 I1.252 J-0.294
X45.707 Y66.902 I1.604 J3.664
X45.875 Y67.189 Z-5.725 I-3.361 J2.168
G2 X46.413 Y67.525 Z-5.858 I0.56 J-0.299
G1 X48.114 F900
X48.365 Y67.512
X48.646 Y67.476
X48.968 Y67.407
X49.33 Y67.298
X49.749 Y67.135
X50.218 Y66.907
X50.747 Y66.596
X51.352 Y66.171
X52.028 Y65.61
X52.681 Y64.973
X53.288 Y64.293
X53.854 Y63.578
X54.381 Y62.834
X54.872 Y62.066
X55.329 Y61.276
X55.752 Y60.469
X56.144 Y59.646
X56.507 Y58.809
X56.842 Y57.961
X57.155 Y57.105
X57.456 Y56.244
X57.759 Y55.384
X58.004 Y55
X58.643 Y54.349
X59.435 Y53.898
X60.293 Y53.589
X61.179 Y53.375
X62.078 Y53.221
X62.982 Y53.099
X63.887 Y52.989
X64.792 Y52.877
X65.695 Y52.751
X66.594 Y52.601
X67.488 Y52.422
X68.375 Y52.21
X69.253 Y51.964
X70.12 Y51.682
X70.974 Y51.363
X71.814 Y51.007
X72.635 Y50.612
X73.437 Y50.177
X74.215 Y49.702
X74.969 Y49.189
X75.695 Y48.637
X76.39 Y48.047
X77.052 Y47.42
X77.675 Y46.754
X77.989 Y46.372
X78.132 Y46.163
X78.238 Y45.931
X78.303 Y45.685
X78.325 Y45.432
Y39.861
G2 X77.989 Y39.322 Z-5.725 I-0.635 J0.022 F1000
X77.679 Y39.204 Z-5.658 I-0.632 J1.186
X76.084 Y40.076 I-0.323 J1.305
X77.702 Y44.725 I3.787 J1.288
X77.989 Y44.894 Z-5.725 I2.168 J-3.361
G3 X78.325 Y45.432 Z-5.858 I-0.299 J0.56
G1 Y46.903
X78.309 Y47.222
X78.278 Y47.46
X78.218 Y47.739
X78.122 Y48.059
X77.988 Y48.404
X77.793 Y48.806
X77.543 Y49.231
X77.205 Y49.712
X76.763 Y50.244
X76.22 Y50.801
X75.533 Y51.4
X74.8 Y51.943
X74.032 Y52.435
X73.236 Y52.88
X72.418 Y53.283
X71.582 Y53.646
X70.73 Y53.971
X69.865 Y54.261
X68.99 Y54.516
X68.106 Y54.74
X67.216 Y54.935
X66.32 Y55.105
X65.421 Y55.258
X64.521 Y55.402
X63.622 Y55.555
X62.73 Y55.745
X61.926 Y56.175
X61.23 Y56.765
X60.625 Y57.447
X60.088 Y58.184
X59.597 Y58.952
X59.133 Y59.737
X58.227 Y61.319
X57.765 Y62.105
X57.287 Y62.882
X56.788 Y63.645
X56.265 Y64.392
X55.714 Y65.118
X55.13 Y65.819
X54.51 Y66.487
X53.852 Y67.119
X53.785 Y67.176
X53.573 Y67.325
X53.338 Y67.435
X53.088 Y67.502
X52.83 Y67.525
X48.114
G3 X47.575 Y67.189 Z-5.725 I0.022 J-0.635
X47.489 Y66.871 Z-5.658 I0.655 J-0.349
X47.766 Y66.261 I0.742 J-0.031
X52.119 Y66.905 I1.878 J2.339
X52.291 Y67.189 Z-5.725 I-2.475 J1.695
G2 X52.83 Y67.525 Z-5.858 I0.56 J-0.299
G1 X54.325 F900
X54.494 Y67.517
X54.723 Y67.486
X54.996 Y67.428
X55.292 Y67.339
X55.637 Y67.205
X56.02 Y67.019
X56.462 Y66.759
X56.95 Y66.416
X57.517 Y65.946
X58.169 Y65.309
X58.769 Y64.623
X59.329 Y63.902
X59.857 Y63.159
X60.364 Y62.402
X60.864 Y61.639
X61.373 Y60.882
X61.925 Y60.157
X62.613 Y59.559
X63.386 Y59.075
X64.208 Y58.68
X65.058 Y58.35
X65.923 Y58.061
X66.796 Y57.797
X68.547 Y57.288
X69.419 Y57.023
X70.287 Y56.741
X71.146 Y56.438
X71.997 Y56.109
X72.835 Y55.751
X73.66 Y55.361
X74.467 Y54.938
X75.254 Y54.477
X76.014 Y53.974
X76.744 Y53.427
X77.438 Y52.835
X77.881 Y52.4
X78.069 Y52.174
X78.209 Y51.916
X78.296 Y51.635
X78.325 Y51.342
Y46.903
G2 X77.989 Y46.365 Z-5.725 I-0.635 J0.022 F1000
X77.674 Y46.265 Z-5.658 I-0.429 J0.805
X76.757 Y46.739 I-0.114 J0.905
X77.705 Y50.632 I2.644 J1.418
X77.989 Y50.804 Z-5.725 I1.695 J-2.475
G3 X78.325 Y51.342 Z-5.858 I-0.299 J0.56
G1 Y52.703
X78.316 Y52.88
X78.289 Y53.084
X78.238 Y53.326
X78.159 Y53.588
X78.045 Y53.882
X77.881 Y54.219
X77.673 Y54.572
X77.388 Y54.978
X77.029 Y55.41
X76.564 Y55.888
X75.959 Y56.415
X75.226 Y56.957
X74.454 Y57.443
X73.654 Y57.88
X72.833 Y58.277
X71.997 Y58.639
X71.148 Y58.972
X70.29 Y59.282
X69.427 Y59.576
X68.562 Y59.863
X67.698 Y60.155
X66.842 Y60.469
X66.011 Y60.844
X65.243 Y61.337
X64.539 Y61.916
X63.886 Y62.552
X63.269 Y63.223
X62.674 Y63.915
X62.089 Y64.614
X61.499 Y65.309
X60.892 Y65.99
X60.262 Y66.648
X59.765 Y67.119
X59.544 Y67.292
X59.295 Y67.42
X59.025 Y67.498
X58.746 Y67.525
X54.325
G3 X53.786 Y67.189 Z-5.725 I0.022 J-0.635
X53.686 Y66.874 Z-5.658 I0.812 J-0.433
X54.173 Y65.941 I0.913 J-0.118
X58.035 Y66.905 I1.388 J2.66
X58.208 Y67.189 Z-5.725 I-2.475 J1.695
G2 X58.746 Y67.525 Z-5.858 I0.56 J-0.299
G1 X60.122 F900
X60.423 Y67.51
X60.672 Y67.477
X60.954 Y67.417
X61.286 Y67.318
X61.676 Y67.165
X62.147 Y66.937
X62.75 Y66.582
X63.496 Y66.058
X64.208 Y65.489
X64.91 Y64.907
X65.637 Y64.356
X66.404 Y63.863
X67.202 Y63.423
X68.023 Y63.026
X68.857 Y62.658
X69.699 Y62.308
X70.544 Y61.965
X71.388 Y61.62
X72.228 Y61.266
X73.062 Y60.896
X73.885 Y60.504
X74.694 Y60.083
X75.483 Y59.626
X76.248 Y59.13
X76.983 Y58.59
X77.681 Y58.004
X77.88 Y57.81
X78.069 Y57.584
X78.209 Y57.325
X78.296 Y57.044
X78.325 Y56.751
Y52.703
G2 X77.989 Y52.165 Z-5.725 I-0.635 J0.022 F1000
X77.676 Y52.057 Z-5.658 I-0.489 J0.917
X76.493 Y52.826 I-0.176 J1.024
X77.705 Y56.04 I2.907 J0.739
X77.989 Y56.212 Z-5.725 I1.695 J-2.475
G3 X78.325 Y56.751 Z-5.858 I-0.299 J0.56
G1 Y58.088
X78.317 Y58.238
X78.289 Y58.441
X78.238 Y58.669
X78.16 Y58.919
X78.042 Y59.213
X77.887 Y59.525
X77.672 Y59.881
X77.396 Y60.266
X77.026 Y60.702
X76.558 Y61.173
X75.929 Y61.711
X75.191 Y62.246
X74.417 Y62.729
X73.621 Y63.172
X72.808 Y63.586
X71.986 Y63.981
X71.16 Y64.367
X70.335 Y64.756
X69.52 Y65.164
X68.722 Y65.606
X67.947 Y66.086
X67.19 Y66.594
X66.44 Y67.113
X66.217 Y67.266
X65.957 Y67.408
X65.674 Y67.495
X65.38 Y67.525
X60.122
G3 X59.509 Y66.869 Z-5.658 I0.022 J-0.635
X59.711 Y66.426 I0.635 J0.022
X61.634 Y65.746 I1.743 J1.869
X64.58 Y66.977 I-0.353 J4.988
X64.938 Y67.323 Z-5.758 I-3.299 J3.757
G2 X65.38 Y67.525 Z-5.858 I0.464 J-0.433
G1 X67.575 F900
X68.358 Y67.486
X69.078 Y67.391
X69.97 Y67.201
X70.846 Y66.948
X71.709 Y66.652
X72.558 Y66.321
X73.395 Y65.959
X74.217 Y65.565
X75.023 Y65.137
X75.807 Y64.672
X76.565 Y64.166
X77.29 Y63.613
X77.825 Y63.139
X78.036 Y62.908
X78.194 Y62.638
X78.292 Y62.341
X78.325 Y62.03
Y58.088
G2 X77.989 Y57.55 Z-5.725 I-0.635 J0.022 F1000
X77.676 Y57.442 Z-5.658 I-0.497 J0.933
X76.453 Y58.287 I-0.184 J1.041
X77.705 Y61.319 I2.948 J0.557
X77.989 Y61.492 Z-5.725 I1.695 J-2.475
G3 X78.325 Y62.03 Z-5.858 I-0.299 J0.56
G1 Y63.267
X78.314 Y63.487
X78.289 Y63.678
X78.243 Y63.891
X78.168 Y64.143
X78.061 Y64.417
X77.913 Y64.723
X77.709 Y65.068
X77.448 Y65.44
X77.103 Y65.856
X76.652 Y66.319
X76.086 Y66.812
X75.515 Y67.234
X75.244 Y67.393
X74.946 Y67.492
X74.634 Y67.525
G3 X74.022 Y66.869 Z-5.658 I0.022 J-0.635
X74.171 Y66.481 I0.635 J0.022
G1 X77.205 Y62.88
G3 X77.669 Y62.654 I0.486 J0.409
X78.325 Y63.267 Z-5.858 I0.022 J0.635
G1 Y65.545
X78.316 Y65.716
X78.285 Y65.958
X78.228 Y66.225
X78.143 Y66.508
X78.114 Y66.581
X77.98 Y66.844
X77.796 Y67.076
X77.57 Y67.266
X77.311 Y67.408
X77.028 Y67.495
X76.734 Y67.525
G3 X76.121 Y66.869 Z-5.658 I0.022 J-0.635
X76.237 Y66.524 I0.635 J0.022
G1 X77.172 Y65.201
G3 X77.669 Y64.933 I0.519 J0.366
X78.325 Y65.545 Z-5.858 I0.022 J0.635
G1 Y66.891
X78.313 Y66.995
X78.283 Y67.099
X78.261 Y67.15
X78.233 Y67.202
X78.19 Y67.268
X78.134 Y67.333
X78.089 Y67.375
X78.045 Y67.409
X77.986 Y67.446
X77.927 Y67.475
X77.823 Y67.508
X77.72 Y67.524
X77.513 Y67.525
X67.575
G3 X66.99 Y67.077 I0.022 J-0.635
G1 X66.961 Y66.983 Z-5.85
X66.933 Y66.89 Z-5.827
X66.906 Y66.802 Z-5.789
X66.88 Y66.721 Z-5.737
X66.858 Y66.648 Z-5.672
X66.839 Y66.587 Z-5.596
X66.824 Y66.537 Z-5.512
X66.813 Y66.5 Z-5.419
X66.806 Y66.478 Z-5.323
X66.803 Y66.471 Z-5.223
G0 Z5
X9.221 Y60.103
Z-4.588
G1 Z-5.223 F1000
X9.217 Y60.11 Z-5.323
X9.205 Y60.13 Z-5.419
X9.185 Y60.163 Z-5.512
X9.159 Y60.207 Z-5.596
X9.126 Y60.263 Z-5.672
X9.087 Y60.328 Z-5.737
X9.044 Y60.401 Z-5.789
X8.997 Y60.48 Z-5.827
X8.947 Y60.564 Z-5.85
X8.896 Y60.649 Z-5.858
G2 X8.675 Y61.402 I1.36 J0.809
G1 Y63.588 F900
X8.686 Y63.807
X8.718 Y64.049
X8.771 Y64.3
X8.856 Y64.583
X8.982 Y64.906
X9.139 Y65.23
X9.362 Y65.608
X9.628 Y65.987
X9.986 Y66.418
X10.409 Y66.852
X10.762 Y67.16
X10.977 Y67.316
X11.216 Y67.431
X11.472 Y67.501
X11.736 Y67.525
X16.821
G2 X17.434 Y66.869 Z-5.658 I-0.022 J-0.635 F1000
X17.232 Y66.426 I-0.635 J0.022
X15.211 Y65.773 I-1.709 J1.832
X12.536 Y66.977 I0.624 J4.961
X12.178 Y67.323 Z-5.758 I3.299 J3.757
G3 X11.736 Y67.525 Z-5.858 I-0.464 J-0.433
G1 X10.319
X10.147 Y67.516
X9.959 Y67.492
X9.755 Y67.448
X9.731 Y67.441
X9.441 Y67.319
X9.182 Y67.138
X8.968 Y66.906
X8.808 Y66.635
X8.709 Y66.335
X8.675 Y66.022
G3 X9.331 Y65.409 Z-5.658 I0.635 J0.022
X9.723 Y65.562 I-0.022 J0.635
G1 X10.71 Y66.408
G3 X10.931 Y66.869 I-0.413 J0.482
X10.319 Y67.525 Z-5.858 I-0.635 J0.022
G1 X9.397
X9.294 Y67.524
X9.19 Y67.51
X9.087 Y67.477
X9.035 Y67.453
X8.983 Y67.422
X8.964 Y67.409
X8.908 Y67.365
X8.853 Y67.313
X8.811 Y67.265
X8.776 Y67.217
X8.767 Y67.202
X8.739 Y67.15
X8.717 Y67.099
X8.687 Y66.995
X8.675 Y66.891
Y63.588
G3 X9.123 Y63.003 I0.635 J0.022
G1 X9.217 Y62.974 Z-5.85
X9.31 Y62.945 Z-5.827
X9.398 Y62.918 Z-5.789
X9.479 Y62.893 Z-5.737
X9.552 Y62.871 Z-5.672
X9.613 Y62.852 Z-5.596
X9.663 Y62.836 Z-5.512
X9.7 Y62.825 Z-5.419
X9.722 Y62.818 Z-5.323
X9.729 Y62.816 Z-5.223
G0 Z5
X13.689 Y9.221
Z-4.588
G1 Z-5.223 F1000
X13.682 Y9.217 Z-5.323
X13.662 Y9.205 Z-5.419
X13.629 Y9.185 Z-5.512
X13.584 Y9.159 Z-5.596
X13.529 Y9.126 Z-5.672
X13.464 Y9.087 Z-5.737
X13.39 Y9.044 Z-5.789
X13.311 Y8.997 Z-5.827
X13.228 Y8.947 Z-5.85
X13.143 Y8.896 Z-5.858
G2 X12.389 Y8.675 I-0.809 J1.36
G1 X10.433 F900
X10.283 Y8.683
X10.083 Y8.709
X9.846 Y8.761
X9.728 Y8.797
X9.438 Y8.919
X9.18 Y9.1
X8.967 Y9.332
X8.807 Y9.603
X8.708 Y9.902
X8.675 Y10.215
Y12.293
G2 X9.011 Y12.832 Z-5.725 I0.635 J-0.022 F1000
X9.33 Y12.913 Z-5.658 I0.328 J-0.615
X10.016 Y12.056 I0.008 J-0.696
X9.29 Y10.933 I-1.946 J0.461
X9.011 Y10.753 Z-5.725 I-1.22 J1.585
G3 X8.675 Y10.215 Z-5.858 I0.299 J-0.56
G1 Y9.309
X8.687 Y9.205
X8.717 Y9.101
X8.739 Y9.05
X8.767 Y8.998
X8.776 Y8.983
X8.811 Y8.935
X8.853 Y8.887
X8.908 Y8.835
X8.964 Y8.791
X8.983 Y8.778
X9.035 Y8.747
X9.087 Y8.723
X9.19 Y8.69
X9.294 Y8.676
X9.397 Y8.675
X10.433
X10.507 Y8.682
X10.581 Y8.698
X10.649 Y8.731 Z-5.854
X10.717 Y8.763 Z-5.84
X10.782 Y8.795 Z-5.817
X10.838 Y8.853 Z-5.78
X10.891 Y8.907 Z-5.731
X10.937 Y8.955 Z-5.672
X10.965 Y9.013 Z-5.596
X10.988 Y9.06 Z-5.512
X11.004 Y9.095 Z-5.42
X11.014 Y9.116 Z-5.323
X11.017 Y9.123 Z-5.224
G0 Z5
X36.363 Y43.563
Z-4.112
G1 Z-4.747 F1000
X36.371 Y43.561 Z-4.846
X36.394 Y43.555 Z-4.943
X36.43 Y43.546 Z-5.035
X36.481 Y43.533 Z-5.12
X36.544 Y43.517 Z-5.196
X36.617 Y43.498 Z-5.26
X36.699 Y43.477 Z-5.312
X36.788 Y43.454 Z-5.35
X36.882 Y43.43 Z-5.374
X36.979 Y43.405 Z-5.382
G3 X40.435 Y42.908 I4.023 J15.704
G1 X40.663
X40.889 Y42.873
X41.224 Y42.767
X41.483 Y42.709
X41.748 Y42.699
X42.011 Y42.736
X43.352 Y43.051
X43.559 Y43.103
X43.632 Y43.134
X43.705 Y43.175
X44.049 Y43.382
X44.18 Y43.48
X44.594 Y43.822
X44.811 Y44.003
X45.275 Y44.418
X45.422 Y44.553
X46.043 Y45.165
X46.124 Y45.246
X46.25 Y45.388
X46.305 Y45.453
X46.664 Y45.929
X46.783 Y46.075
X46.956 Y46.282
X47.156 Y46.489
X47.285 Y46.618
X47.492 Y46.797
X47.63 Y46.903
X47.938 Y47.11
X48.114 Y47.222
X48.34 Y47.317
X48.735 Y47.479
X48.748 Y47.483
X49.317 Y47.603
X49.886 Y47.622
X49.899
X50.466 Y47.539
X50.481 Y47.535
X51.012 Y47.354
X51.1 Y47.317
X51.219 Y47.257
X51.426 Y47.14
X51.472 Y47.11
X51.633 Y47.002
X52.047 Y46.64
X52.193 Y46.489
X52.49 Y46.075
X52.598 Y45.867
X52.79 Y45.466
X52.903 Y45.039
X52.951 Y44.832
X52.99 Y44.418
X52.998 Y44.21
X52.975 Y43.796
X52.954 Y43.589
X52.922 Y43.382
X52.875 Y43.159
X52.83 Y42.968
X52.776 Y42.76
X52.715 Y42.553
X52.668 Y42.399
X52.461 Y41.75
X52.216 Y41.103
X51.975 Y40.482
X51.899 Y40.275
X51.759 Y39.861
X51.686 Y39.653
X51.426 Y39.009
X51.183 Y38.411
X51.107 Y38.204
X50.967 Y37.789
X50.885 Y37.582
X50.782 Y37.375
X50.674 Y37.168
X50.184 Y36.25
X50.121 Y36.132
X50.002 Y35.925
X49.688 Y35.407
X49.663 Y35.355
X49.642 Y35.304
X49.563 Y35.021
X49.127 Y33.44
X49.074 Y33.232
X49.064 Y33.129
X49.069 Y33.025
X49.096 Y32.611
X49.116 Y32.404
X49.162 Y31.99
X49.187 Y31.782
X49.304 Y30.954
X49.356 Y30.746
X49.632 Y29.711
X49.701 Y29.504
X49.849 Y29.09
X49.92 Y28.883
X49.984 Y28.675
X50.039 Y28.468
X50.08 Y28.261
X50.135 Y27.847
X50.147 Y27.64
X50.137 Y27.226
X50.109 Y27.018
X50.021 Y26.565
X50.015 Y26.546
X49.801 Y26.009
X49.795 Y25.996
X49.522 Y25.568
X49.374 Y25.361
X49.149 Y25.115
X48.942 Y24.935
X48.735 Y24.787
X48.287 Y24.518
X48.274 Y24.511
X47.699 Y24.302
X47.596 Y24.276
X47.492 Y24.258
X47.285 Y24.228
X47.078 Y24.207
X46.664 Y24.212
X46.457 Y24.225
X46.25 Y24.256
X46.043 Y24.301
X45.955 Y24.326
X45.405 Y24.533
X45.215 Y24.637
X45.008 Y24.757
X44.801 Y24.879
X44.594 Y25.037
X44.446 Y25.154
X44.18 Y25.39
X43.997 Y25.568
X43.794 Y25.776
X43.559 Y26.042
X43.436 Y26.19
X42.937 Y26.811
X42.768 Y27.018
X42.246 Y27.64
X42.109 Y27.805
X41.902 Y28.07
X41.75 Y28.261
X41.488 Y28.584
X41.409 Y28.675
X41.18 Y28.883
X41.074 Y28.997
X40.812 Y29.297
X40.656 Y29.504
X40.21 Y30.125
X40.056 Y30.333
X39.53 Y30.954
X37.555 Y33.156
X37.479 Y33.232
X37.413 Y33.283
X37.348 Y33.323
X37.141 Y33.446
X36.933 Y33.541
X36.519 Y33.726
X36.312 Y33.815
X35.686 Y34.061
X35.484 Y34.125
X34.863 Y34.314
X34.346 Y34.475
X34.242 Y34.509
X34.035 Y34.591
X33.828 Y34.684
X33.621 Y34.787
X33.128 Y35.097
X33 Y35.189
X32.793 Y35.369
X32.656 Y35.511
X32.479 Y35.702
X32.466 Y35.718
X32.172 Y36.178
X32.07 Y36.339
X31.965 Y36.587
X31.897 Y36.754
X31.841 Y36.961
X31.742 Y37.476
X31.734 Y38.047
X31.737 Y38.072
X31.826 Y38.618
X31.886 Y38.825
X31.965 Y39.037
X32.056 Y39.239
X32.379 Y39.78
X32.437 Y39.861
X32.586 Y40.02
X32.839 Y40.275
X33 Y40.425
X33.076 Y40.482
X33.621 Y40.819
X33.769 Y40.896
X33.828 Y40.923
X34.035 Y41.006
X34.242 Y41.083
X34.305 Y41.103
X34.449 Y41.145
X34.656 Y41.201
X34.863 Y41.248
X35.191 Y41.311
X35.484 Y41.365
X35.691 Y41.407
X36.216 Y41.518
X36.312 Y41.537
X36.726 Y41.612
X36.933 Y41.649
X37.555 Y41.784
X37.762 Y41.835
X38.176 Y41.954
X38.383 Y42.009
X39.004 Y42.106
X39.625 Y42.199
X39.832 Y42.236
X40.039 Y42.278
X40.246 Y42.322
X42.011 Y42.736
X42.082 Y42.76
X42.15 Y42.792
X42.209 Y42.84 Z-5.377
X42.267 Y42.887 Z-5.363
X42.324 Y42.933 Z-5.341
X42.365 Y43.002 Z-5.303
X42.404 Y43.066 Z-5.254
X42.438 Y43.124 Z-5.196
X42.452 Y43.187 Z-5.12
X42.463 Y43.238 Z-5.035
X42.471 Y43.275 Z-4.943
X42.476 Y43.298 Z-4.846
X42.478 Y43.305 Z-4.747
G0 Z5
X38.005 Y27.832
Z-3.448
G1 Z-4.083 F1000
X38.007 Y27.839 Z-4.182
X38.012 Y27.862 Z-4.279
X38.022 Y27.899 Z-4.371
X38.035 Y27.949 Z-4.456
X38.051 Y28.012 Z-4.532
X38.07 Y28.085 Z-4.596
X38.091 Y28.168 Z-4.648
X38.114 Y28.257 Z-4.687
X38.138 Y28.351 Z-4.71
X38.162 Y28.447 Z-4.718
G3 X38.659 Y31.904 I-15.704 J4.023
G1 Y32.816
X38.647 Y32.89
X38.618 Y32.96
X38.574 Y33.021
X37.969 Y33.696
X37.889 Y33.784
X37.809 Y33.854
X37.762 Y33.886
X37.466 Y34.061
X37.141 Y34.236
X37.074 Y34.268
X36.519 Y34.504
X36.312 Y34.606
X36.174 Y34.682
X36.105 Y34.722
X35.851 Y34.889
X35.691 Y35.013
X35.587 Y35.097
X35.484 Y35.191
X35.277 Y35.397
X35.176 Y35.511
X35.07 Y35.643
X35.013 Y35.718
X34.661 Y36.323
X34.514 Y36.754
X34.459 Y36.961
X34.381 Y37.453
X34.392 Y38.022
X34.393 Y38.035
X34.509 Y38.618
X34.656 Y39.021
X34.662 Y39.032
X34.773 Y39.239
X35.07 Y39.697
X35.192 Y39.861
X35.277 Y39.946
X35.691 Y40.327
X35.795 Y40.41
X36.312 Y40.708
X36.519 Y40.808
X36.744 Y40.896
X36.933 Y40.965
X37.141 Y41.022
X37.348 Y41.073
X37.555 Y41.114
X37.762 Y41.156
X38.176 Y41.243
X38.383 Y41.283
X39.625 Y41.469
X39.832 Y41.508
X40.246 Y41.596
X40.453 Y41.643
X43.766 Y42.42
X43.869 Y42.447
X43.921 Y42.467
X43.973 Y42.492
X44.076 Y42.553
X44.683 Y42.968
X44.801 Y43.049
X45.449 Y43.589
X45.629 Y43.734
X45.71 Y43.796
X46.043 Y44.023
X46.25 Y44.15
X46.356 Y44.21
X46.457 Y44.265
X46.664 Y44.36
X46.822 Y44.418
X47.285 Y44.56
X47.492 Y44.59
X47.764 Y44.625
X47.906 Y44.64
X48.463 Y44.614
X48.476 Y44.612
X48.942 Y44.505
X49.149 Y44.446
X49.226 Y44.418
X49.356 Y44.361
X49.563 Y44.261
X49.649 Y44.21
X50.184 Y43.833
X50.23 Y43.796
X50.436 Y43.589
X50.598 Y43.4
X50.768 Y43.175
X51.012 Y42.724
X51.081 Y42.553
X51.219 Y42.137
X51.259 Y41.932
X51.32 Y41.518
Y41.311
X51.317 Y41.103
X51.312 Y40.896
X51.219 Y40.331
X51.207 Y40.275
X51.151 Y40.068
X51.084 Y39.861
X51.011 Y39.653
X50.677 Y38.825
X50.514 Y38.411
X50.425 Y38.204
X50.241 Y37.789
X50.184 Y37.665
X49.477 Y36.339
X49.355 Y36.132
X49.04 Y35.614
X49.011 Y35.563
X48.988 Y35.511
X48.942 Y35.356
X48.357 Y33.232
X48.338 Y33.129
X48.334 Y33.025
X48.361 Y32.611
X48.38 Y32.404
X48.423 Y31.99
X48.446 Y31.782
X48.534 Y31.161
X48.555 Y30.954
X48.57 Y30.747
X48.577 Y30.54
X48.547 Y30.125
X48.53 Y29.918
X48.433 Y29.504
X48.375 Y29.297
X48.198 Y28.883
X48.114 Y28.702
X48.098 Y28.675
X47.963 Y28.468
X47.81 Y28.261
X47.699 Y28.13
X47.492 Y27.917
X47.42 Y27.847
X47.158 Y27.64
X47.078 Y27.582
X46.871 Y27.453
X46.278 Y27.189
X45.836 Y27.084
X45.629 Y27.042
X45.422 Y27.027
X45.215 Y27.021
X45.008 Y27.025
X44.801 Y27.05
X44.594 Y27.081
X44.387 Y27.137
X43.973 Y27.262
X43.96 Y27.267
X43.352 Y27.579
X43.268 Y27.64
X42.938 Y27.901
X42.748 Y28.054
X42.542 Y28.261
X42.355 Y28.468
X42.187 Y28.675
X42.023 Y28.883
X41.852 Y29.09
X41.679 Y29.297
X41.488 Y29.519
X41.346 Y29.711
X40.867 Y30.376
X40.747 Y30.54
X40.453 Y30.926
X40.429 Y30.954
X38.574 Y33.021
X38.519 Y33.072
X38.458 Y33.116
X38.388 Y33.145 Z-4.713
X38.319 Y33.174 Z-4.699
X38.252 Y33.201 Z-4.677
X38.183 Y33.209 Z-4.645
X38.118 Y33.216 Z-4.606
X38.117 Z-4.605
X38.048 Y33.204 Z-4.549
X37.988 Y33.193 Z-4.483
X37.937 Y33.184 Z-4.41
X37.897 Y33.177 Z-4.329
X37.871 Y33.166 Z-4.25
X37.856 Y33.16 Z-4.167
X37.851 Y33.157 Z-4.083
G0 Z5
X40.473 Y25.83
Z-2.602
G1 Z-3.237 F1000
X40.475 Y25.838 Z-3.336
X40.481 Y25.86 Z-3.433
X40.491 Y25.897 Z-3.525
X40.504 Y25.948 Z-3.61
X40.52 Y26.01 Z-3.686
X40.538 Y26.084 Z-3.751
X40.559 Y26.166 Z-3.803
X40.582 Y26.255 Z-3.841
X40.606 Y26.349 Z-3.864
X40.631 Y26.445 Z-3.872
G3 X41.128 Y29.902 I-15.704 J4.023
G1 Y30.814
X41.131 Y31.106
X41.072 Y31.392
X40.955 Y31.659
X40.784 Y31.896
X38.477 Y34.475
X38.11 Y34.889
X37.969 Y35.056
X37.67 Y35.511
X37.555 Y35.702
X37.453 Y35.925
X37.372 Y36.132
X37.348 Y36.2
X37.316 Y36.339
X37.225 Y36.754
X37.207 Y36.961
X37.19 Y37.375
X37.216 Y37.582
X37.243 Y37.789
X37.276 Y37.996
X37.404 Y38.411
X37.439 Y38.514
X37.762 Y39.104
X37.86 Y39.239
X37.969 Y39.38
X38.025 Y39.446
X38.226 Y39.653
X38.383 Y39.79
X38.469 Y39.861
X38.59 Y39.955
X39.151 Y40.287
X39.688 Y40.482
X39.832 Y40.527
X41.074 Y40.828
X43.352 Y41.383
X44.18 Y41.582
X44.387 Y41.633
X44.801 Y41.742
X45.215 Y41.851
X45.629 Y41.891
X45.836 Y41.905
X46.38 Y41.865
X46.935 Y41.725
X47.078 Y41.676
X47.285 Y41.58
X47.492 Y41.476
X47.699 Y41.334
X48.089 Y41.05
X48.102 Y41.038
X48.585 Y40.482
X48.655 Y40.378
X48.716 Y40.275
X48.823 Y40.068
X48.918 Y39.861
X49.092 Y39.33
X49.164 Y38.825
X49.171 Y38.618
X49.159 Y38.204
X49.149 Y38.118
X49.047 Y37.582
X48.902 Y37.168
X48.828 Y36.961
X48.727 Y36.754
X48.615 Y36.547
X48.495 Y36.339
X48.243 Y35.925
X48.18 Y35.822
X48.134 Y35.718
X48.114 Y35.65
X47.505 Y33.44
X47.323 Y32.818
X47.285 Y32.7
X47.254 Y32.611
X47.098 Y32.197
X47.078 Y32.146
X47.003 Y31.99
X46.895 Y31.782
X46.773 Y31.575
X46.72 Y31.495
X46.664 Y31.416
X46.444 Y31.161
X46.259 Y30.954
X46.043 Y30.772
X45.5 Y30.414
X45.487 Y30.406
X44.93 Y30.184
X44.917 Y30.18
X44.348 Y30.065
X44.335 Y30.064
X43.766 Y30.051
X43.195 Y30.138
X43.179 Y30.143
X42.624 Y30.333
X42.524 Y30.375
X42.316 Y30.492
X42.109 Y30.614
X41.921 Y30.747
X41.664 Y30.954
X41.488 Y31.118
X41.445 Y31.161
X41.257 Y31.368
X40.784 Y31.896
X40.729 Y31.947
X40.668 Y31.991
X40.598 Y32.02 Z-3.867
X40.529 Y32.048 Z-3.853
X40.462 Y32.076 Z-3.831
X40.392 Y32.084 Z-3.799
X40.326 Y32.091 Z-3.759
X40.257 Y32.079 Z-3.702
X40.196 Y32.068 Z-3.636
X40.146 Y32.059 Z-3.562
X40.106 Y32.052 Z-3.481
X40.081 Y32.041 Z-3.402
X40.066 Y32.035 Z-3.32
X40.061 Y32.033 Z-3.237
G0 Z5
X44.12 Y45.536
Z-1.603
G1 Z-2.238 F1000
X44.118 Y45.529 Z-2.338
X44.113 Y45.506 Z-2.435
X44.103 Y45.469 Z-2.527
X44.09 Y45.419 Z-2.612
X44.074 Y45.356 Z-2.687
X44.055 Y45.283 Z-2.752
X44.034 Y45.201 Z-2.804
X44.011 Y45.111 Z-2.842
X43.987 Y45.018 Z-2.865
X43.963 Y44.921 Z-2.873
G3 X43.466 Y41.464 I15.704 J-4.023
G1 Y41.333
X43.548 Y41.208
X43.649 Y41.097
X43.762 Y40.997
X44.114 Y40.708
X44.403 Y40.356
X44.796 Y39.533
X44.975 Y38.639
X45.034 Y37.729
X45.005 Y36.818
X44.994 Y36.704
X44.943 Y36.251
X44.9 Y36.027
X44.824 Y35.812
X44.715 Y35.612
X44.577 Y35.431
X44.413 Y35.273
X44.226 Y35.142
X44.022 Y35.041
X43.805 Y34.972
X43.579 Y34.938
X43.351 Y34.939
X43.126 Y34.975
X42.909 Y35.045
X42.807 Y35.096
X42.71 Y35.155
X42.642 Y35.188
X42.571 Y35.212
X42.485 Y35.224 Z-2.867
X42.401 Y35.235 Z-2.85
X42.323 Y35.221 Z-2.821
X42.249 Y35.208 Z-2.782
X42.181 Y35.196 Z-2.734
X42.126 Y35.163 Z-2.675
X42.078 Y35.136 Z-2.608
X42.039 Y35.113 Z-2.534
X42.009 Y35.095 Z-2.454
X41.988 Y35.083 Z-2.371
X41.981 Y35.076 Z-2.305
X41.978 Y35.074 Z-2.238
G0 Z5
X21.802 Y51.897
Z-4.358
G3 X23.905 Y56.583 Z-4.569 I-0.569 J3.071 F333.3
X18.784 Y56.898 Z-4.779 I-2.67 J-1.614
X20.293 Y52.001 Z-4.99 I2.449 J-1.927
X24.339 Y55.137 Z-5.201 I0.938 J2.967
X19.983 Y57.814 Z-5.411 I-3.104 J-0.168
X19.016 Y52.8 Z-5.622 I1.251 J-2.842
X24.043 Y53.661 Z-5.833 I2.215 J2.17
X21.467 Y58.056 Z-6.043 I-2.808 J1.306
X18.266 Y54.1 Z-6.254 I-0.232 J-3.085
X23.091 Y52.503 Z-6.464 I2.965 J0.87
X22.885 Y57.575 Z-6.675 I-1.857 J2.465
X18.217 Y55.596 Z-6.886 I-1.649 J-2.604
X21.711 Y51.93 Z-7.096 I3.015 J-0.624
X23.906 Y56.487 Z-7.307 I-0.479 J3.038
X18.874 Y56.934 Z-7.517 I-2.671 J-1.517
X20.229 Y52.073 Z-7.728 I2.359 J-1.962
X24.295 Y55.051 Z-7.939 I1.003 J2.896
X20.079 Y57.802 Z-8.149 I-3.059 J-0.083
X18.993 Y52.893 Z-8.36 I1.155 J-2.83
X23.964 Y53.607 Z-8.571 I2.238 J2.076
X21.545 Y58.001 Z-8.781 I-2.729 J1.361
X18.29 Y54.193 Z-8.992 I-0.31 J-3.03
X22.996 Y52.492 Z-9.202 I2.941 J0.777
X22.928 Y57.489 Z-9.413 I-1.762 J2.475
X18.281 Y55.666 Z-9.624 I-1.693 J-2.519
X21.622 Y51.965 Z-9.834 I2.95 J-0.695
X23.904 Y56.391 Z-10.045 I-0.39 J3.002
X18.964 Y56.965 Z-10.255 I-2.669 J-1.422
X20.168 Y52.146 Z-10.466 I2.269 J-1.993
X24.248 Y54.968 Z-10.677 I1.064 J2.823
X18.215 Y54.968 I-3.016 J0
X24.248 Y54.968 I3.016 J0
G1 X24.252 Y55.196 F1000
X24.407 Y56.095
X24.461 Y56.235
X24.498 Y56.38
X24.521 Y56.528
X24.53 Y56.678
X24.527 Y56.836
X24.51 Y57.006
X24.477 Y57.184
X24.427 Y57.371
X24.359 Y57.564
X24.27 Y57.762
X24.16 Y57.962
X24.029 Y58.161
X23.875 Y58.358
X23.699 Y58.55
X23.5 Y58.733
X23.28 Y58.907
X23.039 Y59.067
X22.778 Y59.212
X22.498 Y59.338
X22.202 Y59.445
X21.892 Y59.529
X21.569 Y59.589
X21.236 Y59.624
X20.895 Y59.632
X20.55 Y59.613
X20.203 Y59.565
X19.857 Y59.489
X19.515 Y59.384
X19.178 Y59.25
X18.851 Y59.089
X18.536 Y58.9
X18.234 Y58.686
X17.949 Y58.446
X17.683 Y58.183
X17.438 Y57.898
X17.216 Y57.594
X17.018 Y57.271
X16.846 Y56.932
X16.701 Y56.58
X16.585 Y56.216
X16.498 Y55.844
X16.441 Y55.465
X16.415 Y55.082
X16.42 Y54.698
X16.455 Y54.315
X16.522 Y53.935
X16.618 Y53.562
X16.745 Y53.197
X16.9 Y52.844
X17.083 Y52.504
X17.293 Y52.179
X17.529 Y51.873
X17.788 Y51.586
X18.07 Y51.32
X18.372 Y51.078
X18.693 Y50.861
X19.03 Y50.671
X19.382 Y50.508
X19.746 Y50.374
X20.119 Y50.269
X20.499 Y50.195
X20.884 Y50.152
X21.272 Y50.139
X21.659 Y50.158
X22.044 Y50.208
X22.423 Y50.288
X22.795 Y50.399
X23.156 Y50.539
X23.506 Y50.707
X23.84 Y50.904
X24.158 Y51.126
X24.457 Y51.373
X24.735 Y51.644
X24.991 Y51.935
X25.222 Y52.247
X25.462 Y52.631
X25.867 Y53.413
X26.129 Y54.037
X26.306 Y54.575
X26.424 Y55.061
X26.497 Y55.526
X26.531 Y55.976
X26.53 Y56.412
X26.494 Y56.836
X26.425 Y57.251
X26.324 Y57.657
X26.19 Y58.053
X26.025 Y58.437
X25.828 Y58.81
X25.6 Y59.168
X25.342 Y59.51
X25.054 Y59.834
X24.738 Y60.136
X24.394 Y60.416
X24.024 Y60.671
X23.628 Y60.899
X23.21 Y61.097
X22.772 Y61.263
X22.315 Y61.394
X21.844 Y61.49
X21.361 Y61.549
X20.87 Y61.569
X20.373 Y61.549
X19.875 Y61.489
X19.379 Y61.388
X18.889 Y61.246
X18.409 Y61.065
X17.941 Y60.844
X17.49 Y60.584
X17.059 Y60.288
X16.651 Y59.956
X16.269 Y59.59
X15.916 Y59.194
X15.594 Y58.768
X15.307 Y58.317
X15.056 Y57.842
X14.843 Y57.347
X14.671 Y56.836
X14.539 Y56.311
X14.45 Y55.776
X14.404 Y55.234
X14.402 Y54.69
X14.443 Y54.147
X14.528 Y53.608
X14.656 Y53.077
X14.827 Y52.557
X15.039 Y52.052
X15.29 Y51.566
X15.581 Y51.101
X15.908 Y50.661
X16.269 Y50.248
X16.662 Y49.865
X17.085 Y49.515
X17.535 Y49.2
X18.009 Y48.922
X18.504 Y48.682
X19.017 Y48.484
X19.544 Y48.327
X20.082 Y48.212
X20.627 Y48.142
X21.177 Y48.115
X21.726 Y48.133
X22.273 Y48.194
X22.813 Y48.299
X23.343 Y48.448
X23.86 Y48.638
X24.359 Y48.869
X24.839 Y49.14
X25.295 Y49.448
X25.735 Y49.8
X26.213 Y50.25
X26.667 Y50.752
X27.094 Y51.307
X27.48 Y51.902
X27.811 Y52.517
X28.085 Y53.14
X28.303 Y53.767
X28.465 Y54.395
X28.575 Y55.021
X28.633 Y55.643
X28.641 Y56.261
X28.599 Y56.871
X28.51 Y57.471
X28.373 Y58.06
X28.19 Y58.633
X27.962 Y59.19
X27.689 Y59.726
X27.374 Y60.241
X27.017 Y60.73
X26.619 Y61.192
X26.183 Y61.623
X25.711 Y62.021
X25.204 Y62.382
X24.665 Y62.705
X24.098 Y62.985
X23.504 Y63.22
X22.889 Y63.409
X22.255 Y63.549
X21.607 Y63.639
X20.95 Y63.676
X20.287 Y63.66
X19.622 Y63.591
X18.962 Y63.468
X18.309 Y63.291
X17.669 Y63.061
X17.045 Y62.779
X16.444 Y62.446
X15.868 Y62.064
X15.322 Y61.634
X14.81 Y61.161
X14.336 Y60.646
X13.903 Y60.092
X13.515 Y59.504
X13.174 Y58.884
X12.884 Y58.238
X12.645 Y57.568
X12.461 Y56.88
X12.332 Y56.178
X12.26 Y55.467
X12.245 Y54.751
X12.288 Y54.035
X12.388 Y53.325
X12.545 Y52.624
X12.758 Y51.937
X13.026 Y51.268
X13.346 Y50.623
X13.718 Y50.006
X14.138 Y49.42
X14.604 Y48.869
X15.113 Y48.357
X15.662 Y47.888
X16.247 Y47.463
X16.864 Y47.088
X17.509 Y46.762
X18.179 Y46.49
X18.869 Y46.272
X19.573 Y46.11
X20.289 Y46.005
X21.011 Y45.958
X21.734 Y45.969
X22.455 Y46.039
X23.167 Y46.165
X23.867 Y46.349
X24.55 Y46.588
X25.215 Y46.882
X25.876 Y47.241
X26.526 Y47.665
X27.159 Y48.154
X27.766 Y48.707
X28.336 Y49.316
X28.859 Y49.974
X29.328 Y50.672
X29.738 Y51.403
X30.085 Y52.158
X30.368 Y52.933
X30.586 Y53.721
X30.739 Y54.518
X30.827 Y55.317
X30.85 Y56.115
X30.809 Y56.908
X30.705 Y57.691
X30.54 Y58.461
X30.313 Y59.213
X30.027 Y59.943
X29.684 Y60.649
X29.284 Y61.326
X28.831 Y61.97
X28.325 Y62.577
X27.77 Y63.144
X27.168 Y63.668
X26.523 Y64.144
X25.838 Y64.569
X25.117 Y64.94
X24.363 Y65.254
X23.583 Y65.507
X22.78 Y65.699
X21.959 Y65.826
X21.126 Y65.887
X20.286 Y65.881
X19.445 Y65.807
X18.607 Y65.665
X17.78 Y65.456
X16.969 Y65.179
X16.178 Y64.837
X15.415 Y64.431
X14.683 Y63.962
X13.989 Y63.435
X13.337 Y62.851
X12.732 Y62.215
X12.179 Y61.53
X11.68 Y60.801
X11.241 Y60.033
X10.864 Y59.229
X10.552 Y58.397
X10.307 Y57.54
X10.132 Y56.665
X10.027 Y55.777
X9.994 Y54.882
X10.032 Y53.986
X10.143 Y53.096
X10.325 Y52.216
X10.577 Y51.353
X10.898 Y50.512
X11.285 Y49.699
X11.737 Y48.919
X12.25 Y48.178
X12.822 Y47.48
X13.448 Y46.83
X14.124 Y46.232
X14.846 Y45.689
X15.61 Y45.207
X16.41 Y44.787
X17.242 Y44.433
X18.099 Y44.146
X18.977 Y43.929
X19.869 Y43.784
X20.771 Y43.71
X21.675 Y43.709
X22.577 Y43.781
X23.471 Y43.924
X24.354 Y44.141
X25.22 Y44.428
X26.06 Y44.783
X26.869 Y45.203
X27.643 Y45.684
X28.379 Y46.223
X29.072 Y46.816
X29.72 Y47.457
X30.32 Y48.144
X30.869 Y48.872
X31.364 Y49.637
X31.804 Y50.436
X32.184 Y51.265
X32.502 Y52.12
X32.756 Y52.995
X32.944 Y53.887
X33.066 Y54.791
X33.121 Y55.701
X33.107 Y56.613
X33.026 Y57.521
X32.877 Y58.421
X32.66 Y59.306
X32.378 Y60.173
X32.031 Y61.017
X31.622 Y61.832
X31.153 Y62.614
X30.627 Y63.358
X30.046 Y64.061
X29.414 Y64.718
X28.734 Y65.325
X28.01 Y65.88
X27.247 Y66.379
X26.449 Y66.82
X25.621 Y67.202
X25.01 Y67.431
X24.84 Y67.483
X24.666 Y67.514
X24.49 Y67.525
X18.921
X18.011 Y67.479
X17.38 Y67.399
X16.673 Y67.251
X15.911 Y67.027
X15.14 Y66.73
X14.365 Y66.358
X13.577 Y65.899
X12.829 Y65.378
X12.122 Y64.802
X11.459 Y64.176
X10.843 Y63.504
X10.275 Y62.791
X9.759 Y62.039
X9.299 Y61.252
X8.894 Y60.435
X8.787 Y60.174
X8.725 Y59.991
X8.688 Y59.802
X8.675 Y59.609
Y52.081
X8.711 Y51.369
X8.784 Y50.806
X8.923 Y50.158
X9.133 Y49.457
X9.407 Y48.755
X9.772 Y48.002
X10.228 Y47.227
X10.752 Y46.481
X11.332 Y45.777
X11.962 Y45.118
X12.64 Y44.508
X13.359 Y43.948
X14.116 Y43.439
X14.906 Y42.984
X15.725 Y42.582
X16.568 Y42.236
X17.434 Y41.95
X18.317 Y41.724
X19.214 Y41.558
X20.12 Y41.453
X20.687 Y41.425
X20.98 Y41.439
X21.264 Y41.511
X21.528 Y41.638
X21.82 Y41.812
X22.027 Y41.924
X22.507 Y42.139
X22.648 Y42.185
X23.062 Y42.294
X23.307 Y42.346
X24.718 Y42.639
X24.822 Y42.662
X24.925 Y42.7
X25.031 Y42.76
X25.132 Y42.822
X25.381 Y42.968
X25.96 Y43.301
X26.105 Y43.382
X26.685 Y43.654
X26.737 Y43.676
X26.789 Y43.693
X27.203 Y43.798
X27.41 Y43.842
X27.617 Y43.882
X27.824 Y43.964
X28.031 Y44.055
X28.445 Y44.231
X28.652 Y44.319
X29.076 Y44.5
X29.617 Y44.784
X30.199 Y45.152
X30.826 Y45.624
X31.468 Y46.193
X32.095 Y46.845
X32.672 Y47.551
X33.195 Y48.298
X33.664 Y49.08
X34.079 Y49.892
X34.441 Y50.729
X34.748 Y51.587
X35 Y52.464
X35.194 Y53.355
X35.33 Y54.256
X35.409 Y55.165
X35.432 Y56.076
X35.399 Y56.987
X35.308 Y57.895
X35.159 Y58.794
X34.953 Y59.682
X34.691 Y60.556
X34.374 Y61.411
X34.006 Y62.245
X33.587 Y63.055
X33.116 Y63.836
X32.596 Y64.584
X32.029 Y65.299
X31.419 Y65.976
X30.767 Y66.614
X30.078 Y67.211
X30.062 Y67.223
X29.788 Y67.388
X29.484 Y67.49
X29.166 Y67.525
X24.49
G3 X23.951 Y67.189 Z-10.543 I0.022 J-0.635
X23.862 Y66.871 Z-10.477 I0.681 J-0.363
X24.166 Y66.211 I0.771 J-0.045
X28.455 Y66.905 I1.815 J2.389
X28.628 Y67.189 Z-10.543 I-2.475 J1.695
G2 X29.166 Y67.525 Z-10.677 I0.56 J-0.299
G1 X30.722 F900
X30.936 Y67.514
X31.188 Y67.481
X31.46 Y67.423
X31.766 Y67.331
X32.119 Y67.194
X32.486 Y67.016
X32.911 Y66.766
X33.344 Y66.461
X33.824 Y66.063
X34.337 Y65.563
X34.847 Y64.978
X35.373 Y64.266
X35.855 Y63.492
X36.279 Y62.685
X36.647 Y61.851
X36.962 Y60.995
X37.037 Y60.746
X37.07 Y60.621
X37.092 Y60.495
X37.104 Y60.367
X37.115 Y60.16
X37.194 Y59.745
X37.244 Y59.538
X37.459 Y58.652
X37.61 Y57.753
X37.702 Y56.846
X37.74 Y55.935
X37.725 Y55.023
X37.655 Y54.114
X37.533 Y53.21
X37.36 Y52.315
X37.136 Y51.431
X36.865 Y50.561
X36.546 Y49.706
X36.18 Y48.871
X35.765 Y48.059
X35.303 Y47.273
X34.793 Y46.517
X34.679 Y46.368
X34.45 Y46.131
X34.174 Y45.95
X33.866 Y45.834
X33.621 Y45.773
X33.414 Y45.713
X33 Y45.583
X32.793 Y45.515
X31.965 Y45.225
X31.55 Y45.08
X31.136 Y44.941
X30.807 Y44.832
X30.722 Y44.81
X30.101 Y44.663
X29.894 Y44.624
X29.48 Y44.55
X29.273 Y44.504
X28.859 Y44.395
X28.652 Y44.319
G2 X28.031 Y44.448 Z-10.543 I-0.199 J0.603 F1000
X27.81 Y44.695 Z-10.477 I0.965 J1.084
X28.254 Y46.78 I1.187 J0.836
X33.028 Y46.265 I2.044 J-3.438
X33.262 Y46.029 Z-10.543 I-2.73 J-2.924
G3 X33.866 Y45.834 Z-10.677 I0.47 J0.427
G1 X34.242 Y45.928
X34.904 Y46.075
X35.07 Y46.13
X35.496 Y46.282
X35.691 Y46.352
X36.087 Y46.547
X36.354 Y46.705
X36.663 Y46.924
X36.979 Y47.189
X37.334 Y47.538
X37.691 Y47.951
X38.077 Y48.478
X38.474 Y49.122
X38.856 Y49.869
X39.204 Y50.712
X39.486 Y51.579
X39.71 Y52.463
X39.878 Y53.359
X39.993 Y54.264
X40.057 Y55.173
X40.058 Y55.204
X40.032 Y55.503
X39.947 Y55.791
X39.805 Y56.055
X39.613 Y56.286
X39.378 Y56.473
X39.211 Y56.581
X39.004 Y56.725
X38.848 Y56.846
X38.797 Y56.889
X38.606 Y57.053
X38.59 Y57.068
X38.413 Y57.26
X38.383 Y57.294
X38.236 Y57.467
X38.088 Y57.674
X37.969 Y57.883
X37.747 Y58.295
X37.648 Y58.503
X37.554 Y58.71
X37.467 Y58.917
X37.388 Y59.124
X37.244 Y59.538
X37.213 Y59.608
X37.173 Y59.673
G2 X37.079 Y60.103 I0.469 J0.328
G3 X37.104 Y60.367 I-1.557 J0.282
G1 X37.094 Y60.781
X37.146 Y61.195
X37.172 Y61.402
X37.297 Y62.024
X37.342 Y62.231
X37.394 Y62.538
X37.419 Y62.832
X37.421 Y63.145
X37.394 Y63.502
X37.33 Y63.911
X37.228 Y64.339
X37.073 Y64.813
X36.861 Y65.32
X36.601 Y65.824
X36.278 Y66.343
X35.904 Y66.848
X35.757 Y67.017
X35.525 Y67.232
X35.254 Y67.392
X34.954 Y67.491
X34.64 Y67.525
X30.722
G3 X30.184 Y67.189 Z-10.543 I0.022 J-0.635
X30.076 Y66.876 Z-10.477 I0.936 J-0.499
X30.937 Y65.645 I1.044 J-0.186
X33.93 Y66.905 I0.518 J2.955
X34.102 Y67.189 Z-10.543 I-2.475 J1.695
G2 X34.64 Y67.525 Z-10.677 I0.56 J-0.299
G1 X35.805 F900
X35.981 Y67.516
X36.144 Y67.495
X36.315 Y67.458
X36.508 Y67.4
X36.72 Y67.318
X36.94 Y67.211
X37.18 Y67.07
X37.421 Y66.9
X37.67 Y66.694
X37.923 Y66.447
X38.161 Y66.174
X38.248 Y66.056
X38.4 Y65.802
X38.497 Y65.523
X38.538 Y65.229
X38.519 Y64.934
X38.442 Y64.648
X38.309 Y64.383
X38.127 Y64.095
X38.003 Y63.888
X37.762 Y63.457
X37.662 Y63.267
X37.505 Y62.852
X37.433 Y62.645
X37.342 Y62.231
G2 X36.898 Y61.778 Z-10.543 I-0.615 J0.158 F1000
X36.569 Y61.747 Z-10.477 I-0.247 J0.881
X35.86 Y63.118 I0.083 J0.911
X37.406 Y64.105 I1.729 J-1.005
X37.738 Y64.108 Z-10.543 I0.184 J-1.992
G3 X38.309 Y64.383 Z-10.677 I0.047 J0.633
G1 X38.389 Y64.509
X38.538 Y64.717
X38.698 Y64.924
X38.846 Y65.087
X38.941 Y65.203
X39.015 Y65.333
X39.072 Y65.472
X39.112 Y65.616
X39.139 Y65.764
X39.153 Y65.925
X39.155 Y66.094
X39.152 Y66.147
X39.096 Y66.459
X38.975 Y66.752
X38.794 Y67.013
X38.562 Y67.229
X38.29 Y67.391
X37.989 Y67.491
X37.673 Y67.525
G3 X37.061 Y66.869 Z-10.477 I0.022 J-0.635
X37.13 Y66.601 I0.635 J0.022
G1 X37.826 Y65.241
X37.86 Y65.181
X37.901 Y65.126
X37.948 Y65.075
G3 X38.846 Y65.087 Z-10.677 I0.443 J0.455
G1 X39.004 Y65.259
X39.273 Y65.545
X39.418 Y65.685
X39.46 Y65.722
X39.567 Y65.827
X39.693 Y66.055
X39.76 Y66.307
X39.764 Y66.568
X39.705 Y66.822
X39.586 Y67.054
X39.415 Y67.251
X39.202 Y67.4
X38.958 Y67.493
X38.699 Y67.525
G3 X38.073 Y67.253 Z-10.536 I0.033 J-0.933
X37.895 Y67.016 Z-10.477 I0.73 J-0.733
X38.521 Y65.526 I0.908 J-0.495
X39.46 Y65.722 Z-10.677 I0.282 J0.995
G1 X39.494 Y65.752
X39.625 Y65.862
X39.832 Y66.012
X39.946 Y66.094
X40.063 Y66.187
X40.192 Y66.377
X40.262 Y66.597
X40.266 Y66.827
X40.205 Y67.048
X40.083 Y67.243
X39.91 Y67.395
X39.701 Y67.492
X39.474 Y67.525
G3 X39.062 Y67.386 I0.027 J-0.761
X39.946 Y66.094 I0.451 J-0.64
G1 X40.048 Y66.167
X40.246 Y66.305
X40.343 Y66.374
X40.405 Y66.429
X40.453 Y66.485
X40.487 Y66.533
X40.514 Y66.581
X40.538 Y66.633
X40.557 Y66.684
X40.58 Y66.788
X40.585 Y66.891
X40.574 Y66.995
X40.544 Y67.099
X40.522 Y67.15
X40.493 Y67.202
X40.453 Y67.262
X40.419 Y67.305
X40.378 Y67.348
X40.304 Y67.409
X40.246 Y67.445
X40.194 Y67.471
X40.143 Y67.491
X40.039 Y67.517
X39.832 Y67.525
X35.805
G3 X35.267 Y67.189 Z-10.543 I0.022 J-0.635
X35.116 Y66.893 Z-10.477 I8.503 J-4.533
X35.865 Y57.146 I8.655 J-4.237
X38.442 Y56.343 I1.806 J1.259
X38.744 Y56.482 Z-10.543 I-0.771 J2.062
G2 X39.378 Y56.473 Z-10.677 I0.309 J-0.555
G1 X39.625 Y56.318 F900
X39.832 Y56.188
X40.039 Y56.086
X40.193 Y56.017
X40.326 Y55.949
X40.446 Y55.859
X40.561 Y55.755
X40.676 Y55.632
X40.803 Y55.472
X40.94 Y55.268
X41.068 Y55.039
X41.2 Y54.752
X41.323 Y54.415
X41.43 Y54.028
X41.518 Y53.564
X41.574 Y53.051
X41.591 Y52.46
X41.556 Y51.791
X41.465 Y51.103
X41.303 Y50.351
X41.069 Y49.577
X40.823 Y48.948
X40.688 Y48.685
X40.505 Y48.454
X40.279 Y48.264
X40.02 Y48.123
X39.738 Y48.036
X39.625 Y48.013
X39.211 Y47.924
X39.004 Y47.872
X38.797 Y47.793
X38.59 Y47.702
X38.383 Y47.594
X37.916 Y47.317
X37.762 Y47.224
X37.555 Y47.097
X37.348 Y46.973
X37.141 Y46.855
X37.089 Y46.831
X37.037 Y46.812
X36.519 Y46.673
X36.312 Y46.613
X36.011 Y46.489
X35.784 Y46.392
X35.691 Y46.352
G2 X35.071 Y46.485 Z-10.543 I-0.195 J0.604 F1000
X34.85 Y46.733 Z-10.477 I1.025 J1.136
X35.332 Y48.947 I1.246 J0.888
X38.918 Y48.502 I1.499 J-2.599
X39.144 Y48.258 Z-10.543 I-2.088 J-2.154
G3 X39.738 Y48.036 Z-10.677 I0.49 J0.404
G1 X39.832 Y48.055
X40.301 Y48.146
X40.453 Y48.177
X40.764 Y48.25
X40.867 Y48.286
X40.929 Y48.316
X40.99 Y48.353
X41.074 Y48.421
X41.281 Y48.602
X41.488 Y48.78
X41.711 Y48.974
X41.909 Y49.182
X42.109 Y49.396
X42.265 Y49.596
X42.42 Y49.803
X42.681 Y50.189
X42.866 Y50.517
X43.037 Y50.886
X43.192 Y51.305
X43.317 Y51.751
X43.409 Y52.22
X43.464 Y52.708
X43.48 Y53.203
X43.456 Y53.693
X43.395 Y54.164
X43.33 Y54.472
X43.229 Y54.777
X43.065 Y55.054
X42.845 Y55.289
X42.579 Y55.471
X42.281 Y55.591
X41.963 Y55.644
G3 X41.315 Y55.023 Z-10.477 I-0.013 J-0.635
G1 Y55.012
X41.291 Y50.205
G3 X41.528 Y49.708 I0.635 J-0.003
X42.42 Y49.803 Z-10.677 I0.399 J0.494
G1 X42.576 Y50.01
X42.722 Y50.217
X43.118 Y50.839
X43.145 Y50.885
X43.437 Y51.46
X43.538 Y51.667
X43.628 Y51.874
X43.792 Y52.289
X43.861 Y52.496
X43.988 Y52.91
X44.049 Y53.117
X44.158 Y53.739
X44.18 Y53.869
X44.237 Y54.567
X44.224 Y54.858
X44.153 Y55.124
X44.011 Y55.36
X43.81 Y55.548
X43.566 Y55.674
X43.296 Y55.728
X43.021 Y55.706
G3 X42.478 Y55.383 Z-10.548 I0.285 J-1.099
X42.284 Y55.086 Z-10.477 I0.745 J-0.698
X43.693 Y53.779 I0.939 J-0.401
X44.237 Y54.567 Z-10.677 I-0.47 J0.906
G1 X44.238 Y54.774
X44.235 Y55.188
X44.226 Y55.292
X44.198 Y55.396
X44.18 Y55.442
X44.136 Y55.522
X44.076 Y55.603
X44.024 Y55.656
X43.973 Y55.701
X43.921 Y55.737
X43.869 Y55.766
X43.817 Y55.789
X43.757 Y55.81
X43.658 Y55.83
X43.559 Y55.834
X43.484 Y55.826
X43.409 Y55.81
X43.352 Y55.792
X43.145 Y55.734
X42.938 Y55.688
X42.524 Y55.643
X42.316 Y55.624
X41.902 Y55.647
X41.695 Y55.66
X41.281 Y55.717
X41.074 Y55.746
X40.453 Y55.901
X40.193 Y56.017
G3 X39.365 Y55.668 Z-10.477 I-0.239 J-0.588
X39.368 Y55.182 I0.588 J-0.24
X39.833 Y55.378 I0.232 J0.098
X39.618 Y55.531 I-0.232 J-0.098
X21.911 Y42.525 I-1.173 J-16.959
X21.802 Y42.039 Z-10.577 I16.534 J-3.954
G2 X21.528 Y41.638 Z-10.677 I-0.622 J0.13
G1 X21.331 Y41.518 F900
X21.061 Y41.311
X20.785 Y41.098
X20.577 Y40.918
X20.433 Y40.8
X20.26 Y40.681
X20.051 Y40.56
X19.815 Y40.448
X19.519 Y40.336
X19.187 Y40.239
X18.798 Y40.159
X18.346 Y40.104
X17.839 Y40.083
X17.263 Y40.105
X16.595 Y40.185
X15.894 Y40.326
X15.11 Y40.551
X14.264 Y40.87
X13.439 Y41.259
X12.645 Y41.707
X11.884 Y42.209
X11.16 Y42.763
X10.475 Y43.365
X9.831 Y44.01
X9.23 Y44.697
X8.98 Y45.024
X8.813 Y45.299
X8.71 Y45.604
X8.675 Y45.924
Y52.081
G2 X9.011 Y52.62 Z-10.543 I0.635 J-0.022 F1000
X9.324 Y52.729 Z-10.477 I0.509 J-0.955
X10.407 Y52.285 I0.196 J-1.065
X9.298 Y46.631 I-3.278 J-2.292
X9.011 Y46.463 Z-10.543 I-2.168 J3.361
G3 X8.675 Y45.924 Z-10.677 I0.299 J-0.56
G1 Y44.418
X8.692 Y44.069
X8.724 Y43.825
X8.787 Y43.534
X8.878 Y43.229
X9.013 Y42.882
X9.198 Y42.5
X9.439 Y42.092
X9.75 Y41.649
X10.146 Y41.171
X10.608 Y40.698
X11.179 Y40.2
X11.845 Y39.708
X12.565 Y39.259
X13.343 Y38.858
X14.156 Y38.518
X14.976 Y38.25
X15.766 Y38.061
X16.521 Y37.943
X16.912 Y37.914
X17.196 Y37.92
X17.474 Y37.98
X17.735 Y38.092
X17.97 Y38.252
X18.17 Y38.454
X18.642 Y39.032
X18.714 Y39.118
X18.921 Y39.355
X19.006 Y39.446
X19.335 Y39.784
X19.956 Y40.365
X20.37 Y40.731
X20.577 Y40.918
G3 X20.592 Y41.816 Z-10.477 I-0.442 J0.456
X19.773 Y41.932 I-0.484 J-0.469
X18.267 Y39.421 I1.493 J-2.602
X18.293 Y38.924 Z-10.577 I2.999 J-0.092
G2 X18.17 Y38.454 Z-10.677 I-0.629 J-0.086
G1 X18.134 Y38.411 F900
X18.093 Y38.355
X17.679 Y37.781
X17.608 Y37.671
X17.52 Y37.55
X17.418 Y37.44
X17.298 Y37.331
X17.162 Y37.227
X16.995 Y37.119
X16.783 Y37.005
X16.553 Y36.904
X16.277 Y36.809
X15.945 Y36.723
X15.596 Y36.662
X15.165 Y36.623
X14.719 Y36.618
X14.182 Y36.655
X13.638 Y36.737
X13.015 Y36.883
X12.35 Y37.096
X11.686 Y37.369
X11.001 Y37.718
X10.332 Y38.129
X9.696 Y38.594
X9.113 Y39.097
X9.102 Y39.109
X8.921 Y39.332
X8.786 Y39.587
X8.703 Y39.863
X8.675 Y40.149
Y44.418
G2 X9.011 Y44.956 Z-10.543 I0.635 J-0.022 F1000
X9.325 Y45.06 Z-10.477 I0.461 J-0.865
X10.382 Y44.457 I0.147 J-0.97
X9.295 Y40.86 I-2.782 J-1.123
X9.011 Y40.687 Z-10.543 I-1.695 J2.475
G3 X8.675 Y40.149 Z-10.677 I0.299 J-0.56
G1 Y38.918
X8.684 Y38.732
X8.707 Y38.558
X8.749 Y38.363
X8.818 Y38.132
X8.91 Y37.895
X9.038 Y37.633
X9.207 Y37.344
X9.411 Y37.055
X9.673 Y36.739
X9.976 Y36.429
X10.338 Y36.112
X10.766 Y35.796
X11.23 Y35.507
X11.736 Y35.246
X12.287 Y35.016
X12.857 Y34.829
X13.44 Y34.69
X14.017 Y34.6
X14.578 Y34.558
X14.979 Y34.56
X15.308 Y34.599
X15.621 Y34.711
X15.901 Y34.889
X16.135 Y35.125
X16.309 Y35.408
X16.456 Y35.718
X16.561 Y35.925
X16.668 Y36.132
X16.779 Y36.339
X16.851 Y36.462
X17.288 Y37.168
X17.472 Y37.46
X17.582 Y37.631
X17.608 Y37.671
G3 X17.62 Y38.306 Z-10.543 I-0.544 J0.328
X17.406 Y38.558 Z-10.477 I-0.731 J-0.403
X16.207 Y38.384 I-0.517 J-0.655
X16.061 Y36.32 I1.634 J-1.153
X16.236 Y36.038 Z-10.543 I1.781 J0.911
G2 X16.309 Y35.408 Z-10.677 I-0.51 J-0.379
G1 X16.162 Y35.097 F900
X15.899 Y34.475
X15.838 Y34.338
X15.757 Y34.212
X15.662 Y34.096
X15.548 Y33.978
X15.419 Y33.865
X15.254 Y33.742
X15.067 Y33.624
X14.845 Y33.509
X14.589 Y33.401
X14.303 Y33.307
X13.975 Y33.227
X13.614 Y33.17
X13.221 Y33.139
X12.781 Y33.14
X12.329 Y33.178
X11.849 Y33.257
X11.342 Y33.383
X10.827 Y33.556
X10.32 Y33.773
X9.829 Y34.032
X9.363 Y34.328
X9.265 Y34.401
X9.063 Y34.586
X8.898 Y34.804
X8.775 Y35.049
X8.7 Y35.312
X8.675 Y35.585
Y38.918
G2 X9.331 Y39.531 Z-10.477 I0.635 J-0.022 F1000
X9.774 Y39.329 I-0.022 J-0.635
X10.09 Y38.269 I-0.909 J-0.848
X9.219 Y36.389 I-3.941 J0.684
X8.877 Y36.027 Z-10.577 I-3.07 J2.564
G3 X8.675 Y35.585 Z-10.677 I0.433 J-0.464
G1 Y34.475
X8.682 Y34.325
X8.703 Y34.177
X8.738 Y34.019
X8.79 Y33.853
X8.868 Y33.659
X8.964 Y33.466
X9.096 Y33.248
X9.25 Y33.034
X9.448 Y32.801
X9.671 Y32.578
X9.939 Y32.349
X10.244 Y32.129
X10.576 Y31.927
X10.949 Y31.74
X11.355 Y31.576
X11.784 Y31.441
X12.227 Y31.34
X12.679 Y31.274
X13.132 Y31.246
X13.578 Y31.253
X14.01 Y31.295
X14.047 Y31.302
X14.319 Y31.379
X14.571 Y31.506
X14.793 Y31.679
X14.978 Y31.892
X15.119 Y32.137
X15.21 Y32.404
X15.268 Y32.611
X15.402 Y33.078
X15.609 Y33.696
X15.665 Y33.854
X15.819 Y34.268
X15.899 Y34.475
G3 X15.779 Y35.098 Z-10.543 I-0.6 J0.207
X15.515 Y35.296 Z-10.477 I-0.586 J-0.507
X14.423 Y34.674 I-0.322 J-0.705
X14.811 Y33.261 I1.988 J-0.215
X15.031 Y33.013 Z-10.543 I1.601 J1.199
G2 X15.21 Y32.404 Z-10.677 I-0.438 J-0.459
G1 X15.063 Y31.782 F900
X15.008 Y31.461
X14.975 Y31.315
X14.926 Y31.173
X14.858 Y31.04
X14.777 Y30.914
X14.678 Y30.788
X14.566 Y30.667
X14.421 Y30.533
X14.261 Y30.408
X14.063 Y30.277
X13.848 Y30.158
X13.592 Y30.043
X13.317 Y29.945
X13.009 Y29.862
X12.665 Y29.798
X12.309 Y29.762
X11.925 Y29.753
X11.52 Y29.777
X11.102 Y29.836
X10.681 Y29.929
X10.263 Y30.059
X9.852 Y30.223
X9.456 Y30.419
X9.394 Y30.456
X9.15 Y30.639
X8.949 Y30.868
X8.799 Y31.133
X8.706 Y31.423
X8.675 Y31.727
Y34.475
G2 X9.011 Y35.013 Z-10.543 I0.635 J-0.022 F1000
X9.33 Y35.094 Z-10.477 I0.321 J-0.602
X9.984 Y34.609 I0.001 J-0.682
X9.29 Y32.445 I-1.914 J-0.58
X9.011 Y32.265 Z-10.543 I-1.22 J1.585
G3 X8.675 Y31.727 Z-10.677 I0.299 J-0.56
G1 Y30.633
X8.682 Y30.483
X8.708 Y30.335
X8.749 Y30.191
X8.803 Y30.046
X8.88 Y29.88
X8.974 Y29.714
X9.099 Y29.53
X9.243 Y29.352
X9.422 Y29.162
X9.626 Y28.979
X9.86 Y28.8
X10.13 Y28.626
X10.423 Y28.469
X10.74 Y28.331
X11.086 Y28.212
X11.454 Y28.118
X11.836 Y28.052
X12.227 Y28.017
X12.621 Y28.013
X13.012 Y28.04
X13.394 Y28.099
X13.624 Y28.153
X13.925 Y28.259
X14.197 Y28.428
X14.426 Y28.651
X14.602 Y28.918
X14.717 Y29.217
X14.764 Y29.533
X14.772 Y29.711
X14.78 Y29.84
X14.833 Y30.333
X14.86 Y30.54
X14.923 Y30.954
X14.956 Y31.161
X15.008 Y31.461
G3 X14.768 Y32.049 Z-10.543 I-0.629 J0.086
X14.47 Y32.191 Z-10.477 I-0.474 J-0.61
X13.558 Y31.206 I-0.176 J-0.752
X14.18 Y30.276 I1.907 J0.603
X14.451 Y30.085 Z-10.543 I1.285 J1.533
G2 X14.764 Y29.533 Z-10.677 I-0.322 J-0.547
G1 X14.754 Y29.297 F900
X14.748 Y29.09
X14.753 Y28.51
X14.747 Y28.36
X14.717 Y28.213
X14.67 Y28.071
X14.608 Y27.934
X14.533 Y27.803
X14.442 Y27.671
X14.325 Y27.527
X14.191 Y27.386
X14.027 Y27.24
X13.839 Y27.097
X13.627 Y26.962
X13.38 Y26.831
X13.116 Y26.717
X12.82 Y26.617
X12.495 Y26.535
X12.154 Y26.478
X11.798 Y26.447
X11.424 Y26.445
X11.037 Y26.474
X10.647 Y26.535
X10.259 Y26.629
X9.879 Y26.753
X9.513 Y26.906
X9.477 Y26.925
X9.207 Y27.104
X8.983 Y27.337
X8.815 Y27.613
X8.71 Y27.919
X8.675 Y28.241
Y30.633
G2 X9.011 Y31.171 Z-10.543 I0.635 J-0.022 F1000
X9.33 Y31.255 Z-10.477 I0.339 J-0.636
X10.07 Y30.53 I0.02 J-0.72
X9.29 Y28.959 I-2 J0.014
X9.011 Y28.779 Z-10.543 I-1.22 J1.585
G3 X8.675 Y28.241 Z-10.677 I0.299 J-0.56
G1 Y27.163
X8.682 Y27.013
X8.71 Y26.865
X8.752 Y26.722
X8.808 Y26.582
X8.884 Y26.43
X8.976 Y26.277
X9.097 Y26.109
X9.235 Y25.946
X9.407 Y25.774
X9.599 Y25.61
X9.821 Y25.449
X10.075 Y25.295
X10.349 Y25.157
X10.649 Y25.035
X10.978 Y24.932
X11.326 Y24.852
X11.687 Y24.8
X12.058 Y24.776
X12.435 Y24.782
X12.813 Y24.819
X13.186 Y24.886
X13.549 Y24.981
X13.897 Y25.103
X14.014 Y25.156
X14.289 Y25.315
X14.523 Y25.528
X14.706 Y25.787
X14.83 Y26.079
X14.89 Y26.39
X14.881 Y26.707
X14.839 Y27.018
X14.814 Y27.226
X14.775 Y27.64
X14.759 Y27.847
X14.753 Y28.51
G3 X14.413 Y29.046 Z-10.543 I-0.634 J-0.027
X14.093 Y29.127 Z-10.477 I-0.334 J-0.638
X13.359 Y28.408 I-0.014 J-0.72
G1 Y28.407
G3 X13.463 Y28.034 I0.72 J0
X14.176 Y27.337 I1.711 J1.036
X14.477 Y27.196 Z-10.543 I0.998 J1.733
G2 X14.881 Y26.707 Z-10.677 I-0.221 J-0.595
G1 X14.895 Y26.604 F900
X14.925 Y26.397
X14.993 Y25.983
X15.032 Y25.776
X15.041 Y25.741
X15.072 Y25.594
X15.074 Y25.444
X15.058 Y25.295
X15.024 Y25.149
X14.977 Y25.007
X14.914 Y24.862
X14.833 Y24.711
X14.729 Y24.549
X14.605 Y24.386
X14.451 Y24.215
X14.278 Y24.051
X14.072 Y23.884
X13.839 Y23.726
X13.583 Y23.58
X13.293 Y23.444
X12.976 Y23.326
X12.642 Y23.231
X12.286 Y23.16
X11.91 Y23.116
X11.522 Y23.102
X11.125 Y23.12
X10.728 Y23.17
X10.336 Y23.251
X9.953 Y23.364
X9.586 Y23.504
X9.517 Y23.537
