(1001)
(T1 D=3.175 CR=1.587 - ZMIN=-17.6 - ball end mill)
G90 G94
G17
G21
G28 G91 Z0
G90

(Parallel1)
T1
S5000 M3
G17 G90 G94
G54
M8
G0 X87.3 Y-0.009
Z5
G0 Z1.987
G1 Z0.317 F333.3
G18 G3 X86.982 Z0 I-0.317 K0 F1000
G1 X0.018
X-0.018 Z0.004
X-0.052 Z0.016
X-0.086 Z0.028
X-0.122 Z0.032
X-0.149
G17 G2 X-0.149 Y0.243 I0 J0.126
G1 X-0.113 Z0.028
X-0.079 Z0.016
X-0.045 Z0.004
X-0.009 Z0
X87.01
X87.046 Z0.004
X87.08 Z0.016
X87.114 Z0.028
X87.15 Z0.032
G3 X87.15 Y0.495 I0 J0.126
G1 X87.114 Z0.028
X87.08 Z0.016
X87.046 Z0.004
X87.01 Z0
X-0.009
X-0.045 Z0.004
X-0.079 Z0.016
X-0.113 Z0.028
X-0.149 Z0.032
G2 X-0.149 Y0.747 I0 J0.126
G1 X-0.113 Z0.028
X-0.079 Z0.016
X-0.045 Z0.004
X-0.009 Z0
X87.01
X87.046 Z0.004
X87.08 Z0.016
X87.114 Z0.028
X87.15 Z0.032
G3 X87.15 Y0.999 I0 J0.126
G1 X87.114 Z0.028
X87.08 Z0.016
X87.046 Z0.004
X87.01 Z0
X-0.01
X-0.046 Z0.004
X-0.08 Z0.016
X-0.114 Z0.028
X-0.149 Z0.032
X-0.15
G2 X-0.15 Y1.251 I0 J0.126
G1 X-0.114 Z0.028
X-0.08 Z0.016
X-0.046 Z0.004
X-0.01 Z0
X87.01
X87.046 Z0.004
X87.08 Z0.016
X87.114 Z0.028
X87.15 Z0.032
G3 X87.15 Y1.503 I0 J0.126
G1 X87.114 Z0.028
X87.08 Z0.016
X87.046 Z0.004
X87.01 Z0
X-0.01
X-0.046 Z0.004
X-0.08 Z0.016
X-0.114 Z0.028
X-0.15 Z0.032
G2 X-0.15 Y1.755 I0 J0.126
G1 X-0.114 Z0.028
X-0.08 Z0.016
X-0.046 Z0.004
X-0.01 Z0
X87.01
X87.046 Z0.004
X87.08 Z0.016
X87.114 Z0.028
X87.15 Z0.032
G3 X87.15 Y2.007 I0 J0.126
G1 X87.114 Z0.028
X87.08 Z0.016
X87.046 Z0.004
X87.01 Z0
X-0.01
X-0.046 Z0.004
X-0.08 Z0.016
X-0.114 Z0.028
X-0.15 Z0.032
G2 X-0.15 Y2.259 I0 J0.126
G1 X-0.114 Z0.028
X-0.08 Z0.016
X-0.046 Z0.004
X-0.01 Z0
X87.01
X87.046 Z0.004
X87.08 Z0.016
X87.114 Z0.028
X87.15 Z0.032
G3 X87.15 Y2.511 I0 J0.126
G1 X87.114 Z0.028
X87.08 Z0.016
X87.046 Z0.004
X87.01 Z0
X-0.01
X-0.046 Z0.004
X-0.08 Z0.016
X-0.114 Z0.028
X-0.15 Z0.032
G2 X-0.15 Y2.763 I0 J0.126
G1 X-0.114 Z0.028
X-0.08 Z0.016
X-0.046 Z0.004
X-0.01 Z0
X87.01
X87.046 Z0.004
X87.08 Z0.016
X87.114 Z0.028
X87.15 Z0.032
G3 X87.15 Y3.015 I0 J0.126
G1 X87.114 Z0.028
X87.08 Z0.016
X87.046 Z0.004
X87.01 Z0
X-0.01
X-0.046 Z0.004
X-0.08 Z0.016
X-0.114 Z0.028
X-0.15 Z0.032
G2 X-0.15 Y3.267 I0 J0.126
G1 X-0.114 Z0.028
X-0.08 Z0.016
X-0.046 Z0.004
X-0.01 Z0
X87.01
X87.046 Z0.004
X87.08 Z0.016
X87.114 Z0.028
X87.15 Z0.032
G3 X87.15 Y3.519 I0 J0.126
G1 X87.114 Z0.028
X87.08 Z0.016
X87.046 Z0.004
X87.01 Z0
X-0.01
X-0.046 Z0.004
X-0.08 Z0.016
X-0.114 Z0.028
X-0.15 Z0.032
G2 X-0.15 Y3.771 I0 J0.126
G1 X-0.114 Z0.028
X-0.08 Z0.016
X-0.046 Z0.004
X-0.01 Z0
X87.01
X87.046 Z0.004
X87.08 Z0.016
X87.114 Z0.028
X87.15 Z0.032
G3 X87.15 Y4.023 I0 J0.126
G1 X87.114 Z0.028
X87.08 Z0.016
X87.046 Z0.004
X87.01 Z0
X-0.01
X-0.046 Z0.004
X-0.08 Z0.016
X-0.114 Z0.028
X-0.15 Z0.032
G2 X-0.15 Y4.275 I0 J0.126
G1 X-0.114 Z0.028
X-0.08 Z0.016
X-0.046 Z0.004
X-0.01 Z0
X87.01
X87.046 Z0.004
X87.08 Z0.016
X87.114 Z0.028
X87.15 Z0.032
G3 X87.15 Y4.527 I0 J0.126
G1 X87.114 Z0.028
X87.08 Z0.016
X87.046 Z0.004
X87.01 Z0
X-0.01
X-0.046 Z0.004
X-0.08 Z0.016
X-0.114 Z0.028
X-0.15 Z0.032
G2 X-0.15 Y4.779 I0 J0.126
G1 X-0.114 Z0.028
X-0.08 Z0.016
X-0.046 Z0.004
X-0.01 Z0
X87.01
X87.046 Z0.004
X87.08 Z0.016
X87.114 Z0.028
X87.15 Z0.032
G3 X87.15 Y5.031 I0 J0.126
G1 X87.114 Z0.028
X87.08 Z0.016
X87.046 Z0.004
X87.01 Z0
X-0.01
X-0.046 Z0.004
X-0.08 Z0.016
X-0.114 Z0.028
X-0.15 Z0.032
G2 X-0.15 Y5.283 I0 J0.126
G1 X-0.114 Z0.028
X-0.08 Z0.016
X-0.046 Z0.004
X-0.01 Z0
X5.086 Z-0.002
X5.274 Z-0.024
X81.697 Z-0.025
X81.927 Z-0.002
X87.01 Z0
X87.046 Z0.004
X87.08 Z0.016
X87.114 Z0.028
X87.15 Z0.032
G3 X87.15 Y5.535 I0 J0.126
G1 X87.114 Z0.028
X87.08 Z0.016
X87.046 Z0.004
X87.01 Z0
X81.927 Z-0.002
X81.72 Z-0.025
X81.551 Z-0.065
X81.465 Z-0.093
X5.534
X5.376 Z-0.045
X5.197 Z-0.012
X4.956 Z0
X-0.01
X-0.046 Z0.004
X-0.08 Z0.016
X-0.114 Z0.028
X-0.15 Z0.032
G2 X-0.15 Y5.787 I0 J0.126
G1 X-0.114 Z0.028
X-0.08 Z0.016
X-0.046 Z0.004
X-0.01 Z0
X5.068 Z-0.001
X5.257 Z-0.021
X5.44 Z-0.062
X5.616 Z-0.125
X5.783 Z-0.206
X81.205 Z-0.209
X81.387 Z-0.123
X81.551 Z-0.065
X81.72 Z-0.025
X81.927 Z-0.002
X87.01 Z0
X87.046 Z0.004
X87.08 Z0.016
X87.114 Z0.028
X87.15 Z0.032
G3 X87.15 Y6.039 I0 J0.126
G1 X87.114 Z0.028
X87.08 Z0.016
X87.046 Z0.004
X87.01 Z0
X81.927 Z-0.002
X81.72 Z-0.025
X81.551 Z-0.065
X81.387 Z-0.123
X81.229 Z-0.2
X81.079 Z-0.295
X80.959 Z-0.387
X6.038 Z-0.386
X5.943 Z-0.311
X5.79 Z-0.21
X5.624 Z-0.128
X5.448 Z-0.065
X5.264 Z-0.022
X5.076 Z-0.002
X-0.01 Z0
X-0.046 Z0.004
X-0.08 Z0.016
X-0.114 Z0.028
X-0.15 Z0.032
G2 X-0.15 Y6.291 I0 J0.126
G1 X-0.114 Z0.028
X-0.08 Z0.016
X-0.046 Z0.004
X-0.01 Z0
X4.805
X5.134 Z-0.006
X5.227 Z-0.016
X5.412 Z-0.054
X5.589 Z-0.113
X5.757 Z-0.192
X5.913 Z-0.289
X6.055 Z-0.401
X6.179 Z-0.524
X6.289 Z-0.661
X80.707 Z-0.664
X80.812 Z-0.535
X80.939 Z-0.406
X81.079 Z-0.295
X81.229 Z-0.2
X81.387 Z-0.123
X81.551 Z-0.065
X81.72 Z-0.025
X81.927 Z-0.002
X87.01 Z0
X87.046 Z0.004
X87.08 Z0.016
X87.114 Z0.028
X87.15 Z0.032
G3 X87.15 Y6.543 I0 J0.126
G1 X87.114 Z0.028
X87.08 Z0.016
X87.046 Z0.004
X87.01 Z0
X81.927 Z-0.002
X81.72 Z-0.025
X81.551 Z-0.065
X81.387 Z-0.123
X81.229 Z-0.2
X81.079 Z-0.295
X80.939 Z-0.406
X80.812 Z-0.535
X80.698 Z-0.679
X80.601 Z-0.838
X80.52 Z-1.013
X80.456 Z-1.214
X6.543 Z-1.212
X6.486 Z-1.029
X6.419 Z-0.875
X6.333 Z-0.726
X6.229 Z-0.583
X6.108 Z-0.451
X5.971 Z-0.332
X5.82 Z-0.228
X5.656 Z-0.142
X5.482 Z-0.075
X5.3 Z-0.029
X5.113 Z-0.004
X-0.01 Z0
X-0.046 Z0.004
X-0.08 Z0.016
X-0.114 Z0.028
X-0.15 Z0.032
G2 X-0.15 Y6.795 I0 J0.126
G1 X-0.114 Z0.028
X-0.08 Z0.016
X-0.046 Z0.004
X-0.01 Z0
X5.049 Z-0.001
X5.238 Z-0.018
X5.423 Z-0.057
X5.6 Z-0.118
X5.767 Z-0.198
X5.923 Z-0.296
X6.065 Z-0.41
X6.191 Z-0.538
X6.301 Z-0.677
X6.392 Z-0.825
X6.468 Z-0.983
X6.541 Z-1.206
X6.576 Z-1.4
X6.587 Z-1.573
X6.588 Z-17.6
X80.412
Z-1.588
X80.423 Z-1.405
X80.459 Z-1.206
X80.52 Z-1.013
X80.601 Z-0.838
X80.698 Z-0.679
X80.812 Z-0.535
X80.939 Z-0.406
X81.079 Z-0.295
X81.229 Z-0.2
X81.387 Z-0.123
X81.551 Z-0.065
X81.72 Z-0.025
X81.927 Z-0.002
X87.01 Z0
X87.046 Z0.004
X87.08 Z0.016
X87.114 Z0.028
X87.15 Z0.032
G3 X87.15 Y7.047 I0 J0.126
G1 X87.114 Z0.028
X87.08 Z0.016
X87.046 Z0.004
X87.01 Z0
X81.927 Z-0.002
X81.72 Z-0.025
X81.551 Z-0.065
X81.387 Z-0.123
X81.229 Z-0.2
X81.079 Z-0.295
X80.939 Z-0.406
X80.812 Z-0.535
X80.698 Z-0.679
X80.601 Z-0.838
X80.52 Z-1.013
X80.459 Z-1.206
X80.423 Z-1.405
X80.412 Z-1.588
Z-17.6
X6.588
X6.587 Z-1.573
X6.576 Z-1.4
X6.541 Z-1.206
X6.468 Z-0.983
X6.392 Z-0.825
X6.301 Z-0.677
X6.191 Z-0.538
X6.065 Z-0.41
X5.923 Z-0.296
X5.767 Z-0.198
X5.6 Z-0.118
X5.423 Z-0.057
X5.238 Z-0.018
X5.049 Z-0.001
X-0.01 Z0
X-0.046 Z0.004
X-0.08 Z0.016
X-0.114 Z0.028
X-0.15 Z0.032
G2 X-0.15 Y7.299 I0 J0.126
G1 X-0.114 Z0.028
X-0.08 Z0.016
X-0.046 Z0.004
X-0.01 Z0
X5.049 Z-0.001
X5.238 Z-0.018
X5.423 Z-0.057
X5.6 Z-0.118
X5.767 Z-0.198
X5.923 Z-0.296
X6.065 Z-0.41
X6.191 Z-0.538
X6.301 Z-0.677
X6.392 Z-0.825
X6.468 Z-0.983
X6.541 Z-1.206
X6.576 Z-1.4
X6.587 Z-1.573
X6.588 Z-17.6
X80.412
Z-1.588
X80.423 Z-1.405
X80.459 Z-1.206
X80.52 Z-1.013
X80.601 Z-0.838
X80.698 Z-0.679
X80.812 Z-0.535
X80.939 Z-0.406
X81.079 Z-0.295
X81.229 Z-0.2
X81.387 Z-0.123
X81.551 Z-0.065
X81.72 Z-0.025
X81.927 Z-0.002
X87.01 Z0
X87.046 Z0.004
X87.08 Z0.016
X87.114 Z0.028
X87.15 Z0.032
G3 X87.15 Y7.551 I0 J0.126
G1 X87.114 Z0.028
X87.08 Z0.016
X87.046 Z0.004
X87.01 Z0
X81.927 Z-0.002
X81.72 Z-0.025
X81.551 Z-0.065
X81.387 Z-0.123
X81.229 Z-0.2
X81.079 Z-0.295
X80.939 Z-0.406
X80.812 Z-0.535
X80.698 Z-0.679
X80.601 Z-0.838
X80.52 Z-1.013
X80.459 Z-1.206
X80.423 Z-1.405
X80.412 Z-1.588
Z-17.6
X6.588
X6.587 Z-1.573
X6.576 Z-1.4
X6.541 Z-1.206
X6.468 Z-0.983
X6.392 Z-0.825
X6.301 Z-0.677
X6.191 Z-0.538
X6.065 Z-0.41
X5.923 Z-0.296
X5.767 Z-0.198
X5.6 Z-0.118
X5.423 Z-0.057
X5.238 Z-0.018
X5.049 Z-0.001
X-0.01 Z0
X-0.046 Z0.004
X-0.08 Z0.016
X-0.114 Z0.028
X-0.15 Z0.032
G2 X-0.15 Y7.803 I0 J0.126
G1 X-0.114 Z0.028
X-0.08 Z0.016
X-0.046 Z0.004
X-0.01 Z0
X5.049 Z-0.001
X5.238 Z-0.018
X5.423 Z-0.057
X5.6 Z-0.118
X5.767 Z-0.198
X5.923 Z-0.296
X6.065 Z-0.41
X6.191 Z-0.538
X6.301 Z-0.677
X6.392 Z-0.825
X6.468 Z-0.983
X6.541 Z-1.206
X6.576 Z-1.4
X6.587 Z-1.573
X6.588 Z-17.6
X80.412
Z-1.588
X80.423 Z-1.405
X80.459 Z-1.206
X80.52 Z-1.013
X80.601 Z-0.838
X80.698 Z-0.679
X80.812 Z-0.535
X80.939 Z-0.406
X81.079 Z-0.295
X81.229 Z-0.2
X81.387 Z-0.123
X81.551 Z-0.065
X81.72 Z-0.025
X81.927 Z-0.002
X87.01 Z0
X87.046 Z0.004
X87.08 Z0.016
X87.114 Z0.028
X87.15 Z0.032
G3 X87.15 Y8.055 I0 J0.126
G1 X87.114 Z0.028
X87.08 Z0.016
X87.046 Z0.004
X87.01 Z0
X81.927 Z-0.002
X81.72 Z-0.025
X81.551 Z-0.065
X81.387 Z-0.123
X81.229 Z-0.2
X81.079 Z-0.295
X80.939 Z-0.406
X80.812 Z-0.535
X80.698 Z-0.679
X80.601 Z-0.838
X80.52 Z-1.013
X80.459 Z-1.206
X80.423 Z-1.405
X80.412 Z-1.588
Z-17.6
X6.588
X6.587 Z-1.573
X6.576 Z-1.4
X6.541 Z-1.206
X6.468 Z-0.983
X6.392 Z-0.825
X6.301 Z-0.677
X6.191 Z-0.538
X6.065 Z-0.41
X5.923 Z-0.296
X5.767 Z-0.198
X5.6 Z-0.118
X5.423 Z-0.057
X5.238 Z-0.018
X5.049 Z-0.001
X-0.01 Z0
X-0.046 Z0.004
X-0.08 Z0.016
X-0.114 Z0.028
X-0.15 Z0.032
G2 X-0.15 Y8.307 I0 J0.126
G1 X-0.114 Z0.028
X-0.08 Z0.016
X-0.046 Z0.004
X-0.01 Z0
X5.049 Z-0.001
X5.238 Z-0.018
X5.423 Z-0.057
X5.6 Z-0.118
X5.767 Z-0.198
X5.923 Z-0.296
X6.065 Z-0.41
X6.191 Z-0.538
X6.301 Z-0.677
X6.392 Z-0.825
X6.468 Z-0.983
X6.541 Z-1.206
X6.576 Z-1.4
X6.587 Z-1.573
X6.588 Z-17.6
X80.412
Z-1.588
X80.423 Z-1.405
X80.459 Z-1.206
X80.52 Z-1.013
X80.601 Z-0.838
X80.698 Z-0.679
X80.812 Z-0.535
X80.939 Z-0.406
X81.079 Z-0.295
X81.229 Z-0.2
X81.387 Z-0.123
X81.551 Z-0.065
X81.72 Z-0.025
X81.927 Z-0.002
X87.01 Z0
X87.046 Z0.004
X87.08 Z0.016
X87.114 Z0.028
X87.15 Z0.032
G3 X87.15 Y8.559 I0 J0.126
G1 X87.114 Z0.028
X87.08 Z0.016
X87.046 Z0.004
X87.01 Z0
X81.927 Z-0.002
X81.72 Z-0.025
X81.551 Z-0.065
X81.387 Z-0.123
X81.229 Z-0.2
X81.079 Z-0.295
X80.939 Z-0.406
X80.812 Z-0.535
X80.698 Z-0.679
X80.601 Z-0.838
X80.52 Z-1.013
X80.459 Z-1.206
X80.423 Z-1.405
X80.412 Z-1.588
Z-17.6
X6.588
X6.587 Z-1.573
X6.576 Z-1.4
X6.541 Z-1.206
X6.468 Z-0.983
X6.392 Z-0.825
X6.301 Z-0.677
X6.191 Z-0.538
X6.065 Z-0.41
X5.923 Z-0.296
X5.767 Z-0.198
X5.6 Z-0.118
X5.423 Z-0.057
X5.238 Z-0.018
X5.049 Z-0.001
X-0.01 Z0
X-0.046 Z0.004
X-0.08 Z0.016
X-0.114 Z0.028
X-0.15 Z0.032
G2 X-0.15 Y8.811 I0 J0.126
G1 X-0.114 Z0.028
X-0.08 Z0.016
X-0.046 Z0.004
X-0.01 Z0
X5.049 Z-0.001
X5.238 Z-0.018
X5.423 Z-0.057
X5.6 Z-0.118
X5.767 Z-0.198
X5.923 Z-0.296
X6.065 Z-0.41
X6.191 Z-0.538
X6.301 Z-0.677
X6.392 Z-0.825
X6.468 Z-0.983
X6.541 Z-1.206
X6.576 Z-1.4
X6.587 Z-1.573
X6.588 Z-17.6
X80.412
Z-1.588
X80.423 Z-1.405
X80.459 Z-1.206
X80.52 Z-1.013
X80.601 Z-0.838
X80.698 Z-0.679
X80.812 Z-0.535
X80.939 Z-0.406
X81.079 Z-0.295
X81.229 Z-0.2
X81.387 Z-0.123
X81.551 Z-0.065
X81.72 Z-0.025
X81.927 Z-0.002
X87.01 Z0
X87.046 Z0.004
X87.08 Z0.016
X87.114 Z0.028
X87.15 Z0.032
G3 X87.15 Y9.063 I0 J0.126
G1 X87.114 Z0.028
X87.08 Z0.016
X87.046 Z0.004
X87.01 Z0
X81.927 Z-0.002
X81.72 Z-0.025
X81.551 Z-0.065
X81.387 Z-0.123
X81.229 Z-0.2
X81.079 Z-0.295
X80.939 Z-0.406
X80.812 Z-0.535
X80.698 Z-0.679
X80.601 Z-0.838
X80.52 Z-1.013
X80.459 Z-1.206
X80.423 Z-1.405
X80.412 Z-1.588
Z-17.6
X6.588
X6.587 Z-1.573
X6.576 Z-1.4
X6.541 Z-1.206
X6.468 Z-0.983
X6.392 Z-0.825
X6.301 Z-0.677
X6.191 Z-0.538
X6.065 Z-0.41
X5.923 Z-0.296
X5.767 Z-0.198
X5.6 Z-0.118
X5.423 Z-0.057
X5.238 Z-0.018
X5.049 Z-0.001
X-0.01 Z0
X-0.046 Z0.004
X-0.08 Z0.016
X-0.114 Z0.028
X-0.15 Z0.032
G2 X-0.15 Y9.315 I0 J0.126
G1 X-0.114 Z0.028
X-0.08 Z0.016
X-0.046 Z0.004
X-0.01 Z0
X5.049 Z-0.001
X5.238 Z-0.018
X5.423 Z-0.057
X5.6 Z-0.118
X5.767 Z-0.198
X5.923 Z-0.296
X6.065 Z-0.41
X6.191 Z-0.538
X6.301 Z-0.677
X6.392 Z-0.825
X6.468 Z-0.983
X6.541 Z-1.206
X6.576 Z-1.4
X6.587 Z-1.573
X6.588 Z-17.6
X80.412
Z-1.588
X80.423 Z-1.405
X80.459 Z-1.206
X80.52 Z-1.013
X80.601 Z-0.838
X80.698 Z-0.679
X80.812 Z-0.535
X80.939 Z-0.406
X81.079 Z-0.295
X81.229 Z-0.2
X81.387 Z-0.123
X81.551 Z-0.065
X81.72 Z-0.025
X81.927 Z-0.002
X87.01 Z0
X87.046 Z0.004
X87.08 Z0.016
X87.114 Z0.028
X87.15 Z0.032
G3 X87.15 Y9.567 I0 J0.126
G1 X87.114 Z0.028
X87.08 Z0.016
X87.046 Z0.004
X87.01 Z0
X81.927 Z-0.002
X81.72 Z-0.025
X81.551 Z-0.065
X81.387 Z-0.123
X81.229 Z-0.2
X81.079 Z-0.295
X80.939 Z-0.406
X80.812 Z-0.535
X80.698 Z-0.679
X80.601 Z-0.838
X80.52 Z-1.013
X80.459 Z-1.206
X80.423 Z-1.405
X80.412 Z-1.588
Z-17.6
X6.588
X6.587 Z-1.573
X6.576 Z-1.4
X6.541 Z-1.206
X6.468 Z-0.983
X6.392 Z-0.825
X6.301 Z-0.677
X6.191 Z-0.538
X6.065 Z-0.41
X5.923 Z-0.296
X5.767 Z-0.198
X5.6 Z-0.118
X5.423 Z-0.057
X5.238 Z-0.018
X5.049 Z-0.001
X-0.01 Z0
X-0.046 Z0.004
X-0.08 Z0.016
X-0.114 Z0.028
X-0.15 Z0.032
G2 X-0.15 Y9.819 I0 J0.126
G1 X-0.114 Z0.028
X-0.08 Z0.016
X-0.046 Z0.004
X-0.01 Z0
X5.049 Z-0.001
X5.238 Z-0.018
X5.423 Z-0.057
X5.6 Z-0.118
X5.767 Z-0.198
X5.923 Z-0.296
X6.065 Z-0.41
X6.191 Z-0.538
X6.301 Z-0.677
X6.392 Z-0.825
X6.468 Z-0.983
X6.541 Z-1.206
X6.576 Z-1.4
X6.587 Z-1.573
X6.588 Z-17.6
X80.412
Z-1.588
X80.423 Z-1.405
X80.459 Z-1.206
X80.52 Z-1.013
X80.601 Z-0.838
X80.698 Z-0.679
X80.812 Z-0.535
X80.939 Z-0.406
X81.079 Z-0.295
X81.229 Z-0.2
X81.387 Z-0.123
X81.551 Z-0.065
X81.72 Z-0.025
X81.927 Z-0.002
X87.01 Z0
X87.046 Z0.004
X87.08 Z0.016
X87.114 Z0.028
X87.15 Z0.032
G3 X87.15 Y10.071 I0 J0.126
G1 X87.114 Z0.028
X87.08 Z0.016
X87.046 Z0.004
X87.01 Z0
X81.927 Z-0.002
X81.72 Z-0.025
X81.551 Z-0.065
X81.387 Z-0.123
X81.229 Z-0.2
X81.079 Z-0.295
X80.939 Z-0.406
X80.812 Z-0.535
X80.698 Z-0.679
X80.601 Z-0.838
X80.52 Z-1.013
X80.459 Z-1.206
X80.423 Z-1.405
X80.412 Z-1.588
Z-17.6
X54.947
X54.944 Z-16.865
X54.926 Z-16.826
X54.901 Z-16.799
X54.853 Z-16.764
X54.752 Z-16.721
X54.571 Z-16.677
X54.287 Z-16.642
X53.806 Z-16.622
X53.127 Z-16.633
X53.032 Z-16.637
X52.888 Z-16.666
X51.612 Z-17.1
X50.893 Z-17.364
X50.737 Z-17.462
X50.555 Z-17.6
X6.588
X6.587 Z-1.572
X6.574 Z-1.382
X6.537 Z-1.188
X6.463 Z-0.972
X6.392 Z-0.825
X6.301 Z-0.677
X6.191 Z-0.538
X6.065 Z-0.41
X5.923 Z-0.296
X5.767 Z-0.198
X5.6 Z-0.118
X5.423 Z-0.057
X5.238 Z-0.018
X5.049 Z-0.001
X-0.01 Z0
X-0.046 Z0.004
X-0.08 Z0.016
X-0.114 Z0.028
X-0.15 Z0.032
G2 X-0.15 Y10.323 I0 J0.126
G1 X-0.114 Z0.028
X-0.08 Z0.016
X-0.046 Z0.004
X-0.01 Z0
X4.805
X5.144 Z-0.007
X5.33 Z-0.035
X5.511 Z-0.085
X5.683 Z-0.155
X5.845 Z-0.243
X5.994 Z-0.349
X6.128 Z-0.47
X6.246 Z-0.603
X6.346 Z-0.747
X6.444 Z-0.928
X6.496 Z-1.056
X6.542 Z-1.208
X6.576 Z-1.395
X6.587 Z-1.558
X6.588 Z-17.6
X49.005
X49.746 Z-17.269
X50.747 Z-16.858
X52.871 Z-16.246
X53.639 Z-16.151
X55.133 Z-15.995
X55.3 Z-15.994
X55.394 Z-16.007
X55.768 Z-16.075
X56.042 Z-16.151
X56.216 Z-16.22
X56.373 Z-16.308
X56.462 Z-16.383
X56.511 Z-16.442
X56.56 Z-16.551
X56.566 Z-16.587
X56.568 Z-17.6
X80.412
Z-1.588
X80.423 Z-1.405
X80.459 Z-1.206
X80.52 Z-1.013
X80.601 Z-0.838
X80.698 Z-0.679
X80.812 Z-0.535
X80.939 Z-0.406
X81.079 Z-0.295
X81.229 Z-0.2
X81.387 Z-0.123
X81.551 Z-0.065
X81.72 Z-0.025
X81.927 Z-0.002
X87.01 Z0
X87.046 Z0.004
X87.08 Z0.016
X87.114 Z0.028
X87.15 Z0.032
G3 X87.15 Y10.575 I0 J0.126
G1 X87.114 Z0.028
X87.08 Z0.016
X87.046 Z0.004
X87.01 Z0
X81.927 Z-0.002
X81.72 Z-0.025
X81.551 Z-0.065
X81.387 Z-0.123
X81.229 Z-0.2
X81.079 Z-0.295
X80.939 Z-0.406
X80.812 Z-0.535
X80.698 Z-0.679
X80.601 Z-0.838
X80.52 Z-1.013
X80.459 Z-1.206
X80.423 Z-1.405
X80.412 Z-1.588
Z-17.6
X57.863
X57.858 Z-16.34
X57.828 Z-16.235
X57.779 Z-16.153
X57.695 Z-16.073
X57.588 Z-16.006
X57.42 Z-15.932
X57.151 Z-15.849
X56.778 Z-15.774
X56.305 Z-15.717
X55.73 Z-15.683
X55.145 Z-15.676
X53.61 Z-15.889
X53.042 Z-15.969
X52.853 Z-15.999
X51.413 Z-16.391
X50.675 Z-16.596
X49.092 Z-17.165
X48.823 Z-17.266
X48.657 Z-17.348
X48.247 Z-17.6
X6.588
X6.587 Z-1.564
X6.573 Z-1.374
X6.53 Z-1.166
X6.461 Z-0.968
X6.392 Z-0.825
X6.301 Z-0.677
X6.191 Z-0.538
X6.065 Z-0.41
X5.923 Z-0.296
X5.767 Z-0.198
X5.6 Z-0.118
X5.423 Z-0.057
X5.238 Z-0.018
X5.049 Z-0.001
X-0.01 Z0
X-0.046 Z0.004
X-0.08 Z0.016
X-0.114 Z0.028
X-0.15 Z0.032
G2 X-0.15 Y10.827 I0 J0.126
G1 X-0.114 Z0.028
X-0.08 Z0.016
X-0.046 Z0.004
X-0.01 Z0
X5.049 Z-0.001
X5.238 Z-0.018
X5.423 Z-0.057
X5.6 Z-0.118
X5.767 Z-0.198
X5.923 Z-0.296
X6.065 Z-0.41
X6.191 Z-0.538
X6.301 Z-0.677
X6.392 Z-0.825
X6.478 Z-1.007
X6.547 Z-1.23
X6.577 Z-1.408
X6.588 Z-1.588
Z-17.6
X47.672
X47.926 Z-17.461
X48.582 Z-17.125
X48.822 Z-17.02
X50.773 Z-16.344
X52.782 Z-15.791
X52.951 Z-15.751
X54.844 Z-15.482
X55.185 Z-15.439
X56.453 Z-15.431
X57.136 Z-15.443
X57.61 Z-15.476
X57.794 Z-15.521
X58.063 Z-15.61
X58.316 Z-15.727
X58.467 Z-15.823
X58.56 Z-15.902
X58.657 Z-16.021
X58.706 Z-16.119
X58.73 Z-16.225
X58.733 Z-17.6
X80.412
Z-1.588
X80.423 Z-1.405
X80.459 Z-1.206
X80.52 Z-1.013
X80.601 Z-0.838
X80.698 Z-0.679
X80.812 Z-0.535
X80.939 Z-0.406
X81.079 Z-0.295
X81.229 Z-0.2
X81.387 Z-0.123
X81.551 Z-0.065
X81.72 Z-0.025
X81.927 Z-0.002
X87.01 Z0
X87.046 Z0.004
X87.08 Z0.016
X87.114 Z0.028
X87.15 Z0.032
G3 X87.15 Y11.079 I0 J0.126
G1 X87.114 Z0.028
X87.08 Z0.016
X87.046 Z0.004
X87.01 Z0
X81.927 Z-0.002
X81.72 Z-0.025
X81.551 Z-0.065
X81.387 Z-0.123
X81.229 Z-0.2
X81.079 Z-0.295
X80.939 Z-0.406
X80.812 Z-0.535
X80.698 Z-0.679
X80.601 Z-0.838
X80.52 Z-1.013
X80.459 Z-1.206
X80.423 Z-1.405
X80.412 Z-1.588
Z-17.6
X59.6
X59.596 Z-16.076
X59.584 Z-16.018
X59.535 Z-15.904
X59.47 Z-15.815
X59.405 Z-15.749
X59.264 Z-15.641
X59.103 Z-15.552
X58.842 Z-15.444
X58.57 Z-15.363
X58.198 Z-15.281
X57.821 Z-15.224
X57.632 Z-15.199
X57.442 Z-15.188
X55.274 Z-15.198
X54.954 Z-15.233
X53.038 Z-15.505
X52.743 Z-15.576
X50.877 Z-16.09
X48.874 Z-16.785
X48.473 Z-16.974
X47.189 Z-17.6
X6.588
X6.587 Z-1.565
X6.574 Z-1.383
X6.535 Z-1.183
X6.486 Z-1.03
X6.437 Z-0.914
X6.346 Z-0.747
X6.246 Z-0.603
X6.128 Z-0.47
X5.994 Z-0.349
X5.845 Z-0.243
X5.683 Z-0.155
X5.511 Z-0.085
X5.33 Z-0.035
X5.144 Z-0.007
X4.805 Z0
X-0.01
X-0.046 Z0.004
X-0.08 Z0.016
X-0.114 Z0.028
X-0.15 Z0.032
G2 X-0.15 Y11.331 I0 J0.126
G1 X-0.114 Z0.028
X-0.08 Z0.016
X-0.046 Z0.004
X-0.01 Z0
X4.805
X5.144 Z-0.007
X5.33 Z-0.035
X5.511 Z-0.085
X5.683 Z-0.155
X5.845 Z-0.243
X5.994 Z-0.349
X6.128 Z-0.47
X6.246 Z-0.603
X6.346 Z-0.747
X6.428 Z-0.893
X6.501 Z-1.07
X6.556 Z-1.274
X6.572 Z-1.365
X6.587 Z-1.563
X6.588 Z-17.6
X46.812
X47.055 Z-17.461
X48.949 Z-16.542
X50.942 Z-15.849
X51.534 Z-15.683
X52.974 Z-15.291
X53.101 Z-15.264
X54.469 Z-15.069
X55.189 Z-14.971
X55.349 Z-14.958
X57.457 Z-14.949
X57.696 Z-14.964
X58.644 Z-15.085
X59.022 Z-15.14
X59.394 Z-15.218
X59.667 Z-15.297
X59.93 Z-15.4
X60.129 Z-15.507
X60.234 Z-15.587
X60.315 Z-15.68
X60.364 Z-15.762
X60.413 Z-15.897
X60.425 Z-15.968
X60.429 Z-17.6
X80.412
Z-1.588
X80.423 Z-1.405
X80.459 Z-1.206
X80.52 Z-1.013
X80.601 Z-0.838
X80.698 Z-0.679
X80.812 Z-0.535
X80.939 Z-0.406
X81.079 Z-0.295
X81.229 Z-0.2
X81.387 Z-0.123
X81.551 Z-0.065
X81.72 Z-0.025
X81.927 Z-0.002
X87.01 Z0
X87.046 Z0.004
X87.08 Z0.016
X87.114 Z0.028
X87.15 Z0.032
G3 X87.15 Y11.583 I0 J0.126
G1 X87.114 Z0.028
X87.08 Z0.016
X87.046 Z0.004
X87.01 Z0
X81.927 Z-0.002
X81.72 Z-0.025
X81.551 Z-0.065
X81.387 Z-0.123
X81.229 Z-0.2
X81.079 Z-0.295
X80.939 Z-0.406
X80.812 Z-0.535
X80.698 Z-0.679
X80.601 Z-0.838
X80.52 Z-1.013
X80.459 Z-1.206
X80.423 Z-1.405
X80.412 Z-1.588
Z-17.6
X61.035
Z-15.942
X61.023 Z-15.822
X60.998 Z-15.734
X60.95 Z-15.629
X60.901 Z-15.555
X60.84 Z-15.481
X60.71 Z-15.362
X60.56 Z-15.258
X60.396 Z-15.17
X60.135 Z-15.062
X59.953 Z-15.019
X59.482 Z-14.948
X57.775 Z-14.73
X57.586 Z-14.713
X57.297 Z-14.709
X55.433 Z-14.718
X55.101 Z-14.747
X53.175 Z-15.021
X52.89 Z-15.086
X51.065 Z-15.588
X49.113 Z-16.264
X48.952 Z-16.334
X47.165 Z-17.205
X46.93 Z-17.347
X46.65 Z-17.55
X46.548 Z-17.6
X6.588
X6.587 Z-1.578
X6.578 Z-1.41
X6.554 Z-1.265
X6.508 Z-1.092
X6.439 Z-0.916
X6.346 Z-0.747
X6.246 Z-0.603
X6.128 Z-0.47
X5.994 Z-0.349
X5.845 Z-0.243
X5.683 Z-0.155
X5.511 Z-0.085
X5.33 Z-0.035
X5.144 Z-0.007
X4.805 Z0
X-0.01
X-0.046 Z0.004
X-0.08 Z0.016
X-0.114 Z0.028
X-0.15 Z0.032
G2 X-0.15 Y11.835 I0 J0.126
G1 X-0.114 Z0.028
X-0.08 Z0.016
X-0.046 Z0.004
X-0.01 Z0
X4.805
X5.144 Z-0.007
X5.331 Z-0.035
X5.511 Z-0.085
X5.683 Z-0.155
X5.845 Z-0.244
X5.994 Z-0.349
X6.128 Z-0.47
X6.246 Z-0.604
X6.347 Z-0.747
X6.459 Z-0.961
X6.525 Z-1.147
X6.556 Z-1.275
X6.584 Z-1.476
X6.588 Z-17.6
X46.326
X46.429 Z-17.55
X46.856 Z-17.235
X47.138 Z-17.033
X47.375 Z-16.898
X48.991 Z-16.112
X49.239 Z-16.001
X51.117 Z-15.351
X51.302 Z-15.296
X52.943 Z-14.846
X53.258 Z-14.776
X55.092 Z-14.515
X55.508 Z-14.478
X57.447 Z-14.469
X57.638 Z-14.476
X57.827 Z-14.492
X59.914 Z-14.759
X60.099 Z-14.792
X60.424 Z-14.872
X60.741 Z-14.968
X61.002 Z-15.076
X61.165 Z-15.164
X61.316 Z-15.268
X61.445 Z-15.387
X61.535 Z-15.502
X61.584 Z-15.59
X61.608 Z-15.652
X61.632 Z-15.749
X61.639 Z-15.8
X61.64 Z-17.6
X80.412
Z-1.588
X80.423 Z-1.405
X80.459 Z-1.206
X80.52 Z-1.013
X80.601 Z-0.838
X80.698 Z-0.679
X80.812 Z-0.535
X80.939 Z-0.406
X81.079 Z-0.295
X81.229 Z-0.2
X81.387 Z-0.123
X81.551 Z-0.065
X81.72 Z-0.025
X81.927 Z-0.002
X87.01 Z0
X87.046 Z0.004
X87.08 Z0.016
X87.114 Z0.028
X87.15 Z0.032
G3 X87.15 Y12.087 I0 J0.126
G1 X87.114 Z0.028
X87.08 Z0.016
X87.046 Z0.004
X87.01 Z0
X81.927 Z-0.002
X81.72 Z-0.025
X81.551 Z-0.065
X81.387 Z-0.123
X81.229 Z-0.2
X81.079 Z-0.295
X80.939 Z-0.406
X80.812 Z-0.535
X80.698 Z-0.679
X80.601 Z-0.838
X80.52 Z-1.013
X80.459 Z-1.206
X80.423 Z-1.405
X80.412 Z-1.588
Z-17.6
X62.2
X62.199 Z-15.749
X62.193 Z-15.684
X62.169 Z-15.574
X62.12 Z-15.453
X62.071 Z-15.368
X62.005 Z-15.279
X61.883 Z-15.153
X61.748 Z-15.056
X61.573 Z-14.966
X61.31 Z-14.861
X60.992 Z-14.769
X60.041 Z-14.537
X59.545 Z-14.468
X57.803 Z-14.247
X57.648 Z-14.236
X57.458 Z-14.229
X55.592 Z-14.238
X55.102 Z-14.281
X53.479 Z-14.51
X53.29 Z-14.541
X53.122 Z-14.576
X52.935 Z-14.623
X51.253 Z-15.086
X49.341 Z-15.746
X49.18 Z-15.816
X47.478 Z-16.645
X47.254 Z-16.781
X46.202 Z-17.553
X46.105 Z-17.6
X6.588
Z-1.588
X6.577 Z-1.402
X6.544 Z-1.218
X6.473 Z-0.996
X6.392 Z-0.825
X6.301 Z-0.677
X6.191 Z-0.538
X6.065 Z-0.41
X5.923 Z-0.296
X5.767 Z-0.198
X5.6 Z-0.118
X5.423 Z-0.057
X5.238 Z-0.018
X5.049 Z-0.001
X-0.01 Z0
X-0.046 Z0.004
X-0.08 Z0.016
X-0.114 Z0.028
X-0.15 Z0.032
G2 X-0.15 Y12.339 I0 J0.126
G1 X-0.114 Z0.028
X-0.08 Z0.016
X-0.046 Z0.004
X-0.01 Z0
X4.805
X5.144 Z-0.007
X5.33 Z-0.035
X5.511 Z-0.085
X5.683 Z-0.155
X5.845 Z-0.243
X5.994 Z-0.349
X6.128 Z-0.47
X6.246 Z-0.603
X6.346 Z-0.747
X6.434 Z-0.906
X6.5 Z-1.067
X6.548 Z-1.237
X6.573 Z-1.372
X6.584 Z-1.479
X6.588 Z-17.6
X45.885
X45.975 Z-17.557
X46.615 Z-17.085
X47.427 Z-16.49
X47.653 Z-16.356
X49.028 Z-15.686
X49.42 Z-15.501
X51.291 Z-14.855
X51.475 Z-14.798
X53.015 Z-14.376
X53.404 Z-14.29
X55.12 Z-14.045
X55.311 Z-14.026
X55.672 Z-13.998
X57.331 Z-13.99
X57.619 Z-13.994
X57.81 Z-14.007
X58 Z-14.026
X59.896 Z-14.269
X60.06 Z-14.298
X61.613 Z-14.679
X61.834 Z-14.758
X62.087 Z-14.881
X62.244 Z-14.98
X62.386 Z-15.092
X62.508 Z-15.218
X62.582 Z-15.32
X62.657 Z-15.468
X62.681 Z-15.545
X62.699 Z-15.647
X62.703 Z-17.6
X80.412
Z-1.588
X80.423 Z-1.405
X80.459 Z-1.206
X80.52 Z-1.013
X80.601 Z-0.838
X80.698 Z-0.679
X80.812 Z-0.535
X80.939 Z-0.406
X81.079 Z-0.295
X81.229 Z-0.2
X81.387 Z-0.123
X81.551 Z-0.065
X81.72 Z-0.025
X81.927 Z-0.002
X87.01 Z0
X87.046 Z0.004
X87.08 Z0.016
X87.114 Z0.028
X87.15 Z0.032
G3 X87.15 Y12.591 I0 J0.126
G1 X87.114 Z0.028
X87.08 Z0.016
X87.046 Z0.004
X87.01 Z0
X81.927 Z-0.002
X81.72 Z-0.025
X81.551 Z-0.065
X81.387 Z-0.123
X81.229 Z-0.2
X81.079 Z-0.295
X80.939 Z-0.406
X80.812 Z-0.535
X80.698 Z-0.679
X80.601 Z-0.838
X80.52 Z-1.013
X80.459 Z-1.206
X80.423 Z-1.405
X80.412 Z-1.588
Z-17.6
X63.206
X63.205 Z-15.623
X63.193 Z-15.524
X63.169 Z-15.433
X63.144 Z-15.37
X63.096 Z-15.276
X63.011 Z-15.157
X62.889 Z-15.031
X62.747 Z-14.919
X62.59 Z-14.821
X62.337 Z-14.697
X61.892 Z-14.533
X61.542 Z-14.418
X60.232 Z-14.095
X60.046 Z-14.052
X59.858 Z-14.02
X57.926 Z-13.774
X57.485 Z-13.749
X55.754 Z-13.757
X55.271 Z-13.795
X54.91 Z-13.842
X53.585 Z-14.029
X53.395 Z-14.064
X53.227 Z-14.099
X53.04 Z-14.144
X51.584 Z-14.543
X51.4 Z-14.599
X49.529 Z-15.245
X49.137 Z-15.43
X47.848 Z-16.057
X47.611 Z-16.192
X47.329 Z-16.394
X45.748 Z-17.56
X45.665 Z-17.6
X6.588
X6.587 Z-1.568
X6.577 Z-1.409
X6.548 Z-1.234
X6.499 Z-1.065
X6.45 Z-0.942
X6.392 Z-0.825
X6.301 Z-0.677
X6.191 Z-0.538
X6.065 Z-0.41
X5.923 Z-0.296
X5.767 Z-0.198
X5.6 Z-0.118
X5.423 Z-0.057
X5.238 Z-0.018
X5.049 Z-0.001
X-0.01 Z0
X-0.046 Z0.004
X-0.08 Z0.016
X-0.114 Z0.028
X-0.15 Z0.032
G2 X-0.15 Y12.843 I0 J0.126
G1 X-0.114 Z0.028
X-0.08 Z0.016
X-0.046 Z0.004
X-0.01 Z0
X5.049 Z-0.001
X5.238 Z-0.018
X5.423 Z-0.057
X5.6 Z-0.118
X5.767 Z-0.198
X5.923 Z-0.296
X6.065 Z-0.41
X6.191 Z-0.538
X6.301 Z-0.677
X6.425 Z-0.888
X6.498 Z-1.063
X6.555 Z-1.268
X6.571 Z-1.36
X6.587 Z-1.563
X6.588 Z-17.6
X45.445
X45.521 Z-17.563
X47.71 Z-15.951
X47.944 Z-15.808
X49.234 Z-15.179
X49.634 Z-14.989
X51.514 Z-14.341
X51.698 Z-14.287
X53.095 Z-13.904
X53.491 Z-13.816
X53.681 Z-13.782
X55.176 Z-13.571
X55.826 Z-13.518
X57.484 Z-13.51
X57.675 Z-13.517
X57.984 Z-13.538
X59.383 Z-13.715
X59.95 Z-13.79
X60.09 Z-13.818
X61.436 Z-14.148
X61.618 Z-14.198
X61.798 Z-14.259
X62.675 Z-14.573
X62.957 Z-14.689
X63.171 Z-14.806
X63.321 Z-14.92
X63.454 Z-15.067
X63.543 Z-15.203
X63.61 Z-15.361
X63.644 Z-15.525
X63.649 Z-15.618
Z-17.6
X80.412
Z-1.588
X80.423 Z-1.405
X80.459 Z-1.206
X80.52 Z-1.013
X80.601 Z-0.838
X80.698 Z-0.679
X80.812 Z-0.535
X80.939 Z-0.406
X81.079 Z-0.295
X81.229 Z-0.2
X81.387 Z-0.123
X81.551 Z-0.065
X81.72 Z-0.025
X81.927 Z-0.002
X87.01 Z0
X87.046 Z0.004
X87.08 Z0.016
X87.114 Z0.028
X87.15 Z0.032
G3 X87.15 Y13.095 I0 J0.126
G1 X87.114 Z0.028
X87.08 Z0.016
X87.046 Z0.004
X87.01 Z0
X81.927 Z-0.002
X81.72 Z-0.025
X81.551 Z-0.065
X81.387 Z-0.123
X81.229 Z-0.2
X81.079 Z-0.295
X80.939 Z-0.406
X80.812 Z-0.535
X80.698 Z-0.679
X80.601 Z-0.838
X80.52 Z-1.013
X80.459 Z-1.206
X80.423 Z-1.405
X80.412 Z-1.588
Z-17.6
X64.041
Z-15.551
X64.035 Z-15.446
X64 Z-15.29
X63.934 Z-15.135
X63.846 Z-14.999
X63.729 Z-14.869
X63.592 Z-14.753
X63.439 Z-14.651
X63.189 Z-14.524
X62.926 Z-14.422
X61.665 Z-13.974
X61.391 Z-13.893
X60.185 Z-13.596
X59.999 Z-13.558
X59.812 Z-13.525
X58.046 Z-13.302
X57.533 Z-13.27
X55.9 Z-13.278
X55.195 Z-13.336
X53.751 Z-13.54
X53.561 Z-13.574
X53.123 Z-13.671
X51.767 Z-14.043
X51.583 Z-14.099
X49.713 Z-14.745
X48.183 Z-15.486
X47.967 Z-15.606
X47.682 Z-15.806
X45.293 Z-17.567
X45.225 Z-17.6
X6.588
X6.587 Z-1.558
X6.576 Z-1.397
X6.542 Z-1.211
X6.497 Z-1.06
X6.449 Z-0.938
X6.346 Z-0.747
X6.246 Z-0.603
X6.128 Z-0.47
X5.994 Z-0.349
X5.845 Z-0.243
X5.683 Z-0.155
X5.511 Z-0.085
X5.33 Z-0.035
X5.144 Z-0.007
X4.805 Z0
X-0.01
X-0.046 Z0.004
X-0.08 Z0.016
X-0.114 Z0.028
X-0.15 Z0.032
G2 X-0.15 Y13.347 I0 J0.126
G1 X-0.114 Z0.028
X-0.08 Z0.016
X-0.046 Z0.004
X-0.01 Z0
X5.049 Z-0.001
X5.238 Z-0.018
X5.423 Z-0.057
X5.6 Z-0.118
X5.767 Z-0.198
X5.923 Z-0.296
X6.065 Z-0.41
X6.191 Z-0.538
X6.301 Z-0.677
X6.392 Z-0.825
X6.481 Z-1.017
X6.526 Z-1.149
X6.57 Z-1.353
X6.587 Z-1.575
X6.588 Z-17.6
X45.005
X45.066 Z-17.57
X48.021 Z-15.393
X48.246 Z-15.255
X49.526 Z-14.629
X49.84 Z-14.481
X51.467 Z-13.921
X51.814 Z-13.805
X52.92 Z-13.502
X53.346 Z-13.391
X53.797 Z-13.3
X54.554 Z-13.193
X55.294 Z-13.091
X55.985 Z-13.038
X57.542 Z-13.03
X58.108 Z-13.066
X59.856 Z-13.287
X60.229 Z-13.364
X61.343 Z-13.638
X61.525 Z-13.688
X61.707 Z-13.747
X62.967 Z-14.196
X63.143 Z-14.268
X63.58 Z-14.457
X63.831 Z-14.583
X63.984 Z-14.685
X64.121 Z-14.802
X64.237 Z-14.932
X64.325 Z-15.066
X64.391 Z-15.219
X64.425 Z-15.368
X64.433 Z-15.483
Z-17.6
X80.412
Z-1.588
X80.423 Z-1.405
X80.459 Z-1.206
X80.52 Z-1.013
X80.601 Z-0.838
X80.698 Z-0.679
X80.812 Z-0.535
X80.939 Z-0.406
X81.079 Z-0.295
X81.229 Z-0.2
X81.387 Z-0.123
X81.551 Z-0.065
X81.72 Z-0.025
X81.927 Z-0.002
X87.01 Z0
X87.046 Z0.004
X87.08 Z0.016
X87.114 Z0.028
X87.15 Z0.032
G3 X87.15 Y13.599 I0 J0.126
G1 X87.114 Z0.028
X87.08 Z0.016
X87.046 Z0.004
X87.01 Z0
X81.927 Z-0.002
X81.72 Z-0.025
X81.551 Z-0.065
X81.387 Z-0.123
X81.229 Z-0.2
X81.079 Z-0.295
X80.939 Z-0.406
X80.812 Z-0.535
X80.698 Z-0.679
X80.601 Z-0.838
X80.52 Z-1.013
X80.459 Z-1.206
X80.423 Z-1.405
X80.412 Z-1.588
Z-17.6
X64.806
X64.803 Z-15.366
X64.779 Z-15.211
X64.755 Z-15.127
X64.707 Z-15.01
X64.61 Z-14.85
X64.497 Z-14.72
X64.36 Z-14.606
X64.205 Z-14.506
X63.953 Z-14.381
X62.945 Z-13.948
X61.686 Z-13.5
X61.368 Z-13.401
X60.254 Z-13.126
X59.834 Z-13.04
X58.17 Z-12.829
X57.555 Z-12.79
X56.068 Z-12.798
X55.225 Z-12.865
X53.823 Z-13.064
X53.236 Z-13.19
X51.86 Z-13.568
X49.996 Z-14.206
X49.748 Z-14.318
X48.476 Z-14.936
X48.24 Z-15.072
X47.958 Z-15.274
X44.839 Z-17.573
X44.785 Z-17.6
X6.588
Z-1.588
X6.577 Z-1.404
X6.545 Z-1.223
X6.507 Z-1.088
X6.431 Z-0.899
X6.346 Z-0.747
X6.246 Z-0.604
X6.128 Z-0.47
X5.994 Z-0.349
X5.845 Z-0.244
X5.683 Z-0.155
X5.511 Z-0.085
X5.331 Z-0.035
X5.144 Z-0.007
X4.854 Z0
X-0.01
X-0.046 Z0.004
X-0.08 Z0.016
X-0.114 Z0.028
X-0.15 Z0.032
G2 X-0.15 Y13.851 I0 J0.126
G1 X-0.114 Z0.028
X-0.08 Z0.016
X-0.046 Z0.004
X-0.01 Z0
X4.805
X5.144 Z-0.007
X5.33 Z-0.035
X5.511 Z-0.085
X5.683 Z-0.155
X5.845 Z-0.243
X5.994 Z-0.349
X6.128 Z-0.47
X6.246 Z-0.603
X6.346 Z-0.747
X6.456 Z-0.955
X6.52 Z-1.13
X6.554 Z-1.262
X6.583 Z-1.469
X6.588 Z-17.6
X44.565
X44.612 Z-17.577
X47.629 Z-15.353
X48.371 Z-14.809
X48.606 Z-14.67
X49.918 Z-14.031
X50.127 Z-13.942
X51.993 Z-13.306
X53.264 Z-12.957
X53.452 Z-12.913
X53.807 Z-12.839
X53.996 Z-12.806
X55.241 Z-12.63
X56.148 Z-12.557
X57.563 Z-12.55
X58.16 Z-12.588
X58.349 Z-12.606
X59.782 Z-12.789
X60.237 Z-12.879
X61.327 Z-13.147
X61.714 Z-13.269
X62.614 Z-13.59
X62.97 Z-13.72
X64.199 Z-14.251
X64.37 Z-14.33
X64.533 Z-14.419
X64.683 Z-14.524
X64.816 Z-14.644
X64.928 Z-14.777
X64.998 Z-14.886
X65.047 Z-14.987
X65.095 Z-15.135
X65.12 Z-15.286
X65.123 Z-17.6
X80.412
Z-1.588
X80.423 Z-1.405
X80.459 Z-1.206
X80.52 Z-1.013
X80.601 Z-0.838
X80.698 Z-0.679
X80.812 Z-0.535
X80.939 Z-0.406
X81.079 Z-0.295
X81.229 Z-0.2
X81.387 Z-0.123
X81.551 Z-0.065
X81.72 Z-0.025
X81.927 Z-0.002
X87.01 Z0
X87.046 Z0.004
X87.08 Z0.016
X87.114 Z0.028
X87.15 Z0.032
G3 X87.15 Y14.103 I0 J0.126
G1 X87.114 Z0.028
X87.08 Z0.016
X87.046 Z0.004
X87.01 Z0
X81.927 Z-0.002
X81.72 Z-0.025
X81.551 Z-0.065
X81.387 Z-0.123
X81.229 Z-0.2
X81.079 Z-0.295
X80.939 Z-0.406
X80.812 Z-0.535
X80.698 Z-0.679
X80.601 Z-0.838
X80.52 Z-1.013
X80.459 Z-1.206
X80.423 Z-1.405
X80.412 Z-1.588
Z-17.6
X65.441
X65.437 Z-15.207
X65.412 Z-15.06
X65.352 Z-14.887
X65.317 Z-14.817
X65.246 Z-14.704
X65.134 Z-14.572
X65 Z-14.452
X64.85 Z-14.347
X64.688 Z-14.257
X64.13 Z-13.985
X62.947 Z-13.473
X62.771 Z-13.405
X61.691 Z-13.022
X61.281 Z-12.892
X60.168 Z-12.621
X59.747 Z-12.541
X58.29 Z-12.357
X57.753 Z-12.32
X57.563 Z-12.31
X56.221 Z-12.318
X55.258 Z-12.395
X53.977 Z-12.576
X53.452 Z-12.685
X53.265 Z-12.732
X52.178 Z-13.03
X51.993 Z-13.085
X50.293 Z-13.666
X50.055 Z-13.761
X48.77 Z-14.387
X48.535 Z-14.525
X47.946 Z-14.955
X44.385 Z-17.58
X44.344 Z-17.6
X6.588
X6.587 Z-1.558
X6.576 Z-1.394
X6.541 Z-1.206
X6.495 Z-1.053
X6.444 Z-0.927
X6.346 Z-0.747
X6.246 Z-0.603
X6.128 Z-0.47
X5.994 Z-0.349
X5.845 Z-0.243
X5.683 Z-0.155
X5.511 Z-0.085
X5.33 Z-0.035
X5.144 Z-0.007
X4.805 Z0
X-0.01
X-0.046 Z0.004
X-0.08 Z0.016
X-0.114 Z0.028
X-0.15 Z0.032
G2 X-0.15 Y14.355 I0 J0.126
G1 X-0.114 Z0.028
X-0.08 Z0.016
X-0.046 Z0.004
X-0.01 Z0
X5.049 Z-0.001
X5.238 Z-0.018
X5.423 Z-0.057
X5.6 Z-0.118
X5.767 Z-0.198
X5.923 Z-0.296
X6.065 Z-0.41
X6.191 Z-0.538
X6.301 Z-0.677
X6.392 Z-0.825
X6.47 Z-0.988
X6.543 Z-1.215
X6.577 Z-1.409
X6.587 Z-1.574
X6.588 Z-17.6
X44.117
X44.136 Z-17.594
X48.426 Z-14.436
X48.708 Z-14.234
X48.944 Z-14.098
X49.89 Z-13.638
X50.291 Z-13.449
X50.563 Z-13.356
X52.115 Z-12.824
X53.369 Z-12.478
X53.953 Z-12.353
X54.142 Z-12.32
X55.259 Z-12.162
X55.449 Z-12.144
X56.302 Z-12.078
X57.558 Z-12.07
X57.749 Z-12.079
X58.321 Z-12.118
X58.511 Z-12.138
X59.459 Z-12.26
X59.836 Z-12.312
X60.211 Z-12.387
X61.23 Z-12.636
X61.685 Z-12.78
X62.765 Z-13.163
X62.941 Z-13.234
X63.994 Z-13.689
X64.148 Z-13.762
X65.005 Z-14.185
X65.168 Z-14.274
X65.318 Z-14.379
X65.451 Z-14.499
X65.563 Z-14.632
X65.632 Z-14.74
X65.681 Z-14.839
X65.73 Z-14.985
X65.754 Z-15.128
X65.758 Z-17.6
X80.412
Z-1.588
X80.423 Z-1.405
X80.459 Z-1.206
X80.52 Z-1.013
X80.601 Z-0.838
X80.698 Z-0.679
X80.812 Z-0.535
X80.939 Z-0.406
X81.079 Z-0.295
X81.229 Z-0.2
X81.387 Z-0.123
X81.551 Z-0.065
X81.72 Z-0.025
X81.927 Z-0.002
X87.01 Z0
X87.046 Z0.004
X87.08 Z0.016
X87.114 Z0.028
X87.15 Z0.032
G3 X87.15 Y14.607 I0 J0.126
G1 X87.114 Z0.028
X87.08 Z0.016
X87.046 Z0.004
X87.01 Z0
X81.927 Z-0.002
X81.72 Z-0.025
X81.551 Z-0.065
X81.387 Z-0.123
X81.229 Z-0.2
X81.079 Z-0.295
X80.939 Z-0.406
X80.812 Z-0.535
X80.698 Z-0.679
X80.601 Z-0.838
X80.52 Z-1.013
X80.459 Z-1.206
X80.423 Z-1.405
X80.412 Z-1.588
Z-17.6
X66.024
X66.022 Z-15.131
X65.998 Z-14.947
X65.973 Z-14.855
X65.901 Z-14.676
X65.829 Z-14.554
X65.722 Z-14.417
X65.594 Z-14.292
X65.449 Z-14.184
X65.288 Z-14.095
X63.893 Z-13.409
X62.883 Z-12.973
X62.707 Z-12.902
X61.807 Z-12.58
X61.206 Z-12.387
X60.337 Z-12.173
X59.964 Z-12.095
X59.683 Z-12.044
X58.415 Z-11.884
X57.688 Z-11.834
X57.302 Z-11.831
X56.375 Z-11.838
X55.393 Z-11.914
X55.032 Z-11.961
X54.133 Z-12.088
X53.562 Z-12.207
X53.375 Z-12.251
X52.205 Z-12.575
X50.694 Z-13.092
X50.422 Z-13.184
X50.174 Z-13.296
X49.074 Z-13.832
X48.839 Z-13.972
X47.789 Z-14.743
X43.909 Z-17.598
X6.588 Z-17.6
X6.587 Z-1.573
X6.577 Z-1.401
X6.541 Z-1.207
X6.468 Z-0.983
X6.392 Z-0.825
X6.301 Z-0.677
X6.191 Z-0.538
X6.065 Z-0.41
X5.923 Z-0.296
X5.767 Z-0.198
X5.6 Z-0.118
X5.423 Z-0.057
X5.238 Z-0.018
X5.049 Z-0.001
X-0.01 Z0
X-0.046 Z0.004
X-0.08 Z0.016
X-0.114 Z0.028
X-0.15 Z0.032
G2 X-0.15 Y14.859 I0 J0.126
G1 X-0.114 Z0.028
X-0.08 Z0.016
X-0.046 Z0.004
X-0.01 Z0
X4.805
X5.144 Z-0.007
X5.331 Z-0.035
X5.511 Z-0.085
X5.683 Z-0.155
X5.845 Z-0.244
X5.994 Z-0.349
X6.128 Z-0.47
X6.246 Z-0.604
X6.346 Z-0.747
X6.443 Z-0.926
X6.492 Z-1.045
X6.541 Z-1.204
X6.576 Z-1.395
X6.588 Z-1.588
Z-17.6
X43.684
X48.979 Z-13.703
X49.213 Z-13.561
X50.353 Z-13.005
X50.562 Z-12.916
X50.835 Z-12.825
X52.263 Z-12.337
X52.448 Z-12.28
X53.455 Z-12.004
X54.167 Z-11.853
X55.301 Z-11.69
X56.452 Z-11.598
X57.599 Z-11.591
X58.195 Z-11.629
X58.576 Z-11.658
X59.702 Z-11.802
X60.228 Z-11.905
X61.154 Z-12.131
X61.747 Z-12.32
X62.647 Z-12.64
X62.823 Z-12.71
X63.349 Z-12.938
X63.872 Z-13.167
X65.215 Z-13.83
X65.655 Z-14.087
X65.84 Z-14.222
X65.968 Z-14.347
X66.075 Z-14.484
X66.168 Z-14.651
X66.217 Z-14.777
X66.242 Z-14.867
X66.266 Z-15.026
X66.27 Z-17.6
X80.412
Z-1.588
X80.423 Z-1.405
X80.459 Z-1.206
X80.52 Z-1.013
X80.601 Z-0.838
X80.698 Z-0.679
X80.812 Z-0.535
X80.939 Z-0.406
X81.079 Z-0.295
X81.229 Z-0.2
X81.387 Z-0.123
X81.551 Z-0.065
X81.72 Z-0.025
X81.927 Z-0.002
X87.01 Z0
X87.046 Z0.004
X87.08 Z0.016
X87.114 Z0.028
X87.15 Z0.032
G3 X87.15 Y15.111 I0 J0.126
G1 X87.114 Z0.028
X87.08 Z0.016
X87.046 Z0.004
X87.01 Z0
X81.927 Z-0.002
X81.72 Z-0.025
X81.551 Z-0.065
X81.387 Z-0.123
X81.229 Z-0.2
X81.079 Z-0.295
X80.939 Z-0.406
X80.812 Z-0.535
X80.698 Z-0.679
X80.601 Z-0.838
X80.52 Z-1.013
X80.459 Z-1.206
X80.423 Z-1.405
X80.412 Z-1.588
Z-17.6
X66.516
Z-15.05
X66.51 Z-14.931
X66.486 Z-14.787
X66.461 Z-14.7
X66.412 Z-14.575
X66.321 Z-14.414
X66.214 Z-14.277
X66.086 Z-14.152
X65.901 Z-14.017
X65.217 Z-13.606
X64.803 Z-13.397
X63.792 Z-12.898
X63.62 Z-12.818
X62.743 Z-12.439
X62.567 Z-12.371
X61.847 Z-12.114
X61.167 Z-11.892
X60.379 Z-11.696
X60.006 Z-11.617
X59.818 Z-11.58
X59.631 Z-11.549
X58.683 Z-11.428
X58.493 Z-11.409
X57.73 Z-11.356
X57.442 Z-11.351
X56.542 Z-11.358
X55.459 Z-11.441
X55.268 Z-11.462
X54.341 Z-11.593
X53.984 Z-11.663
X53.609 Z-11.741
X53.422 Z-11.788
X52.519 Z-12.036
X52.335 Z-12.094
X50.906 Z-12.581
X50.634 Z-12.673
X50.386 Z-12.785
X49.372 Z-13.28
X49.148 Z-13.415
X46.797 Z-15.145
X43.464 Z-17.6
X6.588
Z-1.588
X6.576 Z-1.394
X6.54 Z-1.203
X6.493 Z-1.048
X6.444 Z-0.928
X6.346 Z-0.747
X6.246 Z-0.604
X6.128 Z-0.47
X5.994 Z-0.349
X5.845 Z-0.244
X5.683 Z-0.155
X5.511 Z-0.085
X5.331 Z-0.035
X5.144 Z-0.007
X4.854 Z0
X-0.01
X-0.046 Z0.004
X-0.08 Z0.016
X-0.114 Z0.028
X-0.15 Z0.032
G2 X-0.15 Y15.363 I0 J0.126
G1 X-0.114 Z0.028
X-0.08 Z0.016
X-0.046 Z0.004
X-0.01 Z0
X4.854
X5.144 Z-0.007
X5.331 Z-0.035
X5.511 Z-0.085
X5.683 Z-0.155
X5.845 Z-0.244
X5.994 Z-0.349
X6.128 Z-0.47
X6.246 Z-0.604
X6.347 Z-0.747
X6.439 Z-0.917
X6.509 Z-1.095
X6.556 Z-1.271
X6.579 Z-1.423
X6.588 Z-1.588
Z-17.6
X43.258
X43.397 Z-17.491
X48.937 Z-13.404
X49.358 Z-13.101
X49.594 Z-12.966
X50.523 Z-12.515
X50.771 Z-12.406
X51.044 Z-12.315
X52.472 Z-11.828
X52.657 Z-11.773
X53.531 Z-11.533
X54.27 Z-11.375
X54.46 Z-11.343
X55.328 Z-11.22
X56.624 Z-11.117
X57.626 Z-11.111
X58.598 Z-11.175
X59.663 Z-11.309
X60.249 Z-11.423
X61.038 Z-11.615
X61.22 Z-11.669
X61.766 Z-11.846
X62.585 Z-12.137
X63.582 Z-12.566
X65.062 Z-13.297
X66.147 Z-13.947
X66.332 Z-14.082
X66.46 Z-14.207
X66.567 Z-14.343
X66.66 Z-14.51
X66.707 Z-14.629
X66.73 Z-14.712
X66.754 Z-14.84
X66.762 Z-14.972
Z-17.6
X80.412
Z-1.588
X80.423 Z-1.405
X80.459 Z-1.206
X80.52 Z-1.013
X80.601 Z-0.838
X80.698 Z-0.679
X80.812 Z-0.535
X80.939 Z-0.406
X81.079 Z-0.295
X81.229 Z-0.2
X81.387 Z-0.123
X81.551 Z-0.065
X81.72 Z-0.025
X81.927 Z-0.002
X87.01 Z0
X87.046 Z0.004
X87.08 Z0.016
X87.114 Z0.028
X87.15 Z0.032
G3 X87.15 Y15.615 I0 J0.126
G1 X87.114 Z0.028
X87.08 Z0.016
X87.046 Z0.004
X87.01 Z0
X81.927 Z-0.002
X81.72 Z-0.025
X81.551 Z-0.065
X81.387 Z-0.123
X81.229 Z-0.2
X81.079 Z-0.295
X80.939 Z-0.406
X80.812 Z-0.535
X80.698 Z-0.679
X80.601 Z-0.838
X80.52 Z-1.013
X80.459 Z-1.206
X80.423 Z-1.405
X80.412 Z-1.588
Z-17.6
X67.008
Z-14.91
X66.998 Z-14.752
X66.973 Z-14.628
X66.915 Z-14.458
X66.881 Z-14.387
X66.813 Z-14.273
X66.706 Z-14.137
X66.579 Z-14.012
X66.394 Z-13.877
X64.938 Z-13.006
X63.42 Z-12.259
X62.53 Z-11.877
X61.865 Z-11.64
X61.139 Z-11.402
X60.958 Z-11.352
X60.401 Z-11.215
X60.028 Z-11.136
X59.629 Z-11.061
X58.657 Z-10.939
X57.751 Z-10.877
X57.463 Z-10.872
X56.683 Z-10.879
X55.461 Z-10.974
X55.27 Z-10.995
X54.532 Z-11.1
X54.343 Z-11.132
X53.572 Z-11.297
X52.728 Z-11.528
X52.543 Z-11.585
X51.114 Z-12.071
X50.842 Z-12.163
X50.44 Z-12.351
X49.675 Z-12.726
X49.45 Z-12.863
X43.869 Z-16.977
X43.079 Z-17.6
X6.588
X6.587 Z-1.558
X6.576 Z-1.397
X6.543 Z-1.212
X6.498 Z-1.061
X6.449 Z-0.939
X6.346 Z-0.747
X6.246 Z-0.603
X6.128 Z-0.47
X5.994 Z-0.349
X5.845 Z-0.243
X5.683 Z-0.155
X5.511 Z-0.085
X5.33 Z-0.035
X5.144 Z-0.007
X4.805 Z0
X-0.01
X-0.046 Z0.004
X-0.08 Z0.016
X-0.114 Z0.028
X-0.15 Z0.032
G2 X-0.15 Y15.867 I0 J0.126
G1 X-0.114 Z0.028
X-0.08 Z0.016
X-0.046 Z0.004
X-0.01 Z0
X4.805
X5.144 Z-0.007
X5.331 Z-0.035
X5.511 Z-0.085
X5.683 Z-0.155
X5.845 Z-0.244
X5.994 Z-0.349
X6.128 Z-0.47
X6.246 Z-0.604
X6.347 Z-0.747
X6.433 Z-0.904
X6.498 Z-1.061
X6.547 Z-1.229
X6.579 Z-1.426
X6.588 Z-1.588
Z-17.6
X42.905
X42.91 Z-17.596
X44.304 Z-16.493
X49.143 Z-12.924
X49.649 Z-12.556
X49.875 Z-12.423
X50.717 Z-12.013
X50.965 Z-11.901
X51.237 Z-11.81
X52.666 Z-11.324
X52.851 Z-11.269
X53.569 Z-11.072
X53.757 Z-11.027
X54.514 Z-10.87
X55.359 Z-10.75
X56.776 Z-10.638
X57.617 Z-10.631
X58.047 Z-10.656
X58.809 Z-10.712
X59.568 Z-10.809
X59.755 Z-10.839
X60.294 Z-10.947
X60.989 Z-11.116
X61.784 Z-11.372
X62.481 Z-11.619
X63.302 Z-11.971
X64.56 Z-12.59
X64.897 Z-12.76
X66.64 Z-13.807
X66.825 Z-13.942
X66.953 Z-14.067
X67.059 Z-14.203
X67.144 Z-14.351
X67.193 Z-14.469
X67.217 Z-14.549
X67.242 Z-14.666
X67.254 Z-14.795
X67.255 Z-17.6
X80.412
Z-1.588
X80.423 Z-1.405
X80.459 Z-1.206
X80.52 Z-1.013
X80.601 Z-0.838
X80.698 Z-0.679
X80.812 Z-0.535
X80.939 Z-0.406
X81.079 Z-0.295
X81.229 Z-0.2
X81.387 Z-0.123
X81.551 Z-0.065
X81.72 Z-0.025
X81.927 Z-0.002
X87.01 Z0
X87.046 Z0.004
X87.08 Z0.016
X87.114 Z0.028
X87.15 Z0.032
G3 X87.15 Y16.119 I0 J0.126
G1 X87.114 Z0.028
X87.08 Z0.016
X87.046 Z0.004
X87.01 Z0
X81.927 Z-0.002
X81.72 Z-0.025
X81.551 Z-0.065
X81.387 Z-0.123
X81.229 Z-0.2
X81.079 Z-0.295
X80.939 Z-0.406
X80.812 Z-0.535
X80.698 Z-0.679
X80.601 Z-0.838
X80.52 Z-1.013
X80.459 Z-1.206
X80.423 Z-1.405
X80.412 Z-1.588
Z-17.6
X67.487
X67.485 Z-14.742
X67.461 Z-14.552
X67.412 Z-14.38
X67.339 Z-14.216
X67.241 Z-14.061
X67.128 Z-13.929
X66.994 Z-13.811
X66.763 Z-13.663
X64.957 Z-12.58
X64.709 Z-12.434
X63.293 Z-11.735
X62.946 Z-11.581
X62.595 Z-11.429
X62.419 Z-11.357
X61.879 Z-11.164
X60.972 Z-10.869
X60.416 Z-10.731
X59.668 Z-10.579
X58.911 Z-10.48
X58.721 Z-10.462
X57.768 Z-10.397
X57.479 Z-10.392
X56.845 Z-10.399
X55.481 Z-10.504
X55.121 Z-10.551
X54.537 Z-10.636
X53.655 Z-10.824
X52.936 Z-11.021
X52.752 Z-11.076
X51.504 Z-11.501
X51.05 Z-11.654
X50.649 Z-11.843
X50.047 Z-12.135
X49.811 Z-12.272
X49.529 Z-12.474
X44.69 Z-16.045
X42.852 Z-17.498
X42.738 Z-17.6
X6.588
Z-1.588
X6.578 Z-1.414
X6.55 Z-1.243
X6.501 Z-1.07
X6.452 Z-0.946
X6.392 Z-0.825
X6.301 Z-0.677
X6.191 Z-0.538
X6.065 Z-0.41
X5.923 Z-0.296
X5.767 Z-0.198
X5.6 Z-0.118
X5.423 Z-0.057
X5.238 Z-0.018
X5.049 Z-0.001
X-0.01 Z0
X-0.046 Z0.004
X-0.08 Z0.016
X-0.114 Z0.028
X-0.15 Z0.032
G2 X-0.15 Y16.371 I0 J0.126
G1 X-0.114 Z0.028
X-0.08 Z0.016
X-0.046 Z0.004
X-0.01 Z0
X4.805
X5.144 Z-0.007
X5.33 Z-0.035
X5.511 Z-0.085
X5.683 Z-0.155
X5.845 Z-0.243
X5.994 Z-0.349
X6.128 Z-0.47
X6.246 Z-0.603
X6.346 Z-0.747
X6.441 Z-0.921
X6.489 Z-1.038
X6.538 Z-1.194
X6.575 Z-1.386
X6.587 Z-1.541
X6.588 Z-17.6
X42.583
X42.609 Z-17.573
X42.768 Z-17.423
X45.139 Z-15.55
X49.14 Z-12.598
X49.953 Z-12.002
X50.178 Z-11.869
X51.02 Z-11.458
X51.181 Z-11.389
X52.63 Z-10.9
X52.977 Z-10.784
X53.696 Z-10.587
X53.883 Z-10.545
X54.612 Z-10.393
X54.802 Z-10.363
X55.35 Z-10.285
X55.541 Z-10.266
X56.929 Z-10.158
X57.636 Z-10.152
X57.827 Z-10.16
X58.781 Z-10.226
X58.97 Z-10.244
X59.539 Z-10.317
X59.727 Z-10.348
X60.289 Z-10.461
X60.475 Z-10.503
X60.846 Z-10.594
X61.028 Z-10.646
X61.755 Z-10.882
X62.115 Z-11.008
X62.471 Z-11.139
X62.822 Z-11.291
X63.169 Z-11.445
X64.606 Z-12.154
X64.851 Z-12.298
X66.739 Z-13.432
X67.184 Z-13.736
X67.316 Z-13.856
X67.429 Z-13.989
X67.534 Z-14.158
X67.583 Z-14.263
X67.632 Z-14.408
X67.668 Z-14.606
X67.675 Z-14.742
Z-17.6
X80.412
Z-1.588
X80.423 Z-1.405
X80.459 Z-1.206
X80.52 Z-1.013
X80.601 Z-0.838
X80.698 Z-0.679
X80.812 Z-0.535
X80.939 Z-0.406
X81.079 Z-0.295
X81.229 Z-0.2
X81.387 Z-0.123
X81.551 Z-0.065
X81.72 Z-0.025
X81.927 Z-0.002
X87.01 Z0
X87.046 Z0.004
X87.08 Z0.016
X87.114 Z0.028
X87.15 Z0.032
G3 X87.15 Y16.623 I0 J0.126
G1 X87.114 Z0.028
X87.08 Z0.016
X87.046 Z0.004
X87.01 Z0
X81.927 Z-0.002
X81.72 Z-0.025
X81.551 Z-0.065
X81.387 Z-0.123
X81.229 Z-0.2
X81.079 Z-0.295
X80.939 Z-0.406
X80.812 Z-0.535
X80.698 Z-0.679
X80.601 Z-0.838
X80.52 Z-1.013
X80.459 Z-1.206
X80.423 Z-1.405
X80.412 Z-1.588
Z-17.6
X67.863
Z-14.66
X67.851 Z-14.493
X67.827 Z-14.364
X67.778 Z-14.209
X67.729 Z-14.1
X67.668 Z-13.992
X67.566 Z-13.852
X67.443 Z-13.724
X67.262 Z-13.584
X66.525 Z-13.087
X64.886 Z-12.105
X64.579 Z-11.914
X63.898 Z-11.575
X63.058 Z-11.161
X62.711 Z-11.007
X62.316 Z-10.84
X61.822 Z-10.664
X60.867 Z-10.356
X60.358 Z-10.232
X59.563 Z-10.076
X59.041 Z-10.009
X58.851 Z-9.99
X57.682 Z-9.912
X57.024 Z-9.917
X55.402 Z-10.045
X54.694 Z-10.148
X53.736 Z-10.351
X53.102 Z-10.525
X52.917 Z-10.583
X51.306 Z-11.126
X51.067 Z-11.232
X50.319 Z-11.597
X50.095 Z-11.732
X47.898 Z-13.349
X45.59 Z-15.053
X42.656 Z-17.37
X42.555 Z-17.464
X42.434 Z-17.6
X6.588
X6.584 Z-1.486
X6.562 Z-1.302
X6.536 Z-1.185
X6.5 Z-1.067
X6.428 Z-0.894
X6.346 Z-0.747
X6.246 Z-0.604
X6.128 Z-0.47
X5.994 Z-0.349
X5.845 Z-0.244
X5.683 Z-0.155
X5.511 Z-0.085
X5.331 Z-0.035
X5.144 Z-0.007
X4.805 Z0
X-0.01
X-0.046 Z0.004
X-0.08 Z0.016
X-0.114 Z0.028
X-0.15 Z0.032
G2 X-0.15 Y16.875 I0 J0.126
G1 X-0.114 Z0.028
X-0.08 Z0.016
X-0.046 Z0.004
X-0.01 Z0
X4.805
X5.144 Z-0.007
X5.331 Z-0.035
X5.511 Z-0.085
X5.683 Z-0.155
X5.845 Z-0.244
X5.994 Z-0.349
X6.128 Z-0.47
X6.246 Z-0.604
X6.346 Z-0.747
X6.444 Z-0.928
X6.493 Z-1.048
X6.54 Z-1.203
X6.576 Z-1.394
X6.588 Z-1.588
Z-17.6
X42.293
X42.371 Z-17.496
X42.494 Z-17.364
X42.758 Z-17.137
X43.077 Z-16.893
X46.042 Z-14.555
X50.238 Z-11.462
X50.463 Z-11.324
X51.056 Z-11.034
X51.37 Z-10.887
X51.733 Z-10.764
X53.062 Z-10.314
X53.776 Z-10.115
X54.766 Z-9.905
X54.956 Z-9.875
X55.417 Z-9.81
X56.992 Z-9.686
X57.284 Z-9.673
X57.768 Z-9.675
X58.912 Z-9.754
X59.102 Z-9.773
X59.481 Z-9.821
X59.669 Z-9.851
X60.324 Z-9.982
X60.789 Z-10.093
X60.97 Z-10.147
X61.878 Z-10.443
X62.238 Z-10.571
X62.413 Z-10.641
X62.589 Z-10.717
X62.936 Z-10.871
X64.458 Z-11.624
X64.781 Z-11.824
X66.341 Z-12.76
X67.175 Z-13.326
X67.56 Z-13.592
X67.692 Z-13.712
X67.805 Z-13.845
X67.89 Z-13.977
X67.973 Z-14.156
X68.022 Z-14.324
X68.046 Z-14.486
X68.051 Z-14.598
Z-17.6
X80.412
Z-1.588
X80.423 Z-1.405
X80.459 Z-1.206
X80.52 Z-1.013
X80.601 Z-0.838
X80.698 Z-0.679
X80.812 Z-0.535
X80.939 Z-0.406
X81.079 Z-0.295
X81.229 Z-0.2
X81.387 Z-0.123
X81.551 Z-0.065
X81.72 Z-0.025
X81.927 Z-0.002
X87.01 Z0
X87.046 Z0.004
X87.08 Z0.016
X87.114 Z0.028
X87.15 Z0.032
G3 X87.15 Y17.127 I0 J0.126
G1 X87.114 Z0.028
X87.08 Z0.016
X87.046 Z0.004
X87.01 Z0
X81.927 Z-0.002
X81.72 Z-0.025
X81.551 Z-0.065
X81.387 Z-0.123
X81.229 Z-0.2
X81.079 Z-0.295
X80.939 Z-0.406
X80.812 Z-0.535
X80.698 Z-0.679
X80.601 Z-0.838
X80.52 Z-1.013
X80.459 Z-1.206
X80.423 Z-1.405
X80.412 Z-1.588
Z-17.6
X68.239
Z-14.517
X68.229 Z-14.366
X68.193 Z-14.182
X68.168 Z-14.104
X68.119 Z-13.985
X68.044 Z-13.847
X67.941 Z-13.708
X67.818 Z-13.58
X67.638 Z-13.439
X66.412 Z-12.605
X66.133 Z-12.419
X64.8 Z-11.621
X64.412 Z-11.377
X64.162 Z-11.247
X62.808 Z-10.579
X62.308 Z-10.359
X61.929 Z-10.221
X60.794 Z-9.851
X60.472 Z-9.771
X59.536 Z-9.584
X59.157 Z-9.535
X58.967 Z-9.517
X57.823 Z-9.438
X57.632 Z-9.432
X57.145 Z-9.44
X55.542 Z-9.564
X55.351 Z-9.586
X54.992 Z-9.637
X54.803 Z-9.67
X53.818 Z-9.878
X53.164 Z-10.061
X51.499 Z-10.622
X51.251 Z-10.735
X50.667 Z-11.019
X50.432 Z-11.157
X49.996 Z-11.474
X46.457 Z-14.085
X43.786 Z-16.188
X43.429 Z-16.419
X43.083 Z-16.682
X42.403 Z-17.272
X42.275 Z-17.403
X42.148 Z-17.577
X42.133 Z-17.6
X6.588
X6.584 Z-1.479
X6.558 Z-1.283
X6.504 Z-1.08
X6.431 Z-0.9
X6.347 Z-0.747
X6.246 Z-0.604
X6.128 Z-0.47
X5.994 Z-0.349
X5.845 Z-0.244
X5.683 Z-0.155
X5.511 Z-0.085
X5.331 Z-0.035
X5.144 Z-0.007
X4.805 Z0
X-0.01
X-0.046 Z0.004
X-0.08 Z0.016
X-0.114 Z0.028
X-0.15 Z0.032
G2 X-0.15 Y17.379 I0 J0.126
G1 X-0.114 Z0.028
X-0.08 Z0.016
X-0.046 Z0.004
X-0.01 Z0
X4.805
X5.144 Z-0.007
X5.331 Z-0.035
X5.511 Z-0.085
X5.683 Z-0.155
X5.845 Z-0.244
X5.994 Z-0.349
X6.128 Z-0.47
X6.246 Z-0.604
X6.346 Z-0.747
X6.432 Z-0.903
X6.496 Z-1.057
X6.545 Z-1.223
X6.578 Z-1.418
X6.588 Z-1.588
Z-17.6
X41.98
X42.036 Z-17.502
X42.145 Z-17.351
X42.275 Z-17.213
X42.923 Z-16.646
X43.461 Z-16.183
X43.811 Z-15.924
X44.482 Z-15.499
X46.853 Z-13.63
X49.931 Z-11.358
X50.59 Z-10.877
X50.816 Z-10.744
X51.392 Z-10.463
X51.63 Z-10.357
X53.243 Z-9.815
X53.427 Z-9.76
X53.612 Z-9.71
X53.964 Z-9.617
X54.881 Z-9.425
X55.07 Z-9.393
X55.43 Z-9.342
X55.62 Z-9.324
X57.257 Z-9.197
X57.691 Z-9.192
X57.881 Z-9.202
X59.026 Z-9.281
X59.216 Z-9.299
X59.593 Z-9.351
X60.155 Z-9.463
X60.528 Z-9.542
X60.714 Z-9.588
X60.896 Z-9.643
X61.805 Z-9.938
X62.165 Z-10.065
X62.341 Z-10.137
X62.688 Z-10.29
X63.87 Z-10.874
X64.292 Z-11.087
X64.68 Z-11.33
X65.992 Z-12.118
X66.303 Z-12.334
X67.827 Z-13.368
X68.007 Z-13.509
X68.13 Z-13.637
X68.232 Z-13.776
X68.315 Z-13.931
X68.363 Z-14.057
X68.388 Z-14.141
X68.412 Z-14.261
X68.424 Z-14.375
X68.427 Z-17.6
X80.412
Z-1.588
X80.423 Z-1.405
X80.459 Z-1.206
X80.52 Z-1.013
X80.601 Z-0.838
X80.698 Z-0.679
X80.812 Z-0.535
X80.939 Z-0.406
X81.079 Z-0.295
X81.229 Z-0.2
X81.387 Z-0.123
X81.551 Z-0.065
X81.72 Z-0.025
X81.927 Z-0.002
X87.01 Z0
X87.046 Z0.004
X87.08 Z0.016
X87.114 Z0.028
X87.15 Z0.032
G3 X87.15 Y17.631 I0 J0.126
G1 X87.114 Z0.028
X87.08 Z0.016
X87.046 Z0.004
X87.01 Z0
X81.927 Z-0.002
X81.72 Z-0.025
X81.551 Z-0.065
X81.387 Z-0.123
X81.229 Z-0.2
X81.079 Z-0.295
X80.939 Z-0.406
X80.812 Z-0.535
X80.698 Z-0.679
X80.601 Z-0.838
X80.52 Z-1.013
X80.459 Z-1.206
X80.423 Z-1.405
X80.412 Z-1.588
Z-17.6
X68.586
X68.583 Z-14.328
X68.558 Z-14.144
X68.51 Z-13.966
X68.45 Z-13.823
X68.391 Z-13.714
X68.292 Z-13.572
X68.172 Z-13.441
X67.996 Z-13.296
X67.648 Z-13.048
X66.162 Z-12.039
X65.851 Z-11.819
X64.56 Z-11.04
X64.156 Z-10.788
X62.484 Z-9.963
X62.114 Z-9.806
X61.846 Z-9.712
X60.686 Z-9.337
X60.387 Z-9.267
X59.637 Z-9.117
X59.449 Z-9.085
X59.26 Z-9.06
X58.879 Z-9.03
X57.735 Z-8.953
X57.323 Z-8.958
X55.461 Z-9.105
X55.137 Z-9.151
X54.948 Z-9.184
X54.031 Z-9.376
X53.844 Z-9.421
X53.494 Z-9.517
X53.31 Z-9.574
X51.697 Z-10.117
X51.383 Z-10.264
X50.953 Z-10.474
X50.719 Z-10.616
X47.292 Z-13.142
X45.154 Z-14.83
X44.523 Z-15.221
X44.128 Z-15.474
X43.779 Z-15.734
X43.242 Z-16.197
X42.162 Z-17.141
X42.031 Z-17.279
X41.922 Z-17.43
X41.83 Z-17.6
X6.588
X6.587 Z-1.562
X6.57 Z-1.352
X6.518 Z-1.123
X6.455 Z-0.953
X6.346 Z-0.747
X6.246 Z-0.603
X6.128 Z-0.47
X5.994 Z-0.349
X5.845 Z-0.243
X5.683 Z-0.155
X5.511 Z-0.085
X5.33 Z-0.035
X5.144 Z-0.007
X4.805 Z0
X-0.01
X-0.046 Z0.004
X-0.08 Z0.016
X-0.114 Z0.028
X-0.15 Z0.032
G2 X-0.15 Y17.883 I0 J0.126
G1 X-0.114 Z0.028
X-0.08 Z0.016
X-0.046 Z0.004
X-0.01 Z0
X5.049 Z-0.001
X5.238 Z-0.018
X5.423 Z-0.057
X5.6 Z-0.118
X5.767 Z-0.198
X5.923 Z-0.296
X6.065 Z-0.41
X6.191 Z-0.538
X6.301 Z-0.677
X6.392 Z-0.825
X6.481 Z-1.015
X6.525 Z-1.145
X6.547 Z-1.229
X6.578 Z-1.414
X6.587 Z-1.574
X6.588 Z-17.6
X41.687
X41.734 Z-17.491
X41.828 Z-17.326
X41.941 Z-17.179
X42.073 Z-17.046
X43.73 Z-15.6
X44.124 Z-15.263
X44.473 Z-15.005
X45.193 Z-14.549
X45.785 Z-14.185
X47.706 Z-12.673
X50.803 Z-10.387
X51.061 Z-10.221
X51.405 Z-10.049
X51.806 Z-9.86
X53.538 Z-9.28
X54.029 Z-9.148
X55.031 Z-8.939
X55.474 Z-8.87
X55.665 Z-8.853
X57.361 Z-8.721
X57.727 Z-8.713
X59.182 Z-8.811
X59.513 Z-8.85
X60.404 Z-9.028
X60.589 Z-9.07
X60.771 Z-9.122
X61.862 Z-9.477
X62.042 Z-9.54
X62.353 Z-9.669
X63.745 Z-10.354
X64.082 Z-10.525
X64.551 Z-10.819
X65.536 Z-11.412
X65.695 Z-11.512
X66.145 Z-11.833
X67.442 Z-12.71
X68.144 Z-13.223
X68.32 Z-13.368
X68.44 Z-13.499
X68.539 Z-13.641
X68.622 Z-13.8
X68.663 Z-13.908
X68.705 Z-14.061
X68.729 Z-14.227
X68.734 Z-14.342
Z-17.6
X80.412
Z-1.588
X80.423 Z-1.405
X80.459 Z-1.206
X80.52 Z-1.013
X80.601 Z-0.838
X80.698 Z-0.679
X80.812 Z-0.535
X80.939 Z-0.406
X81.079 Z-0.295
X81.229 Z-0.2
X81.387 Z-0.123
X81.551 Z-0.065
X81.72 Z-0.025
X81.927 Z-0.002
X87.01 Z0
X87.046 Z0.004
X87.08 Z0.016
X87.114 Z0.028
X87.15 Z0.032
G3 X87.15 Y18.135 I0 J0.126
G1 X87.114 Z0.028
X87.08 Z0.016
X87.046 Z0.004
X87.01 Z0
X81.927 Z-0.002
X81.72 Z-0.025
X81.551 Z-0.065
X81.387 Z-0.123
X81.229 Z-0.2
X81.079 Z-0.295
X80.939 Z-0.406
X80.812 Z-0.535
X80.698 Z-0.679
X80.601 Z-0.838
X80.52 Z-1.013
X80.459 Z-1.206
X80.423 Z-1.405
X80.412 Z-1.588
Z-17.6
X68.883
Z-14.268
X68.876 Z-14.132
X68.851 Z-13.978
X68.802 Z-13.808
X68.754 Z-13.69
X68.688 Z-13.568
X68.588 Z-13.426
X68.469 Z-13.295
X68.293 Z-13.15
X67.254 Z-12.386
X65.989 Z-11.527
X65.46 Z-11.152
X64.416 Z-10.518
X64.012 Z-10.264
X63.763 Z-10.133
X62.236 Z-9.382
X61.909 Z-9.252
X60.611 Z-8.832
X60.426 Z-8.789
X59.448 Z-8.596
X59.11 Z-8.565
X57.775 Z-8.474
X57.482 Z-8.478
X55.491 Z-8.635
X55.115 Z-8.693
X54.073 Z-8.911
X53.72 Z-9.005
X53.536 Z-9.059
X51.922 Z-9.601
X51.762 Z-9.672
X51.264 Z-9.916
X51.04 Z-10.051
X48.227 Z-12.122
X46.77 Z-13.271
X46.47 Z-13.507
X45.818 Z-13.905
X44.863 Z-14.506
X44.579 Z-14.706
X44.244 Z-14.981
X41.925 Z-17.007
X41.828 Z-17.106
X41.715 Z-17.253
X41.62 Z-17.418
X41.546 Z-17.6
X6.588
Z-1.588
X6.579 Z-1.428
X6.555 Z-1.269
X6.498 Z-1.063
X6.425 Z-0.889
X6.301 Z-0.677
X6.191 Z-0.538
X6.065 Z-0.41
X5.923 Z-0.296
X5.767 Z-0.198
X5.6 Z-0.118
X5.423 Z-0.057
X5.238 Z-0.018
X5.049 Z-0.001
X-0.01 Z0
X-0.046 Z0.004
X-0.08 Z0.016
X-0.114 Z0.028
X-0.15 Z0.032
G2 X-0.15 Y18.387 I0 J0.126
G1 X-0.114 Z0.028
X-0.08 Z0.016
X-0.046 Z0.004
X-0.01 Z0
X4.805
X5.144 Z-0.007
X5.33 Z-0.035
X5.511 Z-0.085
X5.683 Z-0.155
X5.845 Z-0.243
X5.994 Z-0.349
X6.128 Z-0.47
X6.246 Z-0.603
X6.346 Z-0.747
X6.44 Z-0.919
X6.512 Z-1.104
X6.561 Z-1.297
X6.585 Z-1.501
X6.588 Z-17.6
X41.41
X41.417 Z-17.578
X41.487 Z-17.386
X41.579 Z-17.215
X41.689 Z-17.064
X41.815 Z-16.931
X44.407 Z-14.667
X44.802 Z-14.331
X45.153 Z-14.074
X46.179 Z-13.426
X47.118 Z-12.853
X48.589 Z-11.693
X51.177 Z-9.785
X51.401 Z-9.647
X51.804 Z-9.448
X52.052 Z-9.336
X53.575 Z-8.828
X53.759 Z-8.769
X54.019 Z-8.698
X55.196 Z-8.448
X55.505 Z-8.4
X57.521 Z-8.241
X57.762 Z-8.233
X59.336 Z-8.34
X59.523 Z-8.366
X60.461 Z-8.554
X60.642 Z-8.6
X61.733 Z-8.955
X62.045 Z-9.063
X62.261 Z-9.163
X63.289 Z-9.67
X63.866 Z-9.959
X64.271 Z-10.212
X64.906 Z-10.602
X65.309 Z-10.848
X65.838 Z-11.225
X66.945 Z-11.978
X68.465 Z-13.094
X68.62 Z-13.226
X68.738 Z-13.358
X68.836 Z-13.501
X68.9 Z-13.622
X68.949 Z-13.739
X68.997 Z-13.906
X69.022 Z-14.05
X69.031 Z-14.208
Z-17.6
X80.412
Z-1.588
X80.423 Z-1.405
X80.459 Z-1.206
X80.52 Z-1.013
X80.601 Z-0.838
X80.698 Z-0.679
X80.812 Z-0.535
X80.939 Z-0.406
X81.079 Z-0.295
X81.229 Z-0.2
X81.387 Z-0.123
X81.551 Z-0.065
X81.72 Z-0.025
X81.927 Z-0.002
X87.01 Z0
X87.046 Z0.004
X87.08 Z0.016
X87.114 Z0.028
X87.15 Z0.032
G3 X87.15 Y18.639 I0 J0.126
G1 X87.114 Z0.028
X87.08 Z0.016
X87.046 Z0.004
X87.01 Z0
X81.927 Z-0.002
X81.72 Z-0.025
X81.551 Z-0.065
X81.387 Z-0.123
X81.229 Z-0.2
X81.079 Z-0.295
X80.939 Z-0.406
X80.812 Z-0.535
X80.698 Z-0.679
X80.601 Z-0.838
X80.52 Z-1.013
X80.459 Z-1.206
X80.423 Z-1.405
X80.412 Z-1.588
Z-17.6
X69.149
Z-14.186
X69.144 Z-14.056
X69.119 Z-13.885
X69.095 Z-13.784
X69.025 Z-13.587
X68.954 Z-13.449
X68.858 Z-13.305
X68.743 Z-13.17
X68.572 Z-13.02
X67.968 Z-12.546
X66.718 Z-11.626
X65.69 Z-10.926
X65.084 Z-10.495
X64.125 Z-9.905
X63.72 Z-9.655
X62.027 Z-8.819
X61.851 Z-8.755
X60.592 Z-8.375
X59.47 Z-8.147
X58.234 Z-8.028
X57.758 Z-7.994
X57.391 Z-8.017
X55.676 Z-8.15
X55.485 Z-8.17
X55.147 Z-8.231
X54.23 Z-8.423
X54.043 Z-8.466
X53.878 Z-8.511
X53.693 Z-8.569
X52.17 Z-9.076
X51.922 Z-9.187
X51.52 Z-9.388
X51.263 Z-9.556
X49.019 Z-11.212
X47.786 Z-12.185
X46.672 Z-12.864
X45.484 Z-13.614
X45.133 Z-13.871
X44.738 Z-14.207
X42.29 Z-16.345
X42.004 Z-16.578
X41.679 Z-16.876
X41.551 Z-17.014
X41.443 Z-17.166
X41.354 Z-17.336
X41.287 Z-17.529
X41.269 Z-17.6
X6.588
X6.584 Z-1.481
X6.559 Z-1.289
X6.531 Z-1.167
X6.462 Z-0.968
X6.392 Z-0.825
X6.301 Z-0.677
X6.191 Z-0.538
X6.065 Z-0.41
X5.923 Z-0.296
X5.767 Z-0.198
X5.6 Z-0.118
X5.423 Z-0.057
X5.238 Z-0.018
X5.049 Z-0.001
X-0.01 Z0
X-0.046 Z0.004
X-0.08 Z0.016
X-0.114 Z0.028
X-0.15 Z0.032
G2 X-0.15 Y18.891 I0 J0.126
G1 X-0.114 Z0.028
X-0.08 Z0.016
X-0.046 Z0.004
X-0.01 Z0
X4.805
X5.144 Z-0.007
X5.33 Z-0.035
X5.511 Z-0.085
X5.683 Z-0.155
X5.845 Z-0.243
X5.994 Z-0.349
X6.128 Z-0.47
X6.246 Z-0.603
X6.346 Z-0.747
X6.443 Z-0.926
X6.492 Z-1.045
X6.54 Z-1.201
X6.575 Z-1.391
X6.587 Z-1.557
X6.588 Z-17.6
X41.123 Z-17.595
X41.174 Z-17.393
X41.206 Z-17.305
X41.293 Z-17.129
X41.399 Z-16.974
X41.522 Z-16.837
X42.132 Z-16.271
X42.459 Z-15.985
X42.765 Z-15.752
X45.069 Z-13.747
X45.464 Z-13.411
X45.815 Z-13.154
X47.166 Z-12.303
X48.443 Z-11.525
X49.416 Z-10.756
X51.385 Z-9.302
X51.602 Z-9.152
X51.806 Z-9.039
X52.241 Z-8.834
X53.755 Z-8.329
X54.086 Z-8.229
X54.273 Z-8.186
X55.377 Z-7.955
X55.526 Z-7.931
X56.119 Z-7.882
X56.999 Z-7.82
X57.68 Z-7.806
X57.897 Z-7.815
X59.461 Z-8.009
X60.549 Z-8.227
X61.899 Z-8.59
X62.164 Z-8.688
X62.688 Z-8.917
X63.544 Z-9.337
X63.749 Z-9.452
X64.907 Z-10.173
X65.529 Z-10.616
X66.457 Z-11.252
X67.61 Z-12.102
X68.783 Z-13.038
X68.907 Z-13.166
X69.013 Z-13.304
X69.095 Z-13.444
X69.168 Z-13.612
X69.217 Z-13.777
X69.241 Z-13.909
X69.254 Z-14.038
X69.256 Z-17.6
X80.412
Z-1.588
X80.423 Z-1.405
X80.459 Z-1.206
X80.52 Z-1.013
X80.601 Z-0.838
X80.698 Z-0.679
X80.812 Z-0.535
X80.939 Z-0.406
X81.079 Z-0.295
X81.229 Z-0.2
X81.387 Z-0.123
X81.551 Z-0.065
X81.72 Z-0.025
X81.927 Z-0.002
X87.01 Z0
X87.046 Z0.004
X87.08 Z0.016
X87.114 Z0.028
X87.15 Z0.032
G3 X87.15 Y19.143 I0 J0.126
G1 X87.114 Z0.028
X87.08 Z0.016
X87.046 Z0.004
X87.01 Z0
X81.927 Z-0.002
X81.72 Z-0.025
X81.551 Z-0.065
X81.387 Z-0.123
X81.229 Z-0.2
X81.079 Z-0.295
X80.939 Z-0.406
X80.812 Z-0.535
X80.698 Z-0.679
X80.601 Z-0.838
X80.52 Z-1.013
X80.459 Z-1.206
X80.423 Z-1.405
X80.412 Z-1.588
Z-17.6
X69.362
Z-14.051
X69.351 Z-13.868
X69.314 Z-13.674
X69.259 Z-13.505
X69.228 Z-13.433
X69.167 Z-13.314
X69.071 Z-13.169
X68.956 Z-13.035
X68.785 Z-12.885
X67.788 Z-12.096
X67.195 Z-11.616
X66.197 Z-10.878
X65.348 Z-10.293
X64.726 Z-9.849
X64.568 Z-9.749
X63.571 Z-9.127
X63.275 Z-8.987
X62.746 Z-8.769
X62.118 Z-8.543
X61.846 Z-8.461
X60.547 Z-8.143
X59.517 Z-7.933
X57.91 Z-7.693
X57.239 Z-7.657
X56.556 Z-7.647
X55.893 Z-7.668
X55.507 Z-7.701
X54.145 Z-7.988
X53.86 Z-8.075
X52.345 Z-8.579
X51.876 Z-8.804
X51.652 Z-8.943
X49.849 Z-10.273
X49.1 Z-10.864
X47.642 Z-11.751
X46.13 Z-12.705
X45.78 Z-12.963
X45.386 Z-13.3
X43.369 Z-15.061
X42.766 Z-15.517
X42.438 Z-15.802
X41.407 Z-16.758
X41.282 Z-16.891
X41.173 Z-17.044
X41.083 Z-17.216
X41.014 Z-17.413
X40.977 Z-17.6
X6.588
X6.587 Z-1.567
X6.576 Z-1.398
X6.543 Z-1.213
X6.494 Z-1.05
X6.445 Z-0.93
X6.346 Z-0.747
X6.246 Z-0.603
X6.128 Z-0.47
X5.994 Z-0.349
X5.845 Z-0.243
X5.683 Z-0.155
X5.511 Z-0.085
X5.33 Z-0.035
X5.144 Z-0.007
X4.805 Z0
X-0.01
X-0.046 Z0.004
X-0.08 Z0.016
X-0.114 Z0.028
X-0.15 Z0.032
G2 X-0.15 Y19.395 I0 J0.126
G1 X-0.114 Z0.028
X-0.08 Z0.016
X-0.046 Z0.004
X-0.01 Z0
X4.805
X5.144 Z-0.007
X5.33 Z-0.035
X5.511 Z-0.085
X5.683 Z-0.155
X5.845 Z-0.243
X5.994 Z-0.349
X6.128 Z-0.47
X6.246 Z-0.603
X6.346 Z-0.747
X6.429 Z-0.896
X6.503 Z-1.075
X6.539 Z-1.2
X6.575 Z-1.392
X6.587 Z-1.566
X6.588 Z-17.6
X20.587
Z-14.056
X20.599 Z-13.959
X20.625 Z-13.874
X20.652 Z-13.816
X20.706 Z-13.732
X20.781 Z-13.656
X20.857 Z-13.606
X20.948 Z-13.568
X21.811 Z-13.319
X21.952 Z-13.296
X22.043 Z-13.301
X22.135 Z-13.32
X22.222 Z-13.35
X22.389 Z-13.423
X22.496 Z-13.491
X22.594 Z-13.586
X22.643 Z-13.671
X22.655 Z-13.71
X22.663 Z-13.78
Z-17.6
X40.836
X40.849 Z-17.492
X40.884 Z-17.333
X40.919 Z-17.225
X41.001 Z-17.047
X41.102 Z-16.888
X41.228 Z-16.741
X42.745 Z-15.331
X43.079 Z-15.045
X43.845 Z-14.471
X45.717 Z-12.84
X46.112 Z-12.503
X46.462 Z-12.245
X48.136 Z-11.19
X49.757 Z-10.204
X50.323 Z-9.758
X51.712 Z-8.733
X51.967 Z-8.562
X52.274 Z-8.404
X52.514 Z-8.3
X53.603 Z-7.94
X54.183 Z-7.752
X54.842 Z-7.612
X55.265 Z-7.533
X55.668 Z-7.489
X56.302 Z-7.499
X57.069 Z-7.542
X57.913 Z-7.62
X59.433 Z-7.877
X60.182 Z-8.028
X61.396 Z-8.293
X62.045 Z-8.448
X62.776 Z-8.667
X63.407 Z-8.886
X63.664 Z-9
X63.997 Z-9.181
X64.545 Z-9.525
X65.306 Z-10.069
X65.782 Z-10.397
X66.245 Z-10.731
X66.778 Z-11.13
X67.594 Z-11.793
X68.891 Z-12.817
X69.062 Z-12.967
X69.177 Z-13.102
X69.273 Z-13.246
X69.339 Z-13.374
X69.388 Z-13.496
X69.436 Z-13.673
X69.465 Z-13.876
X69.468 Z-17.6
X80.412
Z-1.588
X80.423 Z-1.405
X80.459 Z-1.206
X80.52 Z-1.013
X80.601 Z-0.838
X80.698 Z-0.679
X80.812 Z-0.535
X80.939 Z-0.406
X81.079 Z-0.295
X81.229 Z-0.2
X81.387 Z-0.123
X81.551 Z-0.065
X81.72 Z-0.025
X81.927 Z-0.002
X87.01 Z0
X87.046 Z0.004
X87.08 Z0.016
X87.114 Z0.028
X87.15 Z0.032
G3 X87.15 Y19.647 I0 J0.126
G1 X87.114 Z0.028
X87.08 Z0.016
X87.046 Z0.004
X87.01 Z0
X81.927 Z-0.002
X81.72 Z-0.025
X81.551 Z-0.065
X81.387 Z-0.123
X81.229 Z-0.2
X81.079 Z-0.295
X80.939 Z-0.406
X80.812 Z-0.535
X80.698 Z-0.679
X80.601 Z-0.838
X80.52 Z-1.013
X80.459 Z-1.206
X80.423 Z-1.405
X80.412 Z-1.588
Z-17.6
X69.575
X69.571 Z-13.804
X69.558 Z-13.693
X69.522 Z-13.519
X69.485 Z-13.404
X69.432 Z-13.279
X69.332 Z-13.102
X69.226 Z-12.963
X69.062 Z-12.801
X67.4 Z-11.49
X66.288 Z-10.586
X65.677 Z-10.131
X64.834 Z-9.537
X64.368 Z-9.211
X64.033 Z-9.04
X63.596 Z-8.854
X63.328 Z-8.76
X62.593 Z-8.553
X61.85 Z-8.375
X59.062 Z-7.803
X57.935 Z-7.592
X57.083 Z-7.477
X56.227 Z-7.392
X55.69 Z-7.36
X55.186 Z-7.379
X54.758 Z-7.421
X54.313 Z-7.495
X54.083 Z-7.56
X52.568 Z-8.064
X52.254 Z-8.211
X52.027 Z-8.342
X51.674 Z-8.596
X50.751 Z-9.278
X50.414 Z-9.543
X48.629 Z-10.628
X46.794 Z-11.785
X46.443 Z-12.043
X46.049 Z-12.379
X44.464 Z-13.763
X43.861 Z-14.221
X43.333 Z-14.619
X43.005 Z-14.905
X41.127 Z-16.647
X40.999 Z-16.787
X40.892 Z-16.94
X40.805 Z-17.112
X40.739 Z-17.307
X40.712 Z-17.439
X40.696 Z-17.6
X23.65
X23.649 Z-13.645
X23.639 Z-13.53
X23.615 Z-13.433
X23.547 Z-13.288
X23.454 Z-13.166
X23.389 Z-13.105
X23.323 Z-13.057
X23.243 Z-13.012
X23.162 Z-12.98
X22.981 Z-12.941
X22.602 Z-12.894
X22.123 Z-12.865
X21.928 Z-12.862
X21.746 Z-12.887
X20.842 Z-13.101
X20.749 Z-13.131
X20.585 Z-13.211
X20.298 Z-13.399
X20.067 Z-13.576
X19.921 Z-13.708
X19.785 Z-13.857
X19.721 Z-13.946
X19.669 Z-14.037
X19.643 Z-14.096
X19.616 Z-14.183
X19.606 Z-14.271
Z-17.6
X6.588
X6.587 Z-1.565
X6.574 Z-1.382
X6.535 Z-1.181
X6.463 Z-0.972
X6.392 Z-0.825
X6.301 Z-0.677
X6.191 Z-0.538
X6.065 Z-0.41
X5.923 Z-0.296
X5.767 Z-0.198
X5.6 Z-0.118
X5.423 Z-0.057
X5.238 Z-0.018
X5.049 Z-0.001
X-0.01 Z0
X-0.046 Z0.004
X-0.08 Z0.016
X-0.114 Z0.028
X-0.15 Z0.032
G2 X-0.15 Y19.899 I0 J0.126
G1 X-0.114 Z0.028
X-0.08 Z0.016
X-0.046 Z0.004
X-0.01 Z0
X4.805
X5.144 Z-0.007
X5.33 Z-0.035
X5.511 Z-0.085
X5.683 Z-0.155
X5.845 Z-0.243
X5.994 Z-0.349
X6.128 Z-0.47
X6.246 Z-0.603
X6.346 Z-0.747
X6.447 Z-0.934
X6.496 Z-1.055
X6.544 Z-1.22
X6.577 Z-1.402
X6.587 Z-1.567
X6.588 Z-17.6
X18.933
X18.937 Z-14.285
X18.953 Z-14.187
X18.985 Z-14.077
X19.027 Z-13.975
X19.084 Z-13.869
X19.185 Z-13.733
X19.263 Z-13.657
X19.322 Z-13.611
X19.667 Z-13.388
X20.062 Z-13.17
X20.577 Z-12.921
X20.773 Z-12.851
X21.687 Z-12.646
X21.858 Z-12.617
X22.228 Z-12.598
X22.897 Z-12.579
X23.086 Z-12.589
X23.269 Z-12.631
X23.532 Z-12.735
X23.695 Z-12.822
X23.844 Z-12.926
X23.971 Z-13.046
X24.069 Z-13.18
X24.118 Z-13.28
X24.154 Z-13.405
X24.166 Z-13.525
Z-17.6
X40.555
X40.56 Z-17.556
X40.58 Z-17.358
X40.608 Z-17.23
X40.675 Z-17.037
X40.765 Z-16.867
X40.873 Z-16.715
X41.001 Z-16.578
X43.3 Z-14.445
X43.629 Z-14.16
X44.922 Z-13.191
X46.557 Z-11.764
X46.894 Z-11.49
X47.178 Z-11.29
X49.103 Z-10.078
X51.028 Z-8.909
X51.115 Z-8.848
X51.78 Z-8.354
X52.201 Z-8.051
X52.443 Z-7.915
X52.711 Z-7.795
X53.736 Z-7.454
X53.985 Z-7.381
X54.322 Z-7.307
X54.667 Z-7.277
X55.146 Z-7.264
X55.727 Z-7.281
X56.202 Z-7.328
X57.054 Z-7.446
X57.901 Z-7.593
X60.228 Z-8.083
X60.762 Z-8.189
X62.527 Z-8.523
X63.323 Z-8.708
X63.819 Z-8.859
X64.219 Z-9.007
X64.516 Z-9.152
X64.758 Z-9.295
X65.266 Z-9.65
X65.824 Z-10.063
X67.084 Z-11.088
X68.644 Z-12.322
X69.103 Z-12.709
X69.268 Z-12.866
X69.379 Z-13.003
X69.485 Z-13.173
X69.571 Z-13.362
X69.632 Z-13.567
X69.656 Z-13.708
X69.668 Z-13.887
Z-17.6
X80.412
Z-1.588
X80.423 Z-1.405
X80.459 Z-1.206
X80.52 Z-1.013
X80.601 Z-0.838
X80.698 Z-0.679
X80.812 Z-0.535
X80.939 Z-0.406
X81.079 Z-0.295
X81.229 Z-0.2
X81.387 Z-0.123
X81.551 Z-0.065
X81.72 Z-0.025
X81.927 Z-0.002
X87.01 Z0
X87.046 Z0.004
X87.08 Z0.016
X87.114 Z0.028
X87.15 Z0.032
G3 X87.15 Y20.151 I0 J0.126
G1 X87.114 Z0.028
X87.08 Z0.016
X87.046 Z0.004
X87.01 Z0
X81.927 Z-0.002
X81.72 Z-0.025
X81.551 Z-0.065
X81.387 Z-0.123
X81.229 Z-0.2
X81.079 Z-0.295
X80.939 Z-0.406
X80.812 Z-0.535
X80.698 Z-0.679
X80.601 Z-0.838
X80.52 Z-1.013
X80.459 Z-1.206
X80.423 Z-1.405
X80.412 Z-1.588
Z-17.6
X69.725
X69.721 Z-13.747
X69.705 Z-13.606
X69.68 Z-13.484
X69.643 Z-13.353
X69.567 Z-13.168
X69.484 Z-13.017
X69.382 Z-12.875
X69.262 Z-12.744
X68.349 Z-11.945
X67.904 Z-11.588
X66.868 Z-10.768
X65.387 Z-9.561
X65.114 Z-9.357
X64.839 Z-9.2
X64.496 Z-9.039
X64.118 Z-8.9
X63.683 Z-8.778
X63.124 Z-8.656
X62.371 Z-8.523
X61.614 Z-8.413
X60.501 Z-8.23
X59.494 Z-8.013
X57.577 Z-7.565
X56.734 Z-7.397
X55.886 Z-7.258
X55.316 Z-7.2
X54.739 Z-7.172
X54.425 Z-7.174
X54.019 Z-7.218
X53.68 Z-7.278
X53.346 Z-7.364
X52.847 Z-7.528
X52.617 Z-7.626
X52.369 Z-7.764
X52.153 Z-7.915
X51.776 Z-8.193
X49.515 Z-9.568
X47.508 Z-10.831
X47.216 Z-11.037
X46.88 Z-11.312
X45.454 Z-12.557
X43.922 Z-13.703
X43.593 Z-13.987
X40.846 Z-16.537
X40.741 Z-16.651
X40.632 Z-16.803
X40.541 Z-16.975
X40.472 Z-17.171
X40.438 Z-17.334
X40.424 Z-17.538
X40.423 Z-17.6
X24.608
Z-13.498
X24.598 Z-13.361
X24.564 Z-13.21
X24.515 Z-13.084
X24.466 Z-12.994
X24.413 Z-12.914
X24.298 Z-12.787
X24.158 Z-12.679
X23.996 Z-12.595
X23.731 Z-12.498
X23.456 Z-12.427
X23.08 Z-12.363
X22.891 Z-12.35
X21.935 Z-12.392
X21.722 Z-12.424
X20.826 Z-12.626
X20.62 Z-12.69
X19.522 Z-13.17
X19.289 Z-13.281
X19.138 Z-13.374
X18.934 Z-13.549
X18.75 Z-13.739
X18.639 Z-13.882
X18.535 Z-14.049
X18.485 Z-14.158
X18.449 Z-14.262
X18.424 Z-14.381
X18.417 Z-14.483
Z-17.6
X6.588
X6.587 Z-1.561
X6.569 Z-1.346
X6.533 Z-1.173
X6.453 Z-0.949
X6.346 Z-0.747
X6.246 Z-0.603
X6.128 Z-0.47
X5.994 Z-0.349
X5.845 Z-0.243
X5.683 Z-0.155
X5.511 Z-0.085
X5.33 Z-0.035
X5.144 Z-0.007
X4.805 Z0
X-0.01
X-0.046 Z0.004
X-0.08 Z0.016
X-0.114 Z0.028
X-0.15 Z0.032
G2 X-0.15 Y20.403 I0 J0.126
G1 X-0.114 Z0.028
X-0.08 Z0.016
X-0.046 Z0.004
X-0.01 Z0
X4.805
X5.144 Z-0.007
X5.331 Z-0.035
X5.511 Z-0.085
X5.683 Z-0.155
X5.845 Z-0.244
X5.994 Z-0.349
X6.128 Z-0.47
X6.246 Z-0.604
X6.346 Z-0.747
X6.44 Z-0.919
X6.512 Z-1.104
X6.561 Z-1.298
X6.585 Z-1.504
X6.588 Z-17.6
X18.001
Z-14.544
X18.011 Z-14.407
X18.052 Z-14.228
X18.083 Z-14.139
X18.172 Z-13.957
X18.23 Z-13.873
X18.287 Z-13.803
X18.477 Z-13.616
X18.75 Z-13.398
X19.076 Z-13.183
X19.353 Z-13.031
X20.554 Z-12.506
X20.727 Z-12.441
X20.987 Z-12.376
X21.547 Z-12.248
X21.885 Z-12.178
X22.713 Z-12.136
X22.94 Z-12.148
X23.711 Z-12.264
X23.966 Z-12.313
X24.14 Z-12.376
X24.301 Z-12.463
X24.446 Z-12.572
X24.574 Z-12.696
X24.681 Z-12.833
X24.766 Z-12.981
X24.83 Z-13.146
X24.863 Z-13.295
X24.875 Z-13.423
X24.876 Z-17.6
X40.266
X40.268 Z-17.376
X40.295 Z-17.176
X40.327 Z-17.056
X40.359 Z-16.967
X40.446 Z-16.79
X40.552 Z-16.634
X40.675 Z-16.498
X40.96 Z-16.241
X43.889 Z-13.527
X44.22 Z-13.243
X45.973 Z-11.931
X46.981 Z-11.053
X47.441 Z-10.66
X47.791 Z-10.403
X50.04 Z-8.986
X52.518 Z-7.481
X52.783 Z-7.342
X52.948 Z-7.28
X53.283 Z-7.201
X53.709 Z-7.136
X54.144 Z-7.103
X54.576 Z-7.099
X55.105 Z-7.145
X55.672 Z-7.223
X56.329 Z-7.347
X57.168 Z-7.535
X57.989 Z-7.752
X59.554 Z-8.169
X60.447 Z-8.362
X61.706 Z-8.536
X62.42 Z-8.599
X63.348 Z-8.722
X63.818 Z-8.803
X64.282 Z-8.912
X64.644 Z-9.027
X64.952 Z-9.15
X65.158 Z-9.256
X65.387 Z-9.416
X66.646 Z-10.443
X67.754 Z-11.322
X68.205 Z-11.708
X69.316 Z-12.683
X69.436 Z-12.815
X69.537 Z-12.957
X69.632 Z-13.13
X69.705 Z-13.317
X69.753 Z-13.515
X69.778 Z-13.747
X69.779 Z-17.6
X80.412
Z-1.588
X80.423 Z-1.405
X80.459 Z-1.206
X80.52 Z-1.013
X80.601 Z-0.838
X80.698 Z-0.679
X80.812 Z-0.535
X80.939 Z-0.406
X81.079 Z-0.295
X81.229 Z-0.2
X81.387 Z-0.123
X81.551 Z-0.065
X81.72 Z-0.025
X81.927 Z-0.002
X87.01 Z0
X87.046 Z0.004
X87.08 Z0.016
X87.114 Z0.028
X87.15 Z0.032
G3 X87.15 Y20.655 I0 J0.126
G1 X87.114 Z0.028
X87.08 Z0.016
X87.046 Z0.004
X87.01 Z0
X81.927 Z-0.002
X81.72 Z-0.025
X81.551 Z-0.065
X81.387 Z-0.123
X81.229 Z-0.2
X81.079 Z-0.295
X80.939 Z-0.406
X80.812 Z-0.535
X80.698 Z-0.679
X80.601 Z-0.838
X80.52 Z-1.013
X80.459 Z-1.206
X80.423 Z-1.405
X80.412 Z-1.588
Z-17.6
X69.833
X69.83 Z-13.642
X69.802 Z-13.428
X69.753 Z-13.241
X69.68 Z-13.058
X69.591 Z-12.896
X69.49 Z-12.754
X69.37 Z-12.623
X68.727 Z-12.065
X68.023 Z-11.447
X67.524 Z-11.003
X67.083 Z-10.642
X66.276 Z-9.996
X65.609 Z-9.454
X65.379 Z-9.297
X65.131 Z-9.162
X64.872 Z-9.053
X64.507 Z-8.95
X64.134 Z-8.872
X63.566 Z-8.796
X63.09 Z-8.759
X62.347 Z-8.706
X61.763 Z-8.691
X61.585 Z-8.692
X60.446 Z-8.577
X59.527 Z-8.377
X58.359 Z-8.02
X58.112 Z-7.946
X57.506 Z-7.739
X56.773 Z-7.524
X55.773 Z-7.271
X55.212 Z-7.157
X54.694 Z-7.078
X54.265 Z-7.047
X53.779 Z-7.041
X53.326 Z-7.067
X53.07 Z-7.098
X52.818 Z-7.16
X52.571 Z-7.243
X52.332 Z-7.345
X52.102 Z-7.472
X50.484 Z-8.456
X48.154 Z-9.922
X47.862 Z-10.129
X47.527 Z-10.405
X46.533 Z-11.273
X44.551 Z-12.757
X44.219 Z-13.037
X41.363 Z-15.679
X40.507 Z-16.445
X40.384 Z-16.581
X40.278 Z-16.737
X40.191 Z-16.914
X40.159 Z-17.003
X40.127 Z-17.122
X40.099 Z-17.32
X40.097 Z-17.6
X25.124
X25.121 Z-13.315
X25.097 Z-13.15
X25.072 Z-13.06
X25.001 Z-12.886
X24.929 Z-12.765
X24.822 Z-12.628
X24.694 Z-12.503
X24.549 Z-12.394
X24.39 Z-12.3
X24.132 Z-12.188
X23.953 Z-12.125
X23.723 Z-12.076
X22.751 Z-11.927
X22.561 Z-11.923
X21.975 Z-11.951
X21.762 Z-11.986
X21.116 Z-12.134
X20.744 Z-12.224
X20.579 Z-12.284
X19.545 Z-12.734
X19.313 Z-12.856
X18.516 Z-13.332
X18.29 Z-13.483
X18.153 Z-13.603
X17.975 Z-13.8
X17.868 Z-13.945
X17.773 Z-14.104
X17.69 Z-14.292
X17.651 Z-14.426
X17.63 Z-14.556
X17.626 Z-14.644
Z-17.6
X6.588
Z-1.588
X6.577 Z-1.407
X6.546 Z-1.228
X6.477 Z-1.005
X6.392 Z-0.825
X6.301 Z-0.677
X6.191 Z-0.538
X6.065 Z-0.41
X5.923 Z-0.296
X5.767 Z-0.198
X5.6 Z-0.118
X5.423 Z-0.057
X5.238 Z-0.018
X5.049 Z-0.001
X-0.01 Z0
X-0.046 Z0.004
X-0.08 Z0.016
X-0.114 Z0.028
X-0.15 Z0.032
G2 X-0.15 Y20.907 I0 J0.126
G1 X-0.114 Z0.028
X-0.08 Z0.016
X-0.046 Z0.004
X-0.01 Z0
X5.049 Z-0.001
X5.238 Z-0.018
X5.423 Z-0.057
X5.6 Z-0.118
X5.767 Z-0.198
X5.923 Z-0.296
X6.065 Z-0.41
X6.191 Z-0.538
X6.301 Z-0.677
X6.392 Z-0.825
X6.477 Z-1.005
X6.54 Z-1.202
X6.574 Z-1.383
X6.587 Z-1.572
X6.588 Z-17.6
X17.293
X17.294 Z-14.636
X17.314 Z-14.472
X17.347 Z-14.343
X17.381 Z-14.253
X17.427 Z-14.157
X17.474 Z-14.079
X17.637 Z-13.86
X17.819 Z-13.667
X18.018 Z-13.493
X18.368 Z-13.236
X19.467 Z-12.578
X19.727 Z-12.443
X20.579 Z-12.072
X20.753 Z-12.01
X21.217 Z-11.898
X21.823 Z-11.758
X22.006 Z-11.729
X22.449 Z-11.708
X22.663 Z-11.717
X23.588 Z-11.865
X23.774 Z-11.899
X23.953 Z-11.954
X24.177 Z-12.052
X24.468 Z-12.154
X24.638 Z-12.231
X24.797 Z-12.325
X24.942 Z-12.435
X25.07 Z-12.56
X25.177 Z-12.696
X25.236 Z-12.794
X25.295 Z-12.921
X25.344 Z-13.08
X25.368 Z-13.239
X25.372 Z-17.6
X39.928
Z-17.351
X39.94 Z-17.172
X39.974 Z-17.005
X40.009 Z-16.894
X40.045 Z-16.808
X40.138 Z-16.638
X40.249 Z-16.488
X40.356 Z-16.376
X41.961 Z-14.943
X44.47 Z-12.618
X44.8 Z-12.334
X47.013 Z-10.68
X47.863 Z-9.941
X48.199 Z-9.666
X48.491 Z-9.459
X51.146 Z-7.79
X51.845 Z-7.369
X52.08 Z-7.257
X52.324 Z-7.166
X52.656 Z-7.074
X52.995 Z-7.012
X53.261 Z-6.983
X53.651
X54.128 Z-7.012
X54.602 Z-7.071
X55.07 Z-7.16
X55.625 Z-7.299
X56.701 Z-7.633
X57.33 Z-7.856
X58.201 Z-8.213
X59.64 Z-8.669
X60.369 Z-8.826
X61.512 Z-8.93
X61.83 Z-8.904
X62.327 Z-8.875
X62.934
X63.402 Z-8.865
X64.062 Z-8.893
X64.441 Z-8.938
X64.767 Z-9.001
X65.085 Z-9.097
X65.346 Z-9.205
X65.595 Z-9.337
X65.828 Z-9.491
X66.633 Z-10.137
X67.073 Z-10.499
X67.912 Z-11.25
X68.781 Z-12.004
X69.424 Z-12.562
X69.543 Z-12.693
X69.645 Z-12.835
X69.737 Z-13.004
X69.806 Z-13.177
X69.852 Z-13.349
X69.875 Z-13.491
X69.886 Z-13.669
Z-17.6
X80.412
Z-1.588
X80.423 Z-1.405
X80.459 Z-1.206
X80.52 Z-1.013
X80.601 Z-0.838
X80.698 Z-0.679
X80.812 Z-0.535
X80.939 Z-0.406
X81.079 Z-0.295
X81.229 Z-0.2
X81.387 Z-0.123
X81.551 Z-0.065
X81.72 Z-0.025
X81.927 Z-0.002
X87.01 Z0
X87.046 Z0.004
X87.08 Z0.016
X87.114 Z0.028
X87.15 Z0.032
G3 X87.15 Y21.159 I0 J0.126
G1 X87.114 Z0.028
X87.08 Z0.016
X87.046 Z0.004
X87.01 Z0
X81.927 Z-0.002
X81.72 Z-0.025
X81.551 Z-0.065
X81.387 Z-0.123
X81.229 Z-0.2
X81.079 Z-0.295
X80.939 Z-0.406
X80.812 Z-0.535
X80.698 Z-0.679
X80.601 Z-0.838
X80.52 Z-1.013
X80.459 Z-1.206
X80.423 Z-1.405
X80.412 Z-1.588
Z-17.6
X69.94
X69.936 Z-13.504
X69.924 Z-13.391
X69.9 Z-13.259
X69.843 Z-13.067
X69.745 Z-12.853
X69.653 Z-12.706
X69.542 Z-12.568
X69.377 Z-12.411
X67.676 Z-10.941
X66.623 Z-9.997
X66.11 Z-9.574
X65.878 Z-9.416
X65.631 Z-9.282
X65.371 Z-9.171
X65.102 Z-9.083
X64.824 Z-9.019
X64.494 Z-8.976
X64.16 Z-8.956
X63.77 Z-8.963
X63.152 Z-9.014
X62.727 Z-9.079
X61.468 Z-9.186
X60.479 Z-9.1
X60.336 Z-9.082
X59.795 Z-8.966
X59.444 Z-8.863
X58.35 Z-8.516
X58.01 Z-8.382
X56.511 Z-7.754
X56.155 Z-7.615
X55.73 Z-7.443
X55.279 Z-7.289
X54.728 Z-7.135
X54.262 Z-7.037
X53.79 Z-6.969
X53.338 Z-6.934
X52.938 Z-6.948
X52.596 Z-6.986
X52.258 Z-7.05
X51.925 Z-7.143
X51.682 Z-7.234
X51.447 Z-7.349
X48.806 Z-9.01
X48.515 Z-9.218
X48.179 Z-9.494
X47.618 Z-9.984
X45.107 Z-11.867
X44.775 Z-12.149
X42.421 Z-14.33
X40.21 Z-16.303
X40.079 Z-16.438
X39.968 Z-16.587
X39.876 Z-16.755
X39.806 Z-16.947
X39.777 Z-17.078
X39.759 Z-17.258
X39.758 Z-17.6
X25.61
Z-13.294
X25.6 Z-13.137
X25.565 Z-12.966
X25.516 Z-12.824
X25.465 Z-12.716
X25.363 Z-12.554
X25.249 Z-12.423
X25.115 Z-12.306
X24.963 Z-12.206
X24.799 Z-12.121
X24.536 Z-12.022
X24.171 Z-11.899
X23.933 Z-11.781
X23.757 Z-11.718
X23.522 Z-11.665
X22.558 Z-11.506
X22.369 Z-11.494
X21.998 Z-11.512
X21.66 Z-11.58
X20.768 Z-11.795
X20.562 Z-11.868
X19.847 Z-12.179
X19.607 Z-12.309
X18.564 Z-12.927
X18.209 Z-13.18
X17.677 Z-13.571
X17.476 Z-13.743
X17.353 Z-13.881
X17.248 Z-14.037
X17.16 Z-14.203
X17.088 Z-14.388
X17.049 Z-14.539
X17.03 Z-14.664
X17.025 Z-14.769
X17.023 Z-17.6
X6.588
X6.587 Z-1.546
X6.575 Z-1.387
X6.538 Z-1.195
X6.489 Z-1.038
X6.441 Z-0.921
X6.346 Z-0.747
X6.246 Z-0.603
X6.128 Z-0.47
X5.994 Z-0.349
X5.845 Z-0.243
X5.683 Z-0.155
X5.511 Z-0.085
X5.33 Z-0.035
X5.144 Z-0.007
X4.805 Z0
X-0.01
X-0.046 Z0.004
X-0.08 Z0.016
X-0.114 Z0.028
X-0.15 Z0.032
G2 X-0.15 Y21.411 I0 J0.126
G1 X-0.114 Z0.028
X-0.08 Z0.016
X-0.046 Z0.004
X-0.01 Z0
X5.049 Z-0.001
X5.238 Z-0.018
X5.423 Z-0.057
X5.6 Z-0.118
X5.767 Z-0.198
X5.923 Z-0.296
X6.065 Z-0.41
X6.191 Z-0.538
X6.301 Z-0.677
X6.392 Z-0.825
X6.465 Z-0.976
X6.532 Z-1.172
X6.569 Z-1.345
X6.587 Z-1.561
X6.588 Z-17.6
X16.755
X16.757 Z-14.859
X16.762 Z-14.755
X16.793 Z-14.571
X16.856 Z-14.377
X16.936 Z-14.205
X17.031 Z-14.047
X17.194 Z-13.834
X17.38 Z-13.641
X17.581 Z-13.472
X18.352 Z-12.905
X18.715 Z-12.648
X19.769 Z-12.027
X20.009 Z-11.897
X20.548 Z-11.662
X20.753 Z-11.587
X21.895 Z-11.313
X22.099 Z-11.285
X22.292 Z-11.28
X22.481 Z-11.3
X23.516 Z-11.477
X23.697 Z-11.526
X23.871 Z-11.595
X24.192 Z-11.76
X24.806 Z-11.961
X24.998 Z-12.04
X25.157 Z-12.131
X25.3 Z-12.242
X25.426 Z-12.367
X25.533 Z-12.505
X25.621 Z-12.652
X25.699 Z-12.833
X25.738 Z-12.965
X25.762 Z-13.091
X25.773 Z-13.192
X25.777 Z-17.6
X39.59
Z-17.248
X39.597 Z-17.108
X39.628 Z-16.931
X39.662 Z-16.817
X39.696 Z-16.73
X39.786 Z-16.556
X39.895 Z-16.404
X40.02 Z-16.271
X42.873 Z-13.723
X45.027 Z-11.73
X45.355 Z-11.445
X48.104 Z-9.389
X48.521 Z-9.024
X48.857 Z-8.749
X49.149 Z-8.542
X50.363 Z-7.778
X51.144 Z-7.29
X51.38 Z-7.176
X51.624 Z-7.088
X51.959 Z-7.003
X52.299 Z-6.946
X52.641 Z-6.914
X53.031 Z-6.907
X53.413 Z-6.927
X53.791 Z-6.982
X54.257 Z-7.08
X54.714 Z-7.21
X55.234 Z-7.4
X55.67 Z-7.587
X56.096 Z-7.803
X56.425 Z-7.963
X58.345 Z-8.77
X59.79 Z-9.228
X60.429 Z-9.362
X60.717 Z-9.378
X61.476 Z-9.445
X61.596 Z-9.426
X62.644 Z-9.337
X62.996 Z-9.259
X63.686 Z-9.096
X64.027 Z-9.05
X64.474 Z-9.026
X64.762 Z-9.037
X65.045 Z-9.074
X65.324 Z-9.135
X65.594 Z-9.22
X65.856 Z-9.33
X66.101 Z-9.461
X66.286 Z-9.595
X67.317 Z-10.521
X68.748 Z-11.761
X69.499 Z-12.418
X69.65 Z-12.581
X69.752 Z-12.723
X69.837 Z-12.874
X69.924 Z-13.094
X69.973 Z-13.3
X69.99 Z-13.443
X69.994 Z-17.6
X80.412
Z-1.588
X80.423 Z-1.405
X80.459 Z-1.206
X80.52 Z-1.013
X80.601 Z-0.838
X80.698 Z-0.679
X80.812 Z-0.535
X80.939 Z-0.406
X81.079 Z-0.295
X81.229 Z-0.2
X81.387 Z-0.123
X81.551 Z-0.065
X81.72 Z-0.025
X81.927 Z-0.002
X87.01 Z0
X87.046 Z0.004
X87.08 Z0.016
X87.114 Z0.028
X87.15 Z0.032
G3 X87.15 Y21.663 I0 J0.126
G1 X87.114 Z0.028
X87.08 Z0.016
X87.046 Z0.004
X87.01 Z0
X81.927 Z-0.002
X81.72 Z-0.025
X81.551 Z-0.065
X81.387 Z-0.123
X81.229 Z-0.2
X81.079 Z-0.295
X80.939 Z-0.406
X80.812 Z-0.535
X80.698 Z-0.679
X80.601 Z-0.838
X80.52 Z-1.013
X80.459 Z-1.206
X80.423 Z-1.405
X80.412 Z-1.588
Z-17.6
X70.03
X70.026 Z-13.436
X69.997 Z-13.228
X69.949 Z-13.043
X69.875 Z-12.859
X69.79 Z-12.7
X69.69 Z-12.556
X69.574 Z-12.422
X68.805 Z-11.718
X68.09 Z-11.087
X67.093 Z-10.222
X66.453 Z-9.648
X66.232 Z-9.481
X65.983 Z-9.339
X65.816 Z-9.27
X65.546 Z-9.187
X65.267 Z-9.128
X64.984 Z-9.094
X64.695 Z-9.086
X64.426 Z-9.105
X64.171 Z-9.147
X63.734 Z-9.253
X63.408 Z-9.37
X63.248 Z-9.431
X62.699 Z-9.577
X61.942 Z-9.648
X61.751 Z-9.664
X61.561 Z-9.688
X61.477 Z-9.704
X60.67 Z-9.635
X60.429 Z-9.625
X59.977 Z-9.531
X59.79 Z-9.485
X58.635 Z-9.121
X58.533 Z-9.094
X56.603 Z-8.285
X56.274 Z-8.125
X54.847 Z-7.394
X54.497 Z-7.247
X54.138 Z-7.124
X53.667 Z-6.998
X53.304 Z-6.932
X52.925 Z-6.891
X52.539 Z-6.878
X52.164 Z-6.892
X51.737 Z-6.943
X51.4 Z-7.015
X51.152 Z-7.094
X50.912 Z-7.196
X50.683 Z-7.325
X49.485 Z-8.079
X49.193 Z-8.285
X48.857 Z-8.56
X48.584 Z-8.794
X45.673 Z-10.969
X45.343 Z-11.252
X43.328 Z-13.114
X39.834 Z-16.236
X39.705 Z-16.378
X39.6 Z-16.533
X39.514 Z-16.708
X39.477 Z-16.814
X39.439 Z-16.973
X39.421 Z-17.181
X39.42 Z-17.6
X25.884
Z-13.243
X25.859 Z-13.019
X25.81 Z-12.828
X25.725 Z-12.62
X25.642 Z-12.475
X25.539 Z-12.334
X25.418 Z-12.203
X25.28 Z-12.087
X25.087 Z-11.964
X24.79 Z-11.824
X24.479 Z-11.711
X24.251 Z-11.639
X23.754 Z-11.383
X23.579 Z-11.316
X23.397 Z-11.272
X22.363 Z-11.09
X22.174 Z-11.077
X21.968 Z-11.094
X21.641 Z-11.162
X20.73 Z-11.382
X20.565 Z-11.443
X20.145 Z-11.627
X19.906 Z-11.759
X18.859 Z-12.373
X18.505 Z-12.624
X17.887 Z-13.077
X17.487 Z-13.408
X17.131 Z-13.714
X16.943 Z-13.904
X16.778 Z-14.115
X16.681 Z-14.271
X16.598 Z-14.441
X16.533 Z-14.63
X16.497 Z-14.811
X16.488 Z-14.958
Z-17.6
X6.588
X6.587 Z-1.565
X6.575 Z-1.385
X6.536 Z-1.187
X6.5 Z-1.069
X6.428 Z-0.895
X6.346 Z-0.747
X6.246 Z-0.603
X6.128 Z-0.47
X5.994 Z-0.349
X5.845 Z-0.243
X5.683 Z-0.155
X5.511 Z-0.085
X5.33 Z-0.035
X5.144 Z-0.007
X4.805 Z0
X-0.01
X-0.046 Z0.004
X-0.08 Z0.016
X-0.114 Z0.028
X-0.15 Z0.032
G2 X-0.15 Y21.915 I0 J0.126
G1 X-0.114 Z0.028
X-0.08 Z0.016
X-0.046 Z0.004
X-0.01 Z0
X5.049 Z-0.001
X5.238 Z-0.018
X5.423 Z-0.057
X5.6 Z-0.118
X5.767 Z-0.198
X5.923 Z-0.296
X6.065 Z-0.41
X6.191 Z-0.538
X6.301 Z-0.677
X6.392 Z-0.825
X6.465 Z-0.976
X6.538 Z-1.195
X6.575 Z-1.389
X6.587 Z-1.572
X6.588 Z-17.6
X16.218
X16.223 Z-14.969
X16.256 Z-14.754
X16.318 Z-14.56
X16.398 Z-14.388
X16.544 Z-14.157
X16.717 Z-13.949
X16.906 Z-13.765
X17.635 Z-13.145
X18.113 Z-12.744
X18.645 Z-12.353
X18.999 Z-12.1
X19.899 Z-11.577
X20.276 Z-11.36
X20.57 Z-11.229
X20.767 Z-11.161
X21.213 Z-11.053
X21.466 Z-11
X21.807 Z-10.956
X22.147 Z-10.937
X22.373 Z-10.95
X23.498 Z-11.161
X23.677 Z-11.213
X23.807 Z-11.268
X24.248 Z-11.489
X24.36 Z-11.529
X24.623 Z-11.636
X24.876 Z-11.762
X25.231 Z-11.976
X25.422 Z-12.119
X25.55 Z-12.245
X25.661 Z-12.383
X25.754 Z-12.53
X25.833 Z-12.692
X25.906 Z-12.917
X25.94 Z-13.11
X25.949 Z-13.283
Z-17.6
X39.246
X39.248 Z-17.049
X39.265 Z-16.902
X39.296 Z-16.771
X39.327 Z-16.681
X39.377 Z-16.569
X39.427 Z-16.479
X39.506 Z-16.365
X39.655 Z-16.194
X43.791 Z-12.499
X45.666 Z-10.767
X45.999 Z-10.488
X49.063 Z-8.199
X49.529 Z-7.822
X49.821 Z-7.617
X50.371 Z-7.27
X50.602 Z-7.143
X50.842 Z-7.044
X51.091 Z-6.968
X51.343 Z-6.912
X51.684 Z-6.867
X52.046 Z-6.851
X52.434 Z-6.857
X52.814 Z-6.89
X53.191 Z-6.951
X53.56 Z-7.04
X53.922 Z-7.157
X54.275 Z-7.298
X54.614 Z-7.464
X55.262 Z-7.832
X56.694 Z-8.571
X58.62 Z-9.381
X58.803 Z-9.431
X59.974 Z-9.794
X60.427 Z-9.888
X60.524 Z-9.892
X60.91 Z-9.913
X61.478 Z-9.963
X61.585 Z-9.942
X61.776 Z-9.913
X62.538 Z-9.849
X62.723 Z-9.814
X63.067 Z-9.726
X63.781 Z-9.45
X63.859 Z-9.412
X64.096 Z-9.303
X64.345 Z-9.225
X64.599 Z-9.175
X64.868 Z-9.149
X65.158
X65.442 Z-9.177
X65.722 Z-9.231
X65.99 Z-9.318
X66.244 Z-9.438
X66.478 Z-9.587
X66.633 Z-9.711
X67.686 Z-10.636
X69.489 Z-12.274
X69.649 Z-12.435
X69.758 Z-12.575
X69.848 Z-12.724
X69.924 Z-12.886
X69.997 Z-13.114
X70.032 Z-13.312
X70.043 Z-13.487
Z-17.6
X80.412
Z-1.588
X80.423 Z-1.405
X80.459 Z-1.206
X80.52 Z-1.013
X80.601 Z-0.838
X80.698 Z-0.679
X80.812 Z-0.535
X80.939 Z-0.406
X81.079 Z-0.295
X81.229 Z-0.2
X81.387 Z-0.123
X81.551 Z-0.065
X81.72 Z-0.025
X81.927 Z-0.002
X87.01 Z0
X87.046 Z0.004
X87.08 Z0.016
X87.114 Z0.028
X87.15 Z0.032
G3 X87.15 Y22.167 I0 J0.126
G1 X87.114 Z0.028
X87.08 Z0.016
X87.046 Z0.004
X87.01 Z0
X81.927 Z-0.002
X81.72 Z-0.025
X81.551 Z-0.065
X81.387 Z-0.123
X81.229 Z-0.2
X81.079 Z-0.295
X80.939 Z-0.406
X80.812 Z-0.535
X80.698 Z-0.679
X80.601 Z-0.838
X80.52 Z-1.013
X80.459 Z-1.206
X80.423 Z-1.405
X80.412 Z-1.588
Z-17.6
X70.056
Z-13.446
X70.046 Z-13.263
X70.022 Z-13.11
X69.973 Z-12.928
X69.924 Z-12.799
X69.861 Z-12.669
X69.771 Z-12.52
X69.662 Z-12.38
X69.502 Z-12.219
X66.921 Z-9.872
X66.707 Z-9.686
X66.478 Z-9.526
X66.231 Z-9.398
X65.966 Z-9.3
X65.69 Z-9.236
X65.406 Z-9.207
X65.091 Z-9.21
X64.834 Z-9.236
X64.58 Z-9.288
X64.333 Z-9.368
X64.094 Z-9.479
X63.795 Z-9.649
X63.629 Z-9.732
X63.093 Z-9.938
X62.934 Z-10.004
X62.572 Z-10.096
X61.815 Z-10.162
X61.476 Z-10.222
X60.863 Z-10.17
X60.427 Z-10.151
X59.974 Z-10.055
X59.013 Z-9.753
X58.714 Z-9.668
X57.057 Z-8.974
X56.88 Z-8.897
X55.447 Z-8.159
X54.136 Z-7.411
X53.719 Z-7.205
X53.374 Z-7.073
X53.009 Z-6.968
X52.636 Z-6.892
X52.163 Z-6.834
X51.782 Z-6.811
X51.489 Z-6.816
X51.135 Z-6.85
X50.797 Z-6.916
X50.547 Z-6.989
X50.305 Z-7.084
X50.149 Z-7.163
X49.93 Z-7.311
X46.217 Z-10.089
X45.888 Z-10.375
X44.36 Z-11.787
X40.367 Z-15.349
X39.44 Z-16.15
X39.31 Z-16.289
X39.202 Z-16.442
X39.115 Z-16.617
X39.077 Z-16.727
X39.042 Z-16.884
X39.028 Z-17.065
Z-17.6
X26.008
Z-13.247
X25.997 Z-13.075
X25.973 Z-12.929
X25.914 Z-12.727
X25.847 Z-12.569
X25.766 Z-12.427
X25.664 Z-12.285
X25.544 Z-12.153
X25.408 Z-12.034
X25.179 Z-11.88
X24.695 Z-11.577
X24.444 Z-11.445
X24.009 Z-11.254
X23.652 Z-11.122
X23.471 Z-11.075
X22.439 Z-10.872
X22.155 Z-10.844
X21.769 Z-10.834
X21.397 Z-10.849
X21.056 Z-10.89
X20.76 Z-10.951
X20.554 Z-11.024
X20.32 Z-11.141
X19.186 Z-11.798
X18.96 Z-11.952
X18.436 Z-12.337
X17.963 Z-12.73
X16.586 Z-13.902
X16.399 Z-14.093
X16.229 Z-14.315
X16.141 Z-14.468
X16.067 Z-14.655
X16.027 Z-14.821
X16.009 Z-14.966
X16.006 Z-17.6
X6.588
X6.587 Z-1.567
X6.576 Z-1.4
X6.543 Z-1.216
X6.495 Z-1.052
X6.446 Z-0.932
X6.346 Z-0.747
X6.246 Z-0.603
X6.128 Z-0.47
X5.994 Z-0.349
X5.845 Z-0.243
X5.683 Z-0.155
X5.511 Z-0.085
X5.33 Z-0.035
X5.144 Z-0.007
X4.805 Z0
X-0.01
X-0.046 Z0.004
X-0.08 Z0.016
X-0.114 Z0.028
X-0.15 Z0.032
G2 X-0.15 Y22.419 I0 J0.126
G1 X-0.114 Z0.028
X-0.08 Z0.016
X-0.046 Z0.004
X-0.01 Z0
X5.049 Z-0.001
X5.238 Z-0.018
X5.423 Z-0.057
X5.6 Z-0.118
X5.767 Z-0.198
X5.923 Z-0.296
X6.065 Z-0.41
X6.191 Z-0.538
X6.301 Z-0.677
X6.392 Z-0.825
X6.453 Z-0.949
X6.502 Z-1.074
X6.551 Z-1.248
X6.578 Z-1.417
X6.588 Z-1.588
Z-17.6
X15.818
Z-15.133
X15.834 Z-14.929
X15.859 Z-14.801
X15.919 Z-14.608
X15.997 Z-14.434
X16.089 Z-14.273
X16.198 Z-14.123
X16.354 Z-13.96
X18.28 Z-12.322
X18.679 Z-11.991
X19.126 Z-11.661
X19.353 Z-11.509
X20.324 Z-10.949
X20.561 Z-10.838
X20.727 Z-10.784
X20.897 Z-10.752
X21.167 Z-10.734
X21.556
X21.937 Z-10.76
X22.41 Z-10.824
X23.533 Z-11.053
X23.991 Z-11.183
X24.346 Z-11.309
X24.512 Z-11.393
X25.348 Z-11.925
X25.539 Z-12.068
X25.667 Z-12.194
X25.778 Z-12.332
X25.903 Z-12.538
X25.983 Z-12.729
X26.031 Z-12.904
X26.056 Z-13.051
X26.066 Z-13.232
Z-17.6
X38.808
X38.81 Z-17.015
X38.816 Z-16.897
X38.849 Z-16.715
X38.885 Z-16.601
X38.921 Z-16.514
X39.016 Z-16.344
X39.129 Z-16.197
X39.259 Z-16.068
X41.416 Z-14.208
X44.841 Z-11.155
X46.215 Z-9.886
X46.547 Z-9.604
X49.805 Z-7.171
X50.033 Z-7.036
X50.272 Z-6.932
X50.439 Z-6.881
X50.777 Z-6.813
X51.119 Z-6.777
X51.411 Z-6.769
X51.795 Z-6.789
X52.162 Z-6.841
X52.712 Z-6.963
X53.074 Z-7.075
X53.339 Z-7.18
X53.592 Z-7.303
X54.001 Z-7.548
X55.625 Z-8.481
X57.139 Z-9.261
X57.494 Z-9.402
X58.894 Z-9.987
X59.17 Z-10.06
X59.809 Z-10.259
X60.159 Z-10.36
X60.425 Z-10.415
X60.717 Z-10.427
X61.103 Z-10.447
X61.48 Z-10.481
X61.852 Z-10.411
X62.424 Z-10.361
X62.609 Z-10.33
X62.795 Z-10.283
X63.47 Z-10.016
X63.636 Z-9.941
X64.135 Z-9.657
X64.439 Z-9.489
X64.692 Z-9.388
X64.929 Z-9.324
X65.204 Z-9.269
X65.485 Z-9.25
X65.675 Z-9.259
X65.956 Z-9.302
X66.229 Z-9.379
X66.444 Z-9.468
X66.644 Z-9.582
X66.79 Z-9.694
X69.562 Z-12.218
X69.728 Z-12.397
X69.828 Z-12.54
X69.924 Z-12.718
X69.973 Z-12.837
X70.022 Z-12.998
X70.058 Z-13.195
X70.069 Z-13.376
Z-17.6
X80.412
Z-1.588
X80.423 Z-1.405
X80.459 Z-1.206
X80.52 Z-1.013
X80.601 Z-0.838
X80.698 Z-0.679
X80.812 Z-0.535
X80.939 Z-0.406
X81.079 Z-0.295
X81.229 Z-0.2
X81.387 Z-0.123
X81.551 Z-0.065
X81.72 Z-0.025
X81.927 Z-0.002
X87.01 Z0
X87.046 Z0.004
X87.08 Z0.016
X87.114 Z0.028
X87.15 Z0.032
G3 X87.15 Y22.671 I0 J0.126
G1 X87.114 Z0.028
X87.08 Z0.016
X87.046 Z0.004
X87.01 Z0
X81.927 Z-0.002
X81.72 Z-0.025
X81.551 Z-0.065
X81.387 Z-0.123
X81.229 Z-0.2
X81.079 Z-0.295
X80.939 Z-0.406
X80.812 Z-0.535
X80.698 Z-0.679
X80.601 Z-0.838
X80.52 Z-1.013
X80.459 Z-1.206
X80.423 Z-1.405
X80.412 Z-1.588
Z-17.6
X70.072
X70.07 Z-13.318
X70.046 Z-13.094
X69.998 Z-12.894
X69.925 Z-12.703
X69.831 Z-12.525
X69.733 Z-12.38
X69.617 Z-12.244
X69.276 Z-11.925
X67.158 Z-9.992
X66.875 Z-9.736
X66.73 Z-9.623
X66.573 Z-9.526
X66.406 Z-9.443
X66.231 Z-9.378
X66.048 Z-9.334
X65.765 Z-9.299
X65.572 Z-9.297
X65.303 Z-9.323
X65.051 Z-9.381
X64.806 Z-9.475
X64.65 Z-9.557
X64.337 Z-9.744
X63.505 Z-10.216
X62.823 Z-10.494
X62.647 Z-10.564
X62.461 Z-10.609
X61.937 Z-10.655
X61.482 Z-10.74
X61.008 Z-10.703
X60.424 Z-10.678
X60.158 Z-10.623
X59.352 Z-10.374
X58.983 Z-10.276
X57.675 Z-9.728
X57.318 Z-9.583
X55.804 Z-8.803
X54.326 Z-7.955
X53.283 Z-7.318
X53.033 Z-7.188
X52.771 Z-7.077
X52.341 Z-6.926
X52.066 Z-6.85
X51.693 Z-6.777
X51.314 Z-6.736
X51.023 Z-6.728
X50.655 Z-6.745
X50.4 Z-6.783
X50.148 Z-6.846
X49.903 Z-6.934
X49.667 Z-7.051
X49.449 Z-7.198
X46.867 Z-9.126
X46.591 Z-9.354
X45.289 Z-10.553
X42.579 Z-12.97
X39.046 Z-16.015
X38.912 Z-16.147
X38.799 Z-16.294
X38.705 Z-16.461
X38.663 Z-16.563
X38.619 Z-16.715
X38.599 Z-16.846
X38.593 Z-16.968
Z-17.6
X26.125
Z-13.206
X26.115 Z-13.028
X26.083 Z-12.846
X26.061 Z-12.765
X26.017 Z-12.638
X25.93 Z-12.454
X25.837 Z-12.307
X25.725 Z-12.169
X25.597 Z-12.043
X25.406 Z-11.9
X24.811 Z-11.524
X24.483 Z-11.332
X24.315 Z-11.253
X24.137 Z-11.194
X23.673 Z-11.084
X22.476 Z-10.83
X22.029 Z-10.733
X21.558 Z-10.664
X21.129 Z-10.632
X20.897 Z-10.641
X20.642 Z-10.683
X20.392 Z-10.755
X20.151 Z-10.859
X19.444 Z-11.267
X19.061 Z-11.54
X18.734 Z-11.8
X17.224 Z-13.078
X16.665 Z-13.546
X16.163 Z-14.021
X15.989 Z-14.224
X15.886 Z-14.374
X15.796 Z-14.536
X15.721 Z-14.713
X15.664 Z-14.91
X15.636 Z-15.098
X15.631 Z-15.205
X15.629 Z-17.6
X6.588
X6.587 Z-1.571
X6.573 Z-1.373
X6.534 Z-1.179
X6.461 Z-0.966
X6.392 Z-0.825
X6.301 Z-0.677
X6.191 Z-0.538
X6.065 Z-0.41
X5.923 Z-0.296
X5.767 Z-0.198
X5.6 Z-0.118
X5.423 Z-0.057
X5.238 Z-0.018
X5.049 Z-0.001
X-0.01 Z0
X-0.046 Z0.004
X-0.08 Z0.016
X-0.114 Z0.028
X-0.15 Z0.032
G2 X-0.15 Y22.923 I0 J0.126
G1 X-0.114 Z0.028
X-0.08 Z0.016
X-0.046 Z0.004
X-0.01 Z0
X5.049 Z-0.001
X5.238 Z-0.018
X5.423 Z-0.057
X5.6 Z-0.118
X5.767 Z-0.198
X5.923 Z-0.296
X6.065 Z-0.41
X6.191 Z-0.538
X6.301 Z-0.677
X6.392 Z-0.825
X6.467 Z-0.98
X6.54 Z-1.202
X6.576 Z-1.396
X6.587 Z-1.573
X6.588 Z-17.6
X15.443
Z-15.29
X15.448 Z-15.179
X15.469 Z-15.021
X15.523 Z-14.819
X15.595 Z-14.64
X15.683 Z-14.476
X15.784 Z-14.324
X15.956 Z-14.118
X16.779 Z-13.321
X17.215 Z-12.924
X18.02 Z-12.261
X18.897 Z-11.524
X19.231 Z-11.248
X19.583 Z-10.995
X19.961 Z-10.779
X20.202 Z-10.681
X20.454 Z-10.613
X20.709 Z-10.575
X21.001 Z-10.564
X21.275 Z-10.582
X21.756 Z-10.665
X22.219 Z-10.778
X22.606 Z-10.9
X23.377 Z-11.071
X23.519 Z-11.092
X23.991 Z-11.164
X24.174 Z-11.206
X24.439 Z-11.303
X24.693 Z-11.427
X25.393 Z-11.834
X25.581 Z-11.962
X25.716 Z-12.082
X25.835 Z-12.215
X25.936 Z-12.357
X26.033 Z-12.536
X26.084 Z-12.66
X26.133 Z-12.821
X26.167 Z-13.015
X26.177 Z-13.18
Z-17.6
X38.374
X38.375 Z-16.917
X38.387 Z-16.746
X38.424 Z-16.581
X38.462 Z-16.471
X38.549 Z-16.296
X38.656 Z-16.143
X38.787 Z-16.004
X40.017 Z-14.94
X43.624 Z-11.833
X45.764 Z-9.927
X46.797 Z-8.975
X47.129 Z-8.694
X48.661 Z-7.549
X49.318 Z-7.063
X49.546 Z-6.935
X49.789 Z-6.836
X50.038 Z-6.765
X50.292 Z-6.717
X50.55 Z-6.692
X50.841 Z-6.689
X51.222 Z-6.717
X51.597 Z-6.779
X51.965 Z-6.872
X52.235 Z-6.965
X52.486 Z-7.072
X52.899 Z-7.291
X54.677 Z-8.377
X55.989 Z-9.129
X57.503 Z-9.909
X57.682 Z-9.988
X57.948 Z-10.091
X59.076 Z-10.563
X59.56 Z-10.695
X60.157 Z-10.881
X60.422 Z-10.941
X60.813 Z-10.958
X61.296 Z-10.982
X61.483 Z-10.999
X62.036 Z-10.897
X62.322 Z-10.873
X62.507 Z-10.843
X63.364 Z-10.498
X64.188 Z-10.025
X64.644 Z-9.713
X64.867 Z-9.57
X65.106 Z-9.462
X65.356 Z-9.389
X65.612 Z-9.35
X65.807 Z-9.342
X65.997 Z-9.354
X66.183 Z-9.387
X66.364 Z-9.439
X66.537 Z-9.508
X66.702 Z-9.594
X66.856 Z-9.696
X66.998 Z-9.811
X67.846 Z-10.584
X69.499 Z-12.102
X69.657 Z-12.265
X69.765 Z-12.406
X69.855 Z-12.555
X69.924 Z-12.703
X69.973 Z-12.837
X70.022 Z-13.032
X70.046 Z-13.226
X70.05 Z-17.6
X80.412
Z-1.588
X80.423 Z-1.405
X80.459 Z-1.206
X80.52 Z-1.013
X80.601 Z-0.838
X80.698 Z-0.679
X80.812 Z-0.535
X80.939 Z-0.406
X81.079 Z-0.295
X81.229 Z-0.2
X81.387 Z-0.123
X81.551 Z-0.065
X81.72 Z-0.025
X81.927 Z-0.002
X87.01 Z0
X87.046 Z0.004
X87.08 Z0.016
X87.114 Z0.028
X87.15 Z0.032
G3 X87.15 Y23.174 I0 J0.126
G1 X87.114 Z0.028
X87.08 Z0.016
X87.046 Z0.004
X87.01 Z0
X81.927 Z-0.002
X81.72 Z-0.025
X81.551 Z-0.065
X81.387 Z-0.123
X81.229 Z-0.2
X81.079 Z-0.295
X80.939 Z-0.406
X80.812 Z-0.535
X80.698 Z-0.679
X80.601 Z-0.838
X80.52 Z-1.013
X80.459 Z-1.206
X80.423 Z-1.405
X80.412 Z-1.588
Z-17.6
X70.027
Z-13.285
X70.022 Z-13.15
X69.997 Z-12.972
X69.949 Z-12.781
X69.875 Z-12.593
X69.787 Z-12.427
X69.689 Z-12.282
X69.573 Z-12.146
X69.232 Z-11.827
X67.403 Z-10.145
X67.05 Z-9.824
X66.903 Z-9.712
X66.746 Z-9.614
X66.579 Z-9.533
X66.404 Z-9.468
X66.221 Z-9.422
X66.034 Z-9.395
X65.842 Z-9.387
X65.659 Z-9.4
X65.489 Z-9.43
X65.322 Z-9.478
X65.16 Z-9.544
X64.929 Z-9.673
X63.696 Z-10.511
X63.197 Z-10.79
X62.86 Z-10.924
X62.387 Z-11.116
X62.004 Z-11.158
X61.485 Z-11.258
X61.006 Z-11.23
X60.421 Z-11.205
X60.155 Z-11.137
X59.718 Z-11.002
X59.256 Z-10.88
X58.737 Z-10.668
X58.208 Z-10.449
X57.763 Z-10.272
X56.158 Z-9.446
X55.013 Z-8.79
X53.072 Z-7.604
X52.449 Z-7.191
X52.201 Z-7.055
X51.943 Z-6.94
X51.675 Z-6.845
X51.401 Z-6.768
X51.028 Z-6.695
X50.744 Z-6.659
X50.457 Z-6.647
X50.177 Z-6.66
X49.92 Z-6.694
X49.668 Z-6.752
X49.421 Z-6.835
X49.184 Z-6.945
X48.959 Z-7.089
X47.391 Z-8.262
X47.056 Z-8.549
X46.103 Z-9.422
X44.674 Z-10.691
X40.647 Z-14.16
X38.584 Z-15.941
X38.476 Z-16.051
X38.362 Z-16.199
X38.267 Z-16.369
X38.231 Z-16.455
X38.195 Z-16.57
X38.163 Z-16.752
X38.157 Z-16.87
Z-17.6
X26.194
X26.19 Z-13.094
X26.169 Z-12.914
X26.108 Z-12.679
X26.059 Z-12.554
X25.998 Z-12.432
X25.907 Z-12.284
X25.797 Z-12.144
X25.671 Z-12.016
X25.529 Z-11.902
X24.963 Z-11.558
X24.715 Z-11.425
X24.452 Z-11.319
X24.18 Z-11.241
X23.887 Z-11.193
X23.304 Z-11.147
X22.647 Z-10.993
X22.228 Z-10.823
X21.775 Z-10.677
X21.313 Z-10.562
X21.031 Z-10.517
X20.746 Z-10.501
X20.465 Z-10.515
X20.209 Z-10.556
X19.938 Z-10.632
X19.797 Z-10.691
X19.606 Z-10.803
X19.296 Z-11.047
X17.622 Z-12.427
X17.19 Z-12.821
X15.812 Z-14.15
X15.635 Z-14.35
X15.529 Z-14.497
X15.437 Z-14.657
X15.359 Z-14.831
X15.298 Z-15.023
X15.266 Z-15.198
X15.256 Z-15.35
Z-17.6
X6.588
X6.587 Z-1.576
X6.574 Z-1.383
X6.55 Z-1.244
X6.501 Z-1.071
X6.435 Z-0.908
X6.346 Z-0.747
X6.246 Z-0.603
X6.128 Z-0.47
X5.994 Z-0.349
X5.845 Z-0.243
X5.683 Z-0.155
X5.511 Z-0.085
X5.33 Z-0.035
X5.144 Z-0.007
X4.805 Z0
X-0.01
X-0.046 Z0.004
X-0.08 Z0.016
X-0.114 Z0.028
X-0.15 Z0.032
G2 X-0.15 Y23.426 I0 J0.126
G1 X-0.114 Z0.028
X-0.08 Z0.016
X-0.046 Z0.004
X-0.01 Z0
X4.805
X5.144 Z-0.007
X5.331 Z-0.035
X5.511 Z-0.085
X5.683 Z-0.155
X5.845 Z-0.244
X5.994 Z-0.349
X6.128 Z-0.47
X6.246 Z-0.604
X6.346 Z-0.747
X6.456 Z-0.955
X6.52 Z-1.128
X6.554 Z-1.261
X6.579 Z-1.424
X6.588 Z-1.588
Z-17.6
X15.106
Z-15.387
X15.112 Z-15.257
X15.133 Z-15.105
X15.18 Z-14.918
X15.261 Z-14.716
X15.329 Z-14.594
X15.461 Z-14.408
X15.64 Z-14.21
X17.678 Z-12.246
X18.064 Z-11.9
X19.415 Z-10.79
X19.6 Z-10.666
X19.757 Z-10.586
X20.002 Z-10.499
X20.172 Z-10.463
X20.343 Z-10.445
X20.634 Z-10.442
X20.918 Z-10.47
X21.197 Z-10.525
X21.469 Z-10.607
X22.072 Z-10.836
X22.416 Z-10.994
X22.7 Z-11.148
X23.094 Z-11.243
X23.303 Z-11.237
X23.57 Z-11.253
X23.957 Z-11.268
X24.24 Z-11.3
X24.517 Z-11.363
X24.694 Z-11.424
X24.861 Z-11.504
X25.462 Z-11.886
X25.644 Z-12.025
X25.771 Z-12.152
X25.882 Z-12.29
X26.006 Z-12.499
X26.087 Z-12.694
X26.136 Z-12.873
X26.161 Z-13.028
X26.169 Z-13.185
Z-17.6
X37.94
X37.942 Z-16.747
X37.965 Z-16.576
X38.008 Z-16.423
X38.049 Z-16.32
X38.143 Z-16.152
X38.256 Z-16.005
X38.389 Z-15.872
X41.356 Z-13.311
X45.688 Z-9.581
X46.546 Z-8.823
X47.428 Z-8.019
X47.704 Z-7.79
X48.684 Z-7.057
X48.907 Z-6.912
X49.143 Z-6.8
X49.39 Z-6.716
X49.642 Z-6.657
X49.898 Z-6.622
X50.178 Z-6.608
X50.466 Z-6.618
X50.749 Z-6.653
X51.028 Z-6.712
X51.393 Z-6.82
X51.659 Z-6.92
X51.915 Z-7.038
X52.161 Z-7.178
X53.4 Z-8.01
X55.341 Z-9.198
X56.405 Z-9.808
X58.014 Z-10.631
X58.549 Z-10.838
X59.328 Z-11.164
X59.79 Z-11.287
X60.156 Z-11.393
X60.418 Z-11.468
X60.905 Z-11.489
X61.483 Z-11.516
X62.06 Z-11.406
X62.299 Z-11.377
X63.026 Z-11.079
X63.192 Z-10.999
X63.351 Z-10.905
X64.614 Z-10.044
X64.895 Z-9.818
X65.038 Z-9.71
X65.19 Z-9.619
X65.35 Z-9.546
X65.515 Z-9.492
X65.685 Z-9.455
X65.879 Z-9.435
X66.07 Z-9.436
X66.259 Z-9.458
X66.443 Z-9.499
X66.621 Z-9.559
X66.79 Z-9.636
X66.951 Z-9.729
X67.098 Z-9.837
X69.416 Z-11.975
X69.611 Z-12.168
X69.719 Z-12.308
X69.843 Z-12.521
X69.924 Z-12.726
X69.973 Z-12.912
X70.001 Z-13.124
X70.005 Z-17.6
X80.412
Z-1.588
X80.423 Z-1.405
X80.459 Z-1.206
X80.52 Z-1.013
X80.601 Z-0.838
X80.698 Z-0.679
X80.812 Z-0.535
X80.939 Z-0.406
X81.079 Z-0.295
X81.229 Z-0.2
X81.387 Z-0.123
X81.551 Z-0.065
X81.72 Z-0.025
X81.927 Z-0.002
X87.01 Z0
X87.046 Z0.004
X87.08 Z0.016
X87.114 Z0.028
X87.15 Z0.032
G3 X87.15 Y23.678 I0 J0.126
G1 X87.114 Z0.028
X87.08 Z0.016
X87.046 Z0.004
X87.01 Z0
X81.927 Z-0.002
X81.72 Z-0.025
X81.551 Z-0.065
X81.387 Z-0.123
X81.229 Z-0.2
X81.079 Z-0.295
X80.939 Z-0.406
X80.812 Z-0.535
X80.698 Z-0.679
X80.601 Z-0.838
X80.52 Z-1.013
X80.459 Z-1.206
X80.423 Z-1.405
X80.412 Z-1.588
Z-17.6
X69.978
Z-13.201
X69.973 Z-13.078
X69.949 Z-12.904
X69.9 Z-12.718
X69.829 Z-12.541
X69.737 Z-12.373
X69.636 Z-12.228
X69.519 Z-12.093
X69.038 Z-11.641
X67.147 Z-9.886
X67.002 Z-9.771
X66.805 Z-9.653
X66.591 Z-9.564
X66.41 Z-9.515
X66.223 Z-9.487
X66.032 Z-9.479
X65.837 Z-9.492
X65.667 Z-9.522
X65.499 Z-9.57
X65.337 Z-9.635
X65.182 Z-9.72
X65.002 Z-9.849
X64.323 Z-10.4
X62.948 Z-11.333
X62.241 Z-11.624
X61.482 Z-11.777
X60.416 Z-11.731
X59.971 Z-11.601
X59.417 Z-11.449
X58.817 Z-11.2
X58.194 Z-10.955
X56.593 Z-10.135
X55.548 Z-9.533
X53.771 Z-8.442
X51.802 Z-7.122
X51.557 Z-6.985
X51.233 Z-6.831
X50.967 Z-6.732
X50.694 Z-6.656
X50.413 Z-6.603
X50.129 Z-6.574
X49.841 Z-6.569
X49.572 Z-6.589
X49.317 Z-6.629
X49.065 Z-6.694
X48.821 Z-6.785
X48.587 Z-6.904
X48.37 Z-7.054
X47.874 Z-7.431
X47.613 Z-7.661
X46.919 Z-8.284
X41.862 Z-12.637
X38.211 Z-15.786
X38.043 Z-15.935
X37.916 Z-16.083
X37.816 Z-16.244
X37.77 Z-16.342
X37.738 Z-16.432
X37.705 Z-16.563
X37.69 Z-16.688
X37.686 Z-17.6
X26.103
Z-13.194
X26.091 Z-13.004
X26.054 Z-12.816
X25.981 Z-12.603
X25.908 Z-12.455
X25.813 Z-12.309
X25.7 Z-12.173
X25.57 Z-12.049
X25.197 Z-11.78
X24.89 Z-11.573
X24.727 Z-11.487
X24.553 Z-11.422
X24.37 Z-11.377
X24.182 Z-11.355
X23.697 Z-11.346
X23.335 Z-11.325
X23.14 Z-11.333
X22.922 Z-11.373
X22.874 Z-11.382
X22.802 Z-11.361
X22.068 Z-10.944
X21.77 Z-10.793
X21.493 Z-10.646
